;This Gcode has been generated specifically for the LulzBot Mini
;Basic settings: Layer height: 0.38 Walls: 1 Fill: 20
;Filament Diameter: 2.85
;Nozzle Size: 0.5
G21                          ; metric values
G90                          ; absolute positioning
M82                          ; set extruder to absolute mode
M107                         ; start with the fan off
G92 E0                       ; set extruder position to 0
M140 S60; get bed heating up
G28                          ; home all
M109 S140                    ; set to cleaning temp and wait
G1 Z150 E-30 F75             ; suck up XXmm of filament
M109 S140                    ; heat up rest of way
G1 X45 Y174 F11520           ; move behind scraper
G1 Z0  F1200                 ; CRITICAL: set Z to height of top of scraper
G1 X45 Y174 Z-.5 F4000       ; wiping ; plunge into wipe pad
G1 X55 Y172 Z-.5 F4000       ; wiping
G1 X45 Y174 Z0 F4000         ; wiping
G1 X55 Y172 F4000            ; wiping
G1 X45 Y174 F4000            ; wiping
G1 X55 Y172 F4000            ; wiping
G1 X45 Y174 F4000            ; wiping
G1 X55 Y172 F4000            ; wiping
G1 X60 Y174 F4000            ; wiping
G1 X80 Y172 F4000            ; wiping
G1 X60 Y174 F4000            ; wiping
G1 X80 Y172 F4000            ; wiping
G1 X60 Y174 F4000            ; wiping
G1 X90 Y172 F4000            ; wiping
G1 X80 Y174 F4000            ; wiping
G1 X100 Y172 F4000           ; wiping
G1 X80 Y174 F4000            ; wiping
G1 X100 Y172 F4000           ; wiping
G1 X80 Y174 F4000            ; wiping
G1 X100 Y172 F4000           ; wiping
G1 X110 Y174 F4000           ; wiping
G1 X100 Y172 F4000           ; wiping
G1 X110 Y174 F4000           ; wiping
G1 X100 Y172 F4000           ; wiping
G1 X110 Y174 F4000           ; wiping
G1 X115 Y172 Z-0.5 F1000     ; wipe slower and bury noz in cleanish area
G1 Z10                       ; raise z
G28 X0 Y0                    ; home x and y
M109 S140                    ; set to probing temp
M204 S300                    ; Set probing acceleration
G29                          ; Probe
M204 S2000                   ; Restore standard acceleration
G1 X5 Y15 Z10 F5000          ; get out the way
G4 S1                        ; pause
M400                         ; clear buffer
M109 S205    ; set extruder temp and wait
G4 S15                       ; wait for bed to temp up
G1 Z2 E0 F75                 ; extrude filament back into nozzle
M140 S60; get bed temping up during first layer

;Layer count: 6
;LAYER:0
M107
G0 F10500 X61.063 Y59.063 Z0.425
;TYPE:SKIRT
G1 F900 X71.954 Y59.063 E0.45348
G1 X73.397 Y56.563 E0.57367
G1 X86.603 Y56.563 E1.12354
G1 X88.046 Y59.063 E1.24373
G1 X98.937 Y59.063 E1.69721
G1 X98.937 Y69.954 E2.15069
G1 X101.437 Y71.397 E2.27088
G1 X101.437 Y89.146 E3.00991
G1 X98.937 Y87.704 E3.13008
G1 X98.937 Y96.937 E3.51452
G1 X88.046 Y96.937 E3.96800
G1 X86.603 Y99.437 E4.08819
G1 X73.397 Y99.437 E4.63806
G1 X71.954 Y96.937 E4.75826
G1 X61.063 Y96.937 E5.21173
G1 X61.063 Y86.046 E5.66521
G1 X58.563 Y84.603 E5.78540
G1 X58.563 Y66.854 E6.52444
G1 X61.063 Y68.296 E6.64461
G1 X61.063 Y59.063 E7.02905
G0 F10500 X61.688 Y59.688
G1 F900 X72.315 Y59.688 E7.47154
G1 X73.758 Y57.188 E7.59173
G1 X86.242 Y57.188 E8.11153
G1 X87.685 Y59.688 E8.23172
G1 X98.312 Y59.688 E8.67421
G1 X98.312 Y70.314 E9.11666
G1 X100.812 Y71.757 E9.23685
G1 X100.812 Y88.064 E9.91584
G1 X98.312 Y86.622 E10.03601
G1 X98.312 Y96.312 E10.43948
G1 X87.685 Y96.312 E10.88196
G1 X86.242 Y98.812 E11.00216
G1 X73.758 Y98.812 E11.52196
G1 X72.315 Y96.312 E11.64215
G1 X61.688 Y96.312 E12.08464
G1 X61.688 Y85.686 E12.52709
G1 X59.188 Y84.243 E12.64728
G1 X59.188 Y67.936 E13.32627
G1 X61.688 Y69.378 E13.44644
G1 X61.688 Y59.688 E13.84991
G1 F600 E12.34991
G1 Z0.525
G0 F10500 X65.937 Y63.937
;TYPE:WALL-INNER
G1 Z0.425
G1 F600 E13.84991
G1 F900 X77.655 Y63.937 E14.33782
G1 X78.196 Y63.000 E14.38287
G1 X77.293 Y61.437 E14.45803
G1 X82.707 Y61.437 E14.68346
G1 X81.804 Y63.000 E14.75862
G1 X82.345 Y63.937 E14.80367
G1 X94.063 Y63.937 E15.29159
G1 X94.063 Y76.736 E15.82451
G1 X96.563 Y75.293 E15.94470
G1 X96.563 Y80.707 E16.17013
G1 X94.063 Y79.264 E16.29032
G1 X94.063 Y92.063 E16.82324
G1 X82.345 Y92.063 E17.31116
G1 X81.804 Y93.000 E17.35621
G1 X82.707 Y94.563 E17.43137
G1 X77.293 Y94.563 E17.65680
G1 X78.196 Y93.000 E17.73196
G1 X77.655 Y92.063 E17.77701
G1 X65.937 Y92.063 E18.26492
G1 X65.937 Y79.264 E18.79784
G1 X63.437 Y80.707 E18.91803
G1 X63.437 Y75.293 E19.14346
G1 X65.937 Y76.736 E19.26365
G1 X65.937 Y63.937 E19.79658
G0 F10500 X65.312 Y63.312
;TYPE:WALL-OUTER
G1 F900 X77.294 Y63.312 E20.29548
G1 X77.474 Y63.000 E20.31048
G1 X76.210 Y60.812 E20.41569
G1 X83.790 Y60.812 E20.73131
G1 X82.526 Y63.000 E20.83652
G1 X82.706 Y63.312 E20.85152
G1 X94.688 Y63.312 E21.35043
G1 X94.688 Y75.654 E21.86432
G1 X97.188 Y74.210 E21.98453
G1 X97.188 Y81.790 E22.30015
G1 X94.688 Y80.346 E22.42036
G1 X94.688 Y92.688 E22.93426
G1 X82.706 Y92.688 E23.43316
G1 X82.526 Y93.000 E23.44816
G1 X83.790 Y95.188 E23.55337
G1 X76.210 Y95.188 E23.86899
G1 X77.474 Y93.000 E23.97420
G1 X77.294 Y92.688 E23.98920
G1 X65.312 Y92.688 E24.48811
G1 X65.312 Y80.346 E25.00200
G1 X62.812 Y81.790 E25.12221
G1 X62.812 Y74.210 E25.43783
G1 X65.312 Y75.654 E25.55804
G1 X65.312 Y63.312 E26.07194
G0 F10500 X66.364 Y64.155
;TYPE:SKIN
G1 F900 X93.843 Y91.634 E27.69004
G0 F10500 X93.168 Y91.843
G1 F900 X66.155 Y64.830 E29.28070
G0 F10500 X66.155 Y65.714
G1 F900 X92.284 Y91.843 E30.81930
G0 F10500 X91.400 Y91.843
G1 F900 X66.155 Y66.598 E32.30585
G0 F10500 X66.155 Y67.482
G1 F900 X90.516 Y91.843 E33.74035
G0 F10500 X89.632 Y91.843
G1 F900 X66.155 Y68.365 E35.12282
G0 F10500 X66.155 Y69.249
G1 F900 X88.748 Y91.843 E36.45324
G0 F10500 X87.865 Y91.843
G1 F900 X66.155 Y70.133 E37.73163
G0 F10500 X66.155 Y71.017
G1 F900 X86.981 Y91.843 E38.95797
G0 F10500 X86.097 Y91.843
G1 F900 X66.155 Y71.901 E40.13225
G0 F10500 X66.155 Y72.785
G1 F900 X85.213 Y91.843 E41.25448
G0 F10500 X84.329 Y91.843
G1 F900 X66.155 Y73.669 E42.32466
G0 F10500 X66.155 Y74.553
G1 F900 X83.445 Y91.843 E43.34278
G0 F10500 X82.561 Y91.843
G1 F900 X66.155 Y75.436 E44.30887
G0 F10500 X66.155 Y76.320
G1 F900 X82.021 Y92.186 E45.24314
G0 F10500 X81.697 Y92.746
G1 F900 X65.941 Y76.991 E46.17090
G0 F10500 X66.099 Y78.916
G1 F900 X63.655 Y76.472 E46.31482
G0 F10500 X63.850 Y75.783
G1 F900 X82.214 Y94.147 E47.39618
G0 F10500 X81.526 Y94.343
G1 F900 X66.155 Y78.972 E48.30130
G0 F10500 X65.538 Y79.239
G1 F900 X63.655 Y77.356 E48.41218
G0 F10500 X63.655 Y78.240
G1 F900 X64.978 Y79.563 E48.49009
G0 F10500 X64.418 Y79.886
G1 F900 X63.655 Y79.124 E48.53499
G0 F10500 X66.155 Y79.856
G1 F900 X80.642 Y94.343 E49.38805
G0 F10500 X82.425 Y92.202
G0 X93.843 Y90.750
G1 F900 X67.248 Y64.155 E50.95410
G0 F10500 X68.132 Y64.155
G1 F900 X93.843 Y89.866 E52.46809
G0 F10500 X93.843 Y88.983
G1 F900 X69.016 Y64.155 E53.93006
G0 F10500 X69.900 Y64.155
G1 F900 X93.843 Y88.099 E55.33997
G0 F10500 X93.843 Y87.215
G1 F900 X70.784 Y64.155 E56.69783
G0 F10500 X71.668 Y64.155
G1 F900 X93.843 Y86.331 E58.00363
G0 F10500 X93.843 Y85.447
G1 F900 X72.551 Y64.155 E59.25741
G0 F10500 X73.435 Y64.155
G1 F900 X93.843 Y84.563 E60.45913
G0 F10500 X93.843 Y83.679
G1 F900 X74.319 Y64.155 E61.60880
G0 F10500 X75.203 Y64.155
G1 F900 X93.843 Y82.795 E62.70642
G0 F10500 X93.843 Y81.911
G1 F900 X76.087 Y64.155 E63.75198
G0 F10500 X76.971 Y64.155
G1 F900 X93.843 Y81.028 E64.74551
G0 F10500 X93.843 Y80.144
G1 F900 X77.807 Y64.107 E65.68982
G0 F10500 X78.131 Y63.547
G1 F900 X93.843 Y79.260 E66.61505
G0 F10500 X95.045 Y79.578
G1 F900 X78.419 Y62.952 E67.59407
G0 F10500 X78.007 Y61.656
G1 F900 X96.343 Y79.992 E68.67379
G0 F10500 X96.343 Y79.108
G1 F900 X94.164 Y76.929 E68.80210
G0 F10500 X93.843 Y76.608
G1 F900 X78.891 Y61.656 E69.68255
G0 F10500 X79.775 Y61.656
G1 F900 X82.141 Y64.022 E69.82187
G0 F10500 X82.274 Y64.155
G1 F900 X93.843 Y75.724 E70.50311
G0 F10500 X93.843 Y74.840
G1 F900 X83.158 Y64.155 E71.13229
G0 F10500 X84.042 Y64.155
G1 F900 X93.843 Y73.957 E71.70946
G0 F10500 X93.843 Y73.073
G1 F900 X84.926 Y64.155 E72.23456
G0 F10500 X85.810 Y64.155
G1 F900 X93.843 Y72.189 E72.70761
G0 F10500 X93.843 Y71.305
G1 F900 X86.694 Y64.155 E73.12861
G0 F10500 X87.578 Y64.155
G1 F900 X93.843 Y70.421 E73.49756
G0 F10500 X93.843 Y69.537
G1 F900 X88.461 Y64.155 E73.81447
G0 F10500 X89.345 Y64.155
G1 F900 X93.843 Y68.653 E74.07934
G0 F10500 X93.843 Y67.769
G1 F900 X90.229 Y64.155 E74.29215
G0 F10500 X91.113 Y64.155
G1 F900 X93.843 Y66.885 E74.45291
G0 F10500 X93.843 Y66.002
G1 F900 X91.997 Y64.155 E74.56164
G0 F10500 X92.881 Y64.155
G1 F900 X93.843 Y65.118 E74.61831
G0 F10500 X94.275 Y76.369
G0 X95.846 Y75.959
G1 F900 X96.343 Y76.456 E74.64758
G0 F10500 X96.343 Y77.340
G1 F900 X95.285 Y76.282 E74.70988
G0 F10500 X94.725 Y76.606
G1 F900 X96.343 Y78.224 E74.80516
G0 F10500 X94.275 Y76.369
G0 X82.425 Y63.798
G0 X81.716 Y62.714
G1 F900 X80.658 Y61.656 E74.86746
G0 F10500 X81.542 Y61.656
G1 F900 X82.039 Y62.153 E74.89672
G0 F10500 X66.155 Y80.740
G1 F900 X77.258 Y91.843 E75.55052
G0 F10500 X76.374 Y91.843
G1 F900 X66.155 Y81.624 E76.15227
G0 F10500 X66.155 Y82.508
G1 F900 X75.490 Y91.843 E76.70196
G0 F10500 X74.606 Y91.843
G1 F900 X66.155 Y83.391 E77.19962
G0 F10500 X66.155 Y84.275
G1 F900 X73.722 Y91.843 E77.64524
G0 F10500 X72.839 Y91.843
G1 F900 X66.155 Y85.159 E78.03882
G0 F10500 X66.155 Y86.043
G1 F900 X71.955 Y91.843 E78.38036
G0 F10500 X71.071 Y91.843
G1 F900 X66.155 Y86.927 E78.66983
G0 F10500 X66.155 Y87.811
G1 F900 X70.187 Y91.843 E78.90726
G0 F10500 X69.303 Y91.843
G1 F900 X66.155 Y88.695 E79.09263
G0 F10500 X66.155 Y89.579
G1 F900 X68.419 Y91.843 E79.22594
G0 F10500 X67.535 Y91.843
G1 F900 X66.155 Y90.462 E79.30723
G0 F10500 X66.155 Y91.346
G1 F900 X66.651 Y91.843 E79.33647
G0 F10500 X77.575 Y92.202
G0 X78.036 Y93.000
G0 X77.788 Y94.141
G1 F900 X78.051 Y93.961 E79.34840
G1 X78.874 Y94.343 E79.38618
G0 F10500 X79.758 Y94.343
G1 F900 X78.435 Y93.020 E79.46409
G0 F10500 X65.725 Y79.631
G0 X63.858 Y80.210
G1 F900 X63.655 Y80.008 E79.47601
;LAYER:1
M106 S191
G0 F10500 X65.000 Y80.020 Z0.805
;TYPE:WALL-INNER
G1 F1140 X63.250 Y81.031 E79.53620
G1 X63.250 Y74.969 E79.71675
G1 X65.000 Y75.980 E79.77695
G1 X65.750 Y75.547 E79.80274
G1 X65.750 Y63.750 E80.15409
G1 X78.413 Y63.750 E80.53124
G1 X76.970 Y61.250 E80.61721
G1 X83.030 Y61.250 E80.79770
G1 X81.587 Y63.750 E80.88367
G1 X94.250 Y63.750 E81.26082
G1 X94.250 Y75.547 E81.61217
G1 X95.000 Y75.980 E81.63796
G1 X96.750 Y74.969 E81.69816
G1 X96.750 Y81.031 E81.87870
G1 X95.000 Y80.020 E81.93890
G1 X94.250 Y80.453 E81.96469
G1 X94.250 Y92.250 E82.31605
G1 X81.587 Y92.250 E82.69319
G1 X83.030 Y94.750 E82.77916
G1 X76.970 Y94.750 E82.95965
G1 X78.413 Y92.250 E83.04562
G1 X65.750 Y92.250 E83.42277
G1 X65.750 Y80.453 E83.77412
G1 X65.000 Y80.020 E83.79992
G0 F10500 X65.000 Y80.597
;TYPE:WALL-OUTER
G1 F1080 X62.750 Y81.897 E83.87731
G1 X62.750 Y74.103 E84.10944
G1 X65.000 Y75.403 E84.18684
G1 X65.250 Y75.258 E84.19544
G1 X65.250 Y63.250 E84.55308
G1 X77.547 Y63.250 E84.91933
G1 X76.104 Y60.750 E85.00530
G1 X83.896 Y60.750 E85.23737
G1 X82.453 Y63.250 E85.32335
G1 X94.750 Y63.250 E85.68959
G1 X94.750 Y75.258 E86.04723
G1 X95.000 Y75.403 E86.05584
G1 X97.250 Y74.103 E86.13323
G1 X97.250 Y81.897 E86.36536
G1 X95.000 Y80.597 E86.44276
G1 X94.750 Y80.742 E86.45136
G1 X94.750 Y92.750 E86.80900
G1 X82.453 Y92.750 E87.17525
G1 X83.896 Y95.250 E87.26122
G1 X76.104 Y95.250 E87.49329
G1 X77.547 Y92.750 E87.57927
G1 X65.250 Y92.750 E87.94551
G1 X65.250 Y80.742 E88.30315
G1 X65.000 Y80.597 E88.31176
G0 F10500 X64.491 Y80.111
;TYPE:SKIN
G1 F1380 X82.108 Y62.494 E89.05379
G0 F10500 X81.764 Y61.424
G1 F1380 X63.425 Y79.763 E89.82623
G0 F10500 X63.425 Y79.056
G1 F1380 X78.557 Y63.924 E90.46359
G0 F10500 X78.657 Y63.824
G1 F1380 X81.057 Y61.424 E90.56468
G0 F10500 X80.349 Y61.424
G1 F1380 X78.399 Y63.375 E90.64683
G0 F10500 X78.140 Y62.927
G1 F1380 X79.642 Y61.424 E90.71012
G0 F10500 X78.935 Y61.424
G1 F1380 X77.881 Y62.479 E90.75453
G0 F10500 X77.622 Y62.030
G1 F1380 X77.874 Y61.424 E90.78006
G1 X77.363 Y61.582 E90.79599
G0 F10500 X78.153 Y63.600
G0 X77.143 Y63.924
G1 F1380 X65.924 Y75.142 E91.26851
G0 F10500 X65.924 Y74.435
G1 F1380 X76.436 Y63.924 E91.71126
G0 F10500 X75.729 Y63.924
G1 F1380 X65.924 Y73.728 E92.12423
G0 F10500 X65.924 Y73.021
G1 F1380 X75.021 Y63.924 E92.50739
G0 F10500 X74.314 Y63.924
G1 F1380 X65.924 Y72.314 E92.86078
G0 F10500 X65.924 Y71.607
G1 F1380 X73.607 Y63.924 E93.18439
G0 F10500 X72.900 Y63.924
G1 F1380 X65.924 Y70.900 E93.47822
G0 F10500 X65.924 Y70.193
G1 F1380 X72.193 Y63.924 E93.74227
G0 F10500 X71.486 Y63.924
G1 F1380 X65.924 Y69.485 E93.97652
G0 F10500 X65.924 Y68.778
G1 F1380 X70.779 Y63.924 E94.18099
G0 F10500 X70.072 Y63.924
G1 F1380 X65.924 Y68.071 E94.35568
G0 F10500 X65.924 Y67.364
G1 F1380 X69.365 Y63.924 E94.50060
G0 F10500 X68.657 Y63.924
G1 F1380 X65.924 Y66.657 E94.61571
G0 F10500 X65.924 Y65.950
G1 F1380 X67.950 Y63.924 E94.70105
G0 F10500 X67.243 Y63.924
G1 F1380 X65.924 Y65.243 E94.75660
G0 F10500 X65.924 Y64.536
G1 F1380 X66.536 Y63.924 E94.78238
G0 F10500 X77.850 Y63.924
G1 F1380 X63.425 Y78.349 E95.38996
G0 F10500 X63.425 Y77.642
G1 F1380 X64.928 Y76.139 E95.45327
G0 F10500 X64.480 Y75.880
G1 F1380 X63.425 Y76.935 E95.49771
G0 F10500 X63.425 Y76.228
G1 F1380 X63.807 Y75.491 E95.52322
G1 X63.425 Y75.521 E95.53463
G0 F10500 X65.312 Y79.997
G1 F1380 X81.385 Y63.924 E96.21163
G0 F10500 X82.092 Y63.924
G1 F1380 X65.760 Y80.256 E96.89953
G0 F10500 X65.924 Y80.799
G1 F1380 X82.800 Y63.924 E97.61033
G0 F10500 X83.507 Y63.924
G1 F1380 X65.924 Y81.506 E98.35091
G0 F10500 X65.924 Y82.213
G1 F1380 X84.214 Y63.924 E99.12126
G0 F10500 X84.921 Y63.924
G1 F1380 X65.924 Y82.920 E99.92140
G0 F10500 X65.924 Y83.628
G1 F1380 X85.628 Y63.924 E100.75133
G0 F10500 X86.335 Y63.924
G1 F1380 X65.924 Y84.335 E101.61104
G0 F10500 X65.924 Y85.042
G1 F1380 X87.042 Y63.924 E102.50053
G0 F10500 X87.749 Y63.924
G1 F1380 X65.924 Y85.749 E103.41980
G0 F10500 X65.924 Y86.456
G1 F1380 X88.456 Y63.924 E104.36885
G0 F10500 X89.164 Y63.924
G1 F1380 X65.924 Y87.163 E105.34770
G0 F10500 X65.924 Y87.870
G1 F1380 X89.871 Y63.924 E106.35633
G0 F10500 X90.578 Y63.924
G1 F1380 X65.924 Y88.577 E107.39474
G0 F10500 X65.924 Y89.284
G1 F1380 X91.285 Y63.924 E108.46292
G0 F10500 X91.992 Y63.924
G1 F1380 X65.924 Y89.992 E109.56091
G0 F10500 X65.924 Y90.699
G1 F1380 X92.699 Y63.924 E110.68867
G0 F10500 X93.406 Y63.924
G1 F1380 X65.924 Y91.406 E111.84622
G0 F10500 X65.963 Y92.074
G1 F1380 X94.074 Y63.964 E113.03023
G0 F10500 X94.074 Y64.671
G1 F1380 X66.670 Y92.074 E114.18447
G0 F10500 X67.378 Y92.074
G1 F1380 X94.074 Y65.378 E115.30891
G0 F10500 X94.074 Y66.085
G1 F1380 X68.085 Y92.074 E116.40356
G0 F10500 X68.792 Y92.074
G1 F1380 X94.074 Y66.792 E117.46844
G0 F10500 X94.074 Y67.499
G1 F1380 X69.499 Y92.074 E118.50354
G0 F10500 X70.206 Y92.074
G1 F1380 X94.074 Y68.206 E119.50887
G0 F10500 X94.074 Y68.913
G1 F1380 X70.913 Y92.074 E120.48441
G0 F10500 X71.620 Y92.074
G1 F1380 X94.074 Y69.621 E121.43015
G0 F10500 X94.074 Y70.328
G1 F1380 X72.327 Y92.074 E122.34612
G0 F10500 X73.034 Y92.074
G1 F1380 X94.074 Y71.035 E123.23230
G0 F10500 X94.074 Y71.742
G1 F1380 X73.742 Y92.074 E124.08869
G0 F10500 X74.449 Y92.074
G1 F1380 X94.074 Y72.449 E124.91529
G0 F10500 X94.074 Y73.156
G1 F1380 X75.156 Y92.074 E125.71212
G0 F10500 X75.863 Y92.074
G1 F1380 X94.074 Y73.863 E126.47917
G0 F10500 X94.074 Y74.570
G1 F1380 X76.570 Y92.074 E127.21644
G0 F10500 X77.277 Y92.074
G1 F1380 X94.074 Y75.277 E127.92393
G0 F10500 X94.288 Y75.770
G1 F1380 X77.984 Y92.074 E128.61065
G0 F10500 X78.691 Y92.074
G1 F1380 X94.736 Y76.029 E129.28647
G0 F10500 X95.692 Y75.780
G1 F1380 X77.783 Y93.690 E130.04082
G0 F10500 X77.606 Y94.574
G1 F1380 X96.573 Y75.606 E130.83973
G0 F10500 X96.573 Y76.313
G1 F1380 X78.313 Y94.574 E131.60887
G0 F10500 X79.020 Y94.574
G1 F1380 X81.370 Y92.224 E131.70785
G0 F10500 X81.520 Y92.074
G1 F1380 X96.573 Y77.020 E132.34190
G0 F10500 X96.573 Y77.728
G1 F1380 X82.227 Y92.074 E132.94616
G0 F10500 X82.934 Y92.074
G1 F1380 X94.074 Y80.934 E133.41537
G0 F10500 X94.074 Y81.641
G1 F1380 X83.641 Y92.074 E133.85481
G0 F10500 X84.348 Y92.074
G1 F1380 X94.074 Y82.348 E134.26447
G0 F10500 X94.074 Y83.056
G1 F1380 X85.055 Y92.074 E134.64433
G0 F10500 X85.762 Y92.074
G1 F1380 X94.074 Y83.763 E134.99441
G0 F10500 X94.074 Y84.470
G1 F1380 X86.469 Y92.074 E135.31471
G0 F10500 X87.177 Y92.074
G1 F1380 X94.074 Y85.177 E135.60522
G0 F10500 X94.074 Y85.884
G1 F1380 X87.884 Y92.074 E135.86594
G0 F10500 X88.591 Y92.074
G1 F1380 X94.074 Y86.591 E136.09688
G0 F10500 X94.074 Y87.298
G1 F1380 X89.298 Y92.074 E136.29805
G0 F10500 X90.005 Y92.074
G1 F1380 X94.074 Y88.005 E136.46944
G0 F10500 X94.074 Y88.712
G1 F1380 X90.712 Y92.074 E136.61104
G0 F10500 X91.419 Y92.074
G1 F1380 X94.074 Y89.420 E136.72285
G0 F10500 X94.074 Y90.127
G1 F1380 X92.126 Y92.074 E136.80488
G0 F10500 X92.833 Y92.074
G1 F1380 X94.074 Y90.834 E136.85713
G0 F10500 X94.074 Y91.541
G1 F1380 X93.541 Y92.074 E136.87958
G0 F10500 X81.847 Y92.400
G0 X82.664 Y94.465
G1 F1380 X82.480 Y94.295 E136.88415
G1 X81.849 Y94.574 E136.90469
G0 F10500 X81.141 Y94.574
G1 F1380 X82.146 Y93.569 E136.94703
G0 F10500 X81.887 Y93.121
G1 F1380 X80.434 Y94.574 E137.00823
G0 F10500 X79.727 Y94.574
G1 F1380 X81.629 Y92.672 E137.08834
G0 F10500 X95.000 Y80.109
G0 X95.568 Y80.147
G1 F1380 X96.573 Y79.142 E137.13067
G0 F10500 X96.573 Y79.849
G1 F1380 X96.240 Y80.536 E137.15409
G1 X96.573 Y80.556 E137.16402
G0 F10500 X95.120 Y79.888
G1 F1380 X96.573 Y78.435 E137.22523
G0 F10500 X81.847 Y63.600
G0 X82.471 Y61.424
G1 F1380 X63.425 Y80.470 E138.02744
;LAYER:2
G0 F10500 X65.000 Y80.020 Z1.185
;TYPE:WALL-INNER
G1 F1440 X63.250 Y81.031 E138.08764
G1 X63.250 Y74.969 E138.26818
G1 X65.000 Y75.980 E138.32838
G1 X65.750 Y75.547 E138.35417
G1 X65.750 Y63.750 E138.70553
G1 X77.547 Y63.750 E139.05688
G1 X77.980 Y63.000 E139.08267
G1 X76.969 Y61.250 E139.14287
G1 X83.031 Y61.250 E139.32341
G1 X82.020 Y63.000 E139.38361
G1 X82.453 Y63.750 E139.40940
G1 X94.250 Y63.750 E139.76075
G1 X94.250 Y75.547 E140.11211
G1 X95.000 Y75.980 E140.13790
G1 X96.750 Y74.969 E140.19810
G1 X96.750 Y81.031 E140.37864
G1 X95.000 Y80.020 E140.43884
G1 X94.250 Y80.453 E140.46463
G1 X94.250 Y92.250 E140.81598
G1 X82.453 Y92.250 E141.16734
G1 X82.020 Y93.000 E141.19313
G1 X83.031 Y94.750 E141.25332
G1 X76.969 Y94.750 E141.43387
G1 X77.980 Y93.000 E141.49406
G1 X77.547 Y92.250 E141.51986
G1 X65.750 Y92.250 E141.87121
G1 X65.750 Y80.453 E142.22257
G1 X65.000 Y80.020 E142.24836
G0 F10500 X65.000 Y80.597
;TYPE:WALL-OUTER
G1 F1320 X62.750 Y81.897 E142.32575
G1 X62.750 Y74.103 E142.55789
G1 X65.000 Y75.403 E142.63528
G1 X65.250 Y75.258 E142.64389
G1 X65.250 Y63.250 E143.00153
G1 X77.258 Y63.250 E143.35916
G1 X77.403 Y63.000 E143.36777
G1 X76.103 Y60.750 E143.44517
G1 X83.897 Y60.750 E143.67730
G1 X82.597 Y63.000 E143.75469
G1 X82.742 Y63.250 E143.76330
G1 X94.750 Y63.250 E144.12094
G1 X94.750 Y75.258 E144.47858
G1 X95.000 Y75.403 E144.48718
G1 X97.250 Y74.103 E144.56458
G1 X97.250 Y81.897 E144.79671
G1 X95.000 Y80.597 E144.87410
G1 X94.750 Y80.742 E144.88271
G1 X94.750 Y92.750 E145.24035
G1 X82.742 Y92.750 E145.59799
G1 X82.597 Y93.000 E145.60660
G1 X83.897 Y95.250 E145.68399
G1 X76.103 Y95.250 E145.91612
G1 X77.403 Y93.000 E145.99352
G1 X77.258 Y92.750 E146.00212
G1 X65.250 Y92.750 E146.35976
G1 X65.250 Y80.742 E146.71740
G1 X65.000 Y80.597 E146.72601
G0 F10500 X64.307 Y80.217
;TYPE:SKIN
G1 F1920 X63.425 Y79.335 E146.76316
G0 F10500 X63.425 Y78.628
G1 F1920 X64.755 Y79.958 E146.81918
G0 F10500 X65.760 Y80.255
G1 F1920 X63.425 Y77.921 E146.91751
G0 F10500 X63.425 Y77.213
G1 F1920 X80.785 Y94.574 E147.64873
G0 F10500 X81.492 Y94.574
G1 F1920 X63.425 Y76.506 E148.40974
G0 F10500 X63.425 Y75.799
G1 F1920 X82.199 Y94.574 E149.20052
G0 F10500 X82.484 Y94.151
G1 F1920 X63.848 Y75.516 E149.98545
G0 F10500 X65.140 Y76.100
G1 F1920 X81.899 Y92.859 E150.69134
G0 F10500 X82.158 Y92.411
G1 F1920 X65.588 Y75.841 E151.38927
G0 F10500 X65.924 Y75.470
G1 F1920 X82.528 Y92.074 E152.08863
G0 F10500 X83.235 Y92.074
G1 F1920 X65.924 Y74.763 E152.81777
G0 F10500 X65.924 Y74.056
G1 F1920 X83.942 Y92.074 E153.57669
G0 F10500 X84.649 Y92.074
G1 F1920 X65.924 Y73.348 E154.36541
G0 F10500 X65.924 Y72.641
G1 F1920 X85.356 Y92.074 E155.18391
G0 F10500 X86.064 Y92.074
G1 F1920 X65.924 Y71.934 E156.03220
G0 F10500 X65.924 Y71.227
G1 F1920 X86.771 Y92.074 E156.91028
G0 F10500 X87.478 Y92.074
G1 F1920 X65.924 Y70.520 E157.81814
G0 F10500 X65.924 Y69.813
G1 F1920 X88.185 Y92.074 E158.75577
G0 F10500 X88.892 Y92.074
G1 F1920 X65.924 Y69.106 E159.72319
G0 F10500 X65.924 Y68.399
G1 F1920 X89.599 Y92.074 E160.72038
G0 F10500 X90.306 Y92.074
G1 F1920 X65.924 Y67.692 E161.74735
G0 F10500 X65.924 Y66.984
G1 F1920 X91.013 Y92.074 E162.80412
G0 F10500 X91.720 Y92.074
G1 F1920 X65.924 Y66.277 E163.89067
G0 F10500 X65.924 Y65.570
G1 F1920 X92.428 Y92.074 E165.00702
G0 F10500 X93.135 Y92.074
G1 F1920 X65.924 Y64.863 E166.15315
G0 F10500 X65.924 Y64.156
G1 F1920 X93.842 Y92.074 E167.32906
G0 F10500 X94.074 Y91.599
G1 F1920 X66.400 Y63.925 E168.49469
G0 F10500 X67.107 Y63.925
G1 F1920 X94.074 Y90.892 E169.63054
G0 F10500 X94.074 Y90.185
G1 F1920 X67.814 Y63.925 E170.73661
G0 F10500 X68.521 Y63.925
G1 F1920 X94.074 Y89.477 E171.81289
G0 F10500 X94.074 Y88.770
G1 F1920 X69.228 Y63.925 E172.85938
G0 F10500 X69.935 Y63.925
G1 F1920 X94.074 Y88.063 E173.87609
G0 F10500 X94.074 Y87.356
G1 F1920 X70.642 Y63.925 E174.86303
G0 F10500 X71.349 Y63.925
G1 F1920 X94.074 Y86.649 E175.82019
G0 F10500 X94.074 Y85.942
G1 F1920 X72.057 Y63.925 E176.74755
G0 F10500 X72.764 Y63.925
G1 F1920 X94.074 Y85.235 E177.64512
G0 F10500 X94.074 Y84.528
G1 F1920 X73.471 Y63.925 E178.51292
G0 F10500 X74.178 Y63.925
G1 F1920 X94.074 Y83.821 E179.35094
G0 F10500 X94.074 Y83.114
G1 F1920 X74.885 Y63.925 E180.15919
G0 F10500 X75.592 Y63.925
G1 F1920 X94.074 Y82.406 E180.93763
G0 F10500 X94.074 Y81.699
G1 F1920 X76.299 Y63.925 E181.68629
G0 F10500 X77.006 Y63.925
G1 F1920 X94.074 Y80.992 E182.40518
G0 F10500 X94.116 Y80.328
G1 F1920 X77.670 Y63.882 E183.09788
G0 F10500 X77.929 Y63.433
G1 F1920 X94.564 Y80.068 E183.79855
G0 F10500 X96.558 Y80.649
G1 F1920 X77.349 Y61.439 E184.60765
G0 F10500 X78.042 Y61.425
G1 F1920 X96.574 Y79.957 E185.38822
G0 F10500 X96.574 Y79.250
G1 F1920 X78.749 Y61.425 E186.13901
G0 F10500 X79.456 Y61.425
G1 F1920 X96.574 Y78.543 E186.86003
G0 F10500 X96.574 Y77.836
G1 F1920 X94.811 Y76.073 E186.93428
G0 F10500 X95.397 Y75.951
G1 F1920 X96.574 Y77.129 E186.98388
G0 F10500 X96.574 Y76.421
G1 F1920 X95.845 Y75.692 E187.01458
G0 F10500 X96.293 Y75.434
G1 F1920 X96.574 Y75.714 E187.02640
G0 F10500 X95.000 Y75.891
G0 X94.074 Y75.335
G1 F1920 X82.663 Y63.925 E187.50701
G0 F10500 X83.370 Y63.925
G1 F1920 X94.074 Y74.628 E187.95784
G0 F10500 X94.074 Y73.921
G1 F1920 X84.077 Y63.925 E188.37890
G0 F10500 X84.784 Y63.925
G1 F1920 X94.074 Y73.214 E188.77017
G0 F10500 X94.074 Y72.507
G1 F1920 X85.492 Y63.925 E189.13164
G0 F10500 X86.199 Y63.925
G1 F1920 X94.074 Y71.800 E189.46334
G0 F10500 X94.074 Y71.093
G1 F1920 X86.906 Y63.925 E189.76526
G0 F10500 X87.613 Y63.925
G1 F1920 X94.074 Y70.386 E190.03739
G0 F10500 X94.074 Y69.679
G1 F1920 X88.320 Y63.925 E190.27975
G0 F10500 X89.027 Y63.925
G1 F1920 X94.074 Y68.971 E190.49231
G0 F10500 X94.074 Y68.264
G1 F1920 X89.734 Y63.925 E190.67509
G0 F10500 X90.441 Y63.925
G1 F1920 X94.074 Y67.557 E190.82809
G0 F10500 X94.074 Y66.850
G1 F1920 X91.148 Y63.925 E190.95132
G0 F10500 X91.855 Y63.925
G1 F1920 X94.074 Y66.143 E191.04476
G0 F10500 X94.074 Y65.436
G1 F1920 X92.563 Y63.925 E191.10840
G0 F10500 X93.270 Y63.925
G1 F1920 X94.074 Y64.729 E191.14227
G0 F10500 X94.074 Y64.022
G1 F1920 X93.977 Y63.925 E191.14635
G0 F10500 X82.497 Y63.673
G0 X82.109 Y63.000
G0 X82.566 Y61.706
G1 F1920 X82.285 Y61.425 E191.15819
G0 F10500 X81.578 Y61.425
G1 F1920 X82.307 Y62.154 E191.18889
G0 F10500 X82.047 Y62.602
G1 F1920 X80.871 Y61.425 E191.23845
G0 F10500 X80.163 Y61.425
G1 F1920 X81.923 Y63.185 E191.31258
G0 F10500 X78.151 Y62.948
G1 F1920 X95.049 Y79.846 E192.02432
G0 F10500 X80.078 Y94.574
G1 F1920 X77.740 Y92.235 E192.12282
G0 F10500 X77.578 Y92.073
G1 F1920 X65.924 Y80.420 E192.61367
G0 F10500 X65.924 Y81.127
G1 F1920 X76.870 Y92.073 E193.07471
G0 F10500 X76.163 Y92.073
G1 F1920 X65.924 Y81.834 E193.50598
G0 F10500 X65.924 Y82.541
G1 F1920 X75.456 Y92.073 E193.90747
G0 F10500 X74.749 Y92.073
G1 F1920 X65.924 Y83.249 E194.27916
G0 F10500 X65.924 Y83.956
G1 F1920 X74.042 Y92.073 E194.62107
G0 F10500 X73.335 Y92.073
G1 F1920 X65.924 Y84.663 E194.93320
G0 F10500 X65.924 Y85.370
G1 F1920 X72.628 Y92.073 E195.21555
G0 F10500 X71.921 Y92.073
G1 F1920 X65.924 Y86.077 E195.46812
G0 F10500 X65.924 Y86.784
G1 F1920 X71.214 Y92.073 E195.69092
G0 F10500 X70.507 Y92.073
G1 F1920 X65.924 Y87.491 E195.88393
G0 F10500 X65.924 Y88.198
G1 F1920 X69.799 Y92.073 E196.04715
G0 F10500 X69.092 Y92.073
G1 F1920 X65.924 Y88.905 E196.18058
G0 F10500 X65.924 Y89.613
G1 F1920 X68.385 Y92.073 E196.28422
G0 F10500 X67.678 Y92.073
G1 F1920 X65.924 Y90.320 E196.35808
G0 F10500 X65.924 Y91.027
G1 F1920 X66.971 Y92.073 E196.40216
G0 F10500 X66.264 Y92.073
G1 F1920 X65.924 Y91.734 E196.41646
G0 F10500 X65.673 Y80.497
G0 X65.000 Y80.109
G0 X63.859 Y80.476
G1 F1920 X63.425 Y80.042 E196.43474
G0 F10500 X65.000 Y80.109
G0 X65.673 Y80.497
G0 X77.503 Y92.327
G0 X78.040 Y93.243
G1 F1920 X79.371 Y94.574 E196.49080
G0 F10500 X78.664 Y94.574
G1 F1920 X77.781 Y93.690 E196.52801
G0 F10500 X77.522 Y94.139
G1 F1920 X77.957 Y94.574 E196.54633
;LAYER:3
G1 F600 E195.04633
G1 Z1.285
G0 F10500 X65.750 Y92.250 Z1.565
;TYPE:WALL-INNER
G1 Z1.565
G1 F600 E196.54633
G1 F1740 X65.750 Y63.750 E197.39516
G1 X94.250 Y63.750 E198.24399
G1 X94.250 Y92.250 E199.09281
G1 X65.750 Y92.250 E199.94164
G0 F10500 X65.250 Y92.750
;TYPE:WALL-OUTER
G1 F1500 X65.250 Y63.250 E200.82025
G1 X94.750 Y63.250 E201.69886
G1 X94.750 Y92.750 E202.57747
G1 X65.250 Y92.750 E203.45608
G0 F10500 X65.963 Y92.074
;TYPE:SKIN
G1 F2400 X94.074 Y63.964 E204.64009
G0 F10500 X93.406 Y63.924
G1 F2400 X65.924 Y91.406 E205.79764
G0 F10500 X65.924 Y90.699
G1 F2400 X92.699 Y63.924 E206.92540
G0 F10500 X91.992 Y63.924
G1 F2400 X65.924 Y89.992 E208.02339
G0 F10500 X65.924 Y89.284
G1 F2400 X91.285 Y63.924 E209.09157
G0 F10500 X90.578 Y63.924
G1 F2400 X65.924 Y88.577 E210.12998
G0 F10500 X65.924 Y87.870
G1 F2400 X89.871 Y63.924 E211.13861
G0 F10500 X89.164 Y63.924
G1 F2400 X65.924 Y87.163 E212.11746
G0 F10500 X65.924 Y86.456
G1 F2400 X88.456 Y63.924 E213.06651
G0 F10500 X87.749 Y63.924
G1 F2400 X65.924 Y85.749 E213.98578
G0 F10500 X65.924 Y85.042
G1 F2400 X87.042 Y63.924 E214.87527
G0 F10500 X86.335 Y63.924
G1 F2400 X65.924 Y84.335 E215.73498
G0 F10500 X65.924 Y83.628
G1 F2400 X85.628 Y63.924 E216.56492
G0 F10500 X84.921 Y63.924
G1 F2400 X65.924 Y82.920 E217.36505
G0 F10500 X65.924 Y82.213
G1 F2400 X84.214 Y63.924 E218.13540
G0 F10500 X83.507 Y63.924
G1 F2400 X65.924 Y81.506 E218.87598
G0 F10500 X65.924 Y80.799
G1 F2400 X82.800 Y63.924 E219.58678
G0 F10500 X82.092 Y63.924
G1 F2400 X65.924 Y80.092 E220.26777
G0 F10500 X66.670 Y92.074
G1 F2400 X94.074 Y64.671 E221.42201
G0 F10500 X94.074 Y65.378
G1 F2400 X67.378 Y92.074 E222.54645
G0 F10500 X68.085 Y92.074
G1 F2400 X94.074 Y66.085 E223.64111
G0 F10500 X94.074 Y66.792
G1 F2400 X68.792 Y92.074 E224.70599
G0 F10500 X69.499 Y92.074
G1 F2400 X94.074 Y67.499 E225.74109
G0 F10500 X94.074 Y68.206
G1 F2400 X70.206 Y92.074 E226.74641
G0 F10500 X70.913 Y92.074
G1 F2400 X94.074 Y68.913 E227.72195
G0 F10500 X94.074 Y69.621
G1 F2400 X71.620 Y92.074 E228.66769
G0 F10500 X72.327 Y92.074
G1 F2400 X94.074 Y70.328 E229.58366
G0 F10500 X94.074 Y71.035
G1 F2400 X73.034 Y92.074 E230.46984
G0 F10500 X73.742 Y92.074
G1 F2400 X94.074 Y71.742 E231.32623
G0 F10500 X94.074 Y72.449
G1 F2400 X74.449 Y92.074 E232.15283
G0 F10500 X75.156 Y92.074
G1 F2400 X94.074 Y73.156 E232.94966
G0 F10500 X94.074 Y73.863
G1 F2400 X75.863 Y92.074 E233.71671
G0 F10500 X76.570 Y92.074
G1 F2400 X94.074 Y74.570 E234.45398
G0 F10500 X94.074 Y75.277
G1 F2400 X77.277 Y92.074 E235.16147
G0 F10500 X77.984 Y92.074
G1 F2400 X94.074 Y75.984 E235.83918
G0 F10500 X94.074 Y76.692
G1 F2400 X78.691 Y92.074 E236.48709
G0 F10500 X79.398 Y92.074
G1 F2400 X94.074 Y77.399 E237.10523
G0 F10500 X94.074 Y78.106
G1 F2400 X80.106 Y92.074 E237.69356
G0 F10500 X80.813 Y92.074
G1 F2400 X94.074 Y78.813 E238.25211
G0 F10500 X94.074 Y79.520
G1 F2400 X81.520 Y92.074 E238.78089
G0 F10500 X82.227 Y92.074
G1 F2400 X94.074 Y80.227 E239.27989
G0 F10500 X94.074 Y80.934
G1 F2400 X82.934 Y92.074 E239.74910
G0 F10500 X83.641 Y92.074
G1 F2400 X94.074 Y81.641 E240.18854
G0 F10500 X94.074 Y82.348
G1 F2400 X84.348 Y92.074 E240.59820
G0 F10500 X85.055 Y92.074
G1 F2400 X94.074 Y83.056 E240.97806
G0 F10500 X94.074 Y83.763
G1 F2400 X85.762 Y92.074 E241.32814
G0 F10500 X86.469 Y92.074
G1 F2400 X94.074 Y84.470 E241.64844
G0 F10500 X94.074 Y85.177
G1 F2400 X87.177 Y92.074 E241.93895
G0 F10500 X87.884 Y92.074
G1 F2400 X94.074 Y85.884 E242.19967
G0 F10500 X94.074 Y86.591
G1 F2400 X88.591 Y92.074 E242.43061
G0 F10500 X89.298 Y92.074
G1 F2400 X94.074 Y87.298 E242.63178
G0 F10500 X94.074 Y88.005
G1 F2400 X90.005 Y92.074 E242.80317
G0 F10500 X90.712 Y92.074
G1 F2400 X94.074 Y88.712 E242.94477
G0 F10500 X94.074 Y89.420
G1 F2400 X91.419 Y92.074 E243.05658
G0 F10500 X92.126 Y92.074
G1 F2400 X94.074 Y90.127 E243.13861
G0 F10500 X94.074 Y90.834
G1 F2400 X92.833 Y92.074 E243.19086
G0 F10500 X93.541 Y92.074
G1 F2400 X94.074 Y91.541 E243.21331
G0 F10500 X81.385 Y63.924
G1 F2400 X65.924 Y79.385 E243.86453
G0 F10500 X65.924 Y78.678
G1 F2400 X80.678 Y63.924 E244.48597
G0 F10500 X79.971 Y63.924
G1 F2400 X65.924 Y77.971 E245.07763
G0 F10500 X65.924 Y77.264
G1 F2400 X79.264 Y63.924 E245.63951
G0 F10500 X78.557 Y63.924
G1 F2400 X65.924 Y76.557 E246.17161
G0 F10500 X65.924 Y75.849
G1 F2400 X77.850 Y63.924 E246.67391
G0 F10500 X77.143 Y63.924
G1 F2400 X65.924 Y75.142 E247.14644
G0 F10500 X65.924 Y74.435
G1 F2400 X76.436 Y63.924 E247.58918
G0 F10500 X75.729 Y63.924
G1 F2400 X65.924 Y73.728 E248.00215
G0 F10500 X65.924 Y73.021
G1 F2400 X75.021 Y63.924 E248.38532
G0 F10500 X74.314 Y63.924
G1 F2400 X65.924 Y72.314 E248.73870
G0 F10500 X65.924 Y71.607
G1 F2400 X73.607 Y63.924 E249.06231
G0 F10500 X72.900 Y63.924
G1 F2400 X65.924 Y70.900 E249.35614
G0 F10500 X65.924 Y70.193
G1 F2400 X72.193 Y63.924 E249.62019
G0 F10500 X71.486 Y63.924
G1 F2400 X65.924 Y69.485 E249.85444
G0 F10500 X65.924 Y68.778
G1 F2400 X70.779 Y63.924 E250.05891
G0 F10500 X70.072 Y63.924
G1 F2400 X65.924 Y68.071 E250.23361
G0 F10500 X65.924 Y67.364
G1 F2400 X69.365 Y63.924 E250.37852
G0 F10500 X68.657 Y63.924
G1 F2400 X65.924 Y66.657 E250.49364
G0 F10500 X65.924 Y65.950
G1 F2400 X67.950 Y63.924 E250.57897
G0 F10500 X67.243 Y63.924
G1 F2400 X65.924 Y65.243 E250.63453
G0 F10500 X65.924 Y64.536
G1 F2400 X66.536 Y63.924 E250.66030
;LAYER:4
G0 F10500 X65.750 Y63.750 Z1.945
;TYPE:WALL-INNER
G1 F2100 X94.250 Y63.750 E251.50913
G1 X94.250 Y92.250 E252.35796
G1 X65.750 Y92.250 E253.20678
G1 X65.750 Y63.750 E254.05561
G0 F10500 X65.250 Y63.250
;TYPE:WALL-OUTER
G1 F1800 X94.750 Y63.250 E254.93422
G1 X94.750 Y92.750 E255.81283
G1 X65.250 Y92.750 E256.69144
G1 X65.250 Y63.250 E257.57005
G0 F10500 X65.924 Y64.156
;TYPE:SKIN
G1 F3000 X93.841 Y92.073 E258.74592
G0 F10500 X94.074 Y91.599
G1 F3000 X66.399 Y63.924 E259.91159
G0 F10500 X67.106 Y63.924
G1 F3000 X94.074 Y90.892 E261.04748
G0 F10500 X94.074 Y90.185
G1 F3000 X67.813 Y63.924 E262.15360
G0 F10500 X68.520 Y63.924
G1 F3000 X94.074 Y89.477 E263.22991
G0 F10500 X94.074 Y88.770
G1 F3000 X69.227 Y63.924 E264.27645
G0 F10500 X69.934 Y63.924
G1 F3000 X94.074 Y88.063 E265.29320
G0 F10500 X94.074 Y87.356
G1 F3000 X70.642 Y63.924 E266.28016
G0 F10500 X71.349 Y63.924
G1 F3000 X94.074 Y86.649 E267.23734
G0 F10500 X94.074 Y85.942
G1 F3000 X72.056 Y63.924 E268.16474
G0 F10500 X72.763 Y63.924
G1 F3000 X94.074 Y85.235 E269.06236
G0 F10500 X94.074 Y84.528
G1 F3000 X73.470 Y63.924 E269.93020
G0 F10500 X74.177 Y63.924
G1 F3000 X94.074 Y83.821 E270.76827
G0 F10500 X94.074 Y83.114
G1 F3000 X74.884 Y63.924 E271.57655
G0 F10500 X75.591 Y63.924
G1 F3000 X94.074 Y82.406 E272.35503
G0 F10500 X94.074 Y81.699
G1 F3000 X76.298 Y63.924 E273.10374
G0 F10500 X77.006 Y63.924
G1 F3000 X94.074 Y80.992 E273.82264
G0 F10500 X94.074 Y80.285
G1 F3000 X77.713 Y63.924 E274.51177
G0 F10500 X78.420 Y63.924
G1 F3000 X94.074 Y79.578 E275.17112
G0 F10500 X94.074 Y78.871
G1 F3000 X79.127 Y63.924 E275.80069
G0 F10500 X79.834 Y63.924
G1 F3000 X94.074 Y78.164 E276.40048
G0 F10500 X94.074 Y77.457
G1 F3000 X80.541 Y63.924 E276.97049
G0 F10500 X81.248 Y63.924
G1 F3000 X94.074 Y76.750 E277.51072
G0 F10500 X94.074 Y76.042
G1 F3000 X81.955 Y63.924 E278.02115
G0 F10500 X82.662 Y63.924
G1 F3000 X94.074 Y75.335 E278.50180
G0 F10500 X94.074 Y74.628
G1 F3000 X83.370 Y63.924 E278.95266
G0 F10500 X84.077 Y63.924
G1 F3000 X94.074 Y73.921 E279.37373
G0 F10500 X94.074 Y73.214
G1 F3000 X84.784 Y63.924 E279.76503
G0 F10500 X85.491 Y63.924
G1 F3000 X94.074 Y72.507 E280.12654
G0 F10500 X94.074 Y71.800
G1 F3000 X86.198 Y63.924 E280.45828
G0 F10500 X86.905 Y63.924
G1 F3000 X94.074 Y71.093 E280.76024
G0 F10500 X94.074 Y70.386
G1 F3000 X87.612 Y63.924 E281.03242
G0 F10500 X88.319 Y63.924
G1 F3000 X94.074 Y69.679 E281.27482
G0 F10500 X94.074 Y68.971
G1 F3000 X89.026 Y63.924 E281.48742
G0 F10500 X89.733 Y63.924
G1 F3000 X94.074 Y68.264 E281.67024
G0 F10500 X94.074 Y67.557
G1 F3000 X90.441 Y63.924 E281.82327
G0 F10500 X91.148 Y63.924
G1 F3000 X94.074 Y66.850 E281.94651
G0 F10500 X94.074 Y66.143
G1 F3000 X91.855 Y63.924 E282.03997
G0 F10500 X92.562 Y63.924
G1 F3000 X94.074 Y65.436 E282.10366
G0 F10500 X94.074 Y64.729
G1 F3000 X93.269 Y63.924 E282.13757
G0 F10500 X93.976 Y63.924
G1 F3000 X94.074 Y64.022 E282.14169
G0 F10500 X93.134 Y92.073
G1 F3000 X65.924 Y64.863 E283.28778
G0 F10500 X65.924 Y65.570
G1 F3000 X92.427 Y92.073 E284.40409
G0 F10500 X91.720 Y92.073
G1 F3000 X65.924 Y66.277 E285.49062
G0 F10500 X65.924 Y66.984
G1 F3000 X91.013 Y92.073 E286.54737
G0 F10500 X90.306 Y92.073
G1 F3000 X65.924 Y67.692 E287.57432
G0 F10500 X65.924 Y68.399
G1 F3000 X89.598 Y92.073 E288.57147
G0 F10500 X88.891 Y92.073
G1 F3000 X65.924 Y69.106 E289.53884
G0 F10500 X65.924 Y69.813
G1 F3000 X88.184 Y92.073 E290.47643
G0 F10500 X87.477 Y92.073
G1 F3000 X65.924 Y70.520 E291.38425
G0 F10500 X65.924 Y71.227
G1 F3000 X86.770 Y92.073 E292.26228
G0 F10500 X86.063 Y92.073
G1 F3000 X65.924 Y71.934 E293.11054
G0 F10500 X65.924 Y72.641
G1 F3000 X85.356 Y92.073 E293.92901
G0 F10500 X84.649 Y92.073
G1 F3000 X65.924 Y73.348 E294.71771
G0 F10500 X65.924 Y74.056
G1 F3000 X83.942 Y92.073 E295.47661
G0 F10500 X83.234 Y92.073
G1 F3000 X65.924 Y74.763 E296.20571
G0 F10500 X65.924 Y75.470
G1 F3000 X82.527 Y92.073 E296.90503
G0 F10500 X81.820 Y92.073
G1 F3000 X65.924 Y76.177 E297.57457
G0 F10500 X65.924 Y76.884
G1 F3000 X81.113 Y92.073 E298.21433
G0 F10500 X80.406 Y92.073
G1 F3000 X65.924 Y77.591 E298.82431
G0 F10500 X65.924 Y78.298
G1 F3000 X79.699 Y92.073 E299.40452
G0 F10500 X78.992 Y92.073
G1 F3000 X65.924 Y79.005 E299.95494
G0 F10500 X65.924 Y79.712
G1 F3000 X78.285 Y92.073 E300.47559
G0 F10500 X77.578 Y92.073
G1 F3000 X65.924 Y80.419 E300.96645
G0 F10500 X65.924 Y81.127
G1 F3000 X76.870 Y92.073 E301.42750
G0 F10500 X76.163 Y92.073
G1 F3000 X65.924 Y81.834 E301.85877
G0 F10500 X65.924 Y82.541
G1 F3000 X75.456 Y92.073 E302.26026
G0 F10500 X74.749 Y92.073
G1 F3000 X65.924 Y83.248 E302.63197
G0 F10500 X65.924 Y83.955
G1 F3000 X74.042 Y92.073 E302.97390
G0 F10500 X73.335 Y92.073
G1 F3000 X65.924 Y84.662 E303.28605
G0 F10500 X65.924 Y85.369
G1 F3000 X72.628 Y92.073 E303.56842
G0 F10500 X71.921 Y92.073
G1 F3000 X65.924 Y86.076 E303.82101
G0 F10500 X65.924 Y86.783
G1 F3000 X71.214 Y92.073 E304.04383
G0 F10500 X70.507 Y92.073
G1 F3000 X65.924 Y87.491 E304.23685
G0 F10500 X65.924 Y88.198
G1 F3000 X69.799 Y92.073 E304.40006
G0 F10500 X69.092 Y92.073
G1 F3000 X65.924 Y88.905 E304.53350
G0 F10500 X65.924 Y89.612
G1 F3000 X68.385 Y92.073 E304.63715
G0 F10500 X67.678 Y92.073
G1 F3000 X65.924 Y90.319 E304.71103
G0 F10500 X65.924 Y91.026
G1 F3000 X66.971 Y92.073 E304.75513
G0 F10500 X66.264 Y92.073
G1 F3000 X65.924 Y91.733 E304.76945
;LAYER:5
G0 F10500 X65.750 Y92.250 Z2.325
;TYPE:WALL-INNER
G1 F2100 X65.750 Y63.750 E305.61828
G1 X94.250 Y63.750 E306.46711
G1 X94.250 Y92.250 E307.31593
G1 X65.750 Y92.250 E308.16476
G0 F10500 X65.250 Y92.750
;TYPE:WALL-OUTER
G1 F1800 X65.250 Y63.250 E309.04337
G1 X94.750 Y63.250 E309.92198
G1 X94.750 Y92.750 E310.80059
G1 X65.250 Y92.750 E311.67920
G0 F10500 X65.963 Y92.074
;TYPE:SKIN
G1 F3000 X94.074 Y63.964 E312.86321
G0 F10500 X93.406 Y63.924
G1 F3000 X65.924 Y91.406 E314.02076
G0 F10500 X65.924 Y90.699
G1 F3000 X92.699 Y63.924 E315.14852
G0 F10500 X91.992 Y63.924
G1 F3000 X65.924 Y89.992 E316.24651
G0 F10500 X65.924 Y89.284
G1 F3000 X91.285 Y63.924 E317.31469
G0 F10500 X90.578 Y63.924
G1 F3000 X65.924 Y88.577 E318.35310
G0 F10500 X65.924 Y87.870
G1 F3000 X89.871 Y63.924 E319.36173
G0 F10500 X89.164 Y63.924
G1 F3000 X65.924 Y87.163 E320.34058
G0 F10500 X65.924 Y86.456
G1 F3000 X88.456 Y63.924 E321.28963
G0 F10500 X87.749 Y63.924
G1 F3000 X65.924 Y85.749 E322.20890
G0 F10500 X65.924 Y85.042
G1 F3000 X87.042 Y63.924 E323.09839
G0 F10500 X86.335 Y63.924
G1 F3000 X65.924 Y84.335 E323.95810
G0 F10500 X65.924 Y83.628
G1 F3000 X85.628 Y63.924 E324.78804
G0 F10500 X84.921 Y63.924
G1 F3000 X65.924 Y82.920 E325.58817
G0 F10500 X65.924 Y82.213
G1 F3000 X84.214 Y63.924 E326.35852
G0 F10500 X83.507 Y63.924
G1 F3000 X65.924 Y81.506 E327.09910
G0 F10500 X65.924 Y80.799
G1 F3000 X82.800 Y63.924 E327.80990
G0 F10500 X82.092 Y63.924
G1 F3000 X65.924 Y80.092 E328.49089
G0 F10500 X66.670 Y92.074
G1 F3000 X94.074 Y64.671 E329.64513
G0 F10500 X94.074 Y65.378
G1 F3000 X67.378 Y92.074 E330.76957
G0 F10500 X68.085 Y92.074
G1 F3000 X94.074 Y66.085 E331.86423
G0 F10500 X94.074 Y66.792
G1 F3000 X68.792 Y92.074 E332.92911
G0 F10500 X69.499 Y92.074
G1 F3000 X94.074 Y67.499 E333.96421
G0 F10500 X94.074 Y68.206
G1 F3000 X70.206 Y92.074 E334.96953
G0 F10500 X70.913 Y92.074
G1 F3000 X94.074 Y68.913 E335.94507
G0 F10500 X94.074 Y69.621
G1 F3000 X71.620 Y92.074 E336.89081
G0 F10500 X72.327 Y92.074
G1 F3000 X94.074 Y70.328 E337.80678
G0 F10500 X94.074 Y71.035
G1 F3000 X73.034 Y92.074 E338.69296
G0 F10500 X73.742 Y92.074
G1 F3000 X94.074 Y71.742 E339.54935
G0 F10500 X94.074 Y72.449
G1 F3000 X74.449 Y92.074 E340.37595
G0 F10500 X75.156 Y92.074
G1 F3000 X94.074 Y73.156 E341.17278
G0 F10500 X94.074 Y73.863
G1 F3000 X75.863 Y92.074 E341.93983
G0 F10500 X76.570 Y92.074
G1 F3000 X94.074 Y74.570 E342.67710
G0 F10500 X94.074 Y75.277
G1 F3000 X77.277 Y92.074 E343.38459
G0 F10500 X77.984 Y92.074
G1 F3000 X94.074 Y75.984 E344.06230
G0 F10500 X94.074 Y76.692
G1 F3000 X78.691 Y92.074 E344.71021
G0 F10500 X79.398 Y92.074
G1 F3000 X94.074 Y77.399 E345.32835
G0 F10500 X94.074 Y78.106
G1 F3000 X80.106 Y92.074 E345.91668
G0 F10500 X80.813 Y92.074
G1 F3000 X94.074 Y78.813 E346.47523
G0 F10500 X94.074 Y79.520
G1 F3000 X81.520 Y92.074 E347.00401
G0 F10500 X82.227 Y92.074
G1 F3000 X94.074 Y80.227 E347.50301
G0 F10500 X94.074 Y80.934
G1 F3000 X82.934 Y92.074 E347.97222
G0 F10500 X83.641 Y92.074
G1 F3000 X94.074 Y81.641 E348.41166
G0 F10500 X94.074 Y82.348
G1 F3000 X84.348 Y92.074 E348.82132
G0 F10500 X85.055 Y92.074
G1 F3000 X94.074 Y83.056 E349.20118
G0 F10500 X94.074 Y83.763
G1 F3000 X85.762 Y92.074 E349.55126
G0 F10500 X86.469 Y92.074
G1 F3000 X94.074 Y84.470 E349.87156
G0 F10500 X94.074 Y85.177
G1 F3000 X87.177 Y92.074 E350.16207
G0 F10500 X87.884 Y92.074
G1 F3000 X94.074 Y85.884 E350.42279
G0 F10500 X94.074 Y86.591
G1 F3000 X88.591 Y92.074 E350.65373
G0 F10500 X89.298 Y92.074
G1 F3000 X94.074 Y87.298 E350.85490
G0 F10500 X94.074 Y88.005
G1 F3000 X90.005 Y92.074 E351.02629
G0 F10500 X90.712 Y92.074
G1 F3000 X94.074 Y88.712 E351.16789
G0 F10500 X94.074 Y89.420
G1 F3000 X91.419 Y92.074 E351.27970
G0 F10500 X92.126 Y92.074
G1 F3000 X94.074 Y90.127 E351.36173
G0 F10500 X94.074 Y90.834
G1 F3000 X92.833 Y92.074 E351.41398
G0 F10500 X93.541 Y92.074
G1 F3000 X94.074 Y91.541 E351.43643
G0 F10500 X81.385 Y63.924
G1 F3000 X65.924 Y79.385 E352.08765
G0 F10500 X65.924 Y78.678
G1 F3000 X80.678 Y63.924 E352.70909
G0 F10500 X79.971 Y63.924
G1 F3000 X65.924 Y77.971 E353.30075
G0 F10500 X65.924 Y77.264
G1 F3000 X79.264 Y63.924 E353.86263
G0 F10500 X78.557 Y63.924
G1 F3000 X65.924 Y76.557 E354.39473
G0 F10500 X65.924 Y75.849
G1 F3000 X77.850 Y63.924 E354.89703
G0 F10500 X77.143 Y63.924
G1 F3000 X65.924 Y75.142 E355.36956
G0 F10500 X65.924 Y74.435
G1 F3000 X76.436 Y63.924 E355.81230
G0 F10500 X75.729 Y63.924
G1 F3000 X65.924 Y73.728 E356.22527
G0 F10500 X65.924 Y73.021
G1 F3000 X75.021 Y63.924 E356.60844
G0 F10500 X74.314 Y63.924
G1 F3000 X65.924 Y72.314 E356.96182
G0 F10500 X65.924 Y71.607
G1 F3000 X73.607 Y63.924 E357.28543
G0 F10500 X72.900 Y63.924
G1 F3000 X65.924 Y70.900 E357.57926
G0 F10500 X65.924 Y70.193
G1 F3000 X72.193 Y63.924 E357.84331
G0 F10500 X71.486 Y63.924
G1 F3000 X65.924 Y69.485 E358.07756
G0 F10500 X65.924 Y68.778
G1 F3000 X70.779 Y63.924 E358.28203
G0 F10500 X70.072 Y63.924
G1 F3000 X65.924 Y68.071 E358.45673
G0 F10500 X65.924 Y67.364
G1 F3000 X69.365 Y63.924 E358.60164
G0 F10500 X68.657 Y63.924
G1 F3000 X65.924 Y66.657 E358.71676
G0 F10500 X65.924 Y65.950
G1 F3000 X67.950 Y63.924 E358.80209
G0 F10500 X67.243 Y63.924
G1 F3000 X65.924 Y65.243 E358.85765
G0 F10500 X65.924 Y64.536
G1 F3000 X66.536 Y63.924 E358.88342
M107
G1 F600 E357.38342
G1 Z2.425
G0 F10500 X66.536 Y63.924 Z7.200
M400
M104 S0                                      ; hotend off
M140 S0                                      ; heated bed heater off (if you have it)
M107                                         ; fans off
G92 E5                                       ; set extruder to 5mm for retract on print end
G1 X5 Y5 Z158 E0 F10000                      ; move to cooling positioning
M190 R50                                     ; wait for bed to cool
M140 S0                                      ;
G1 X145 F1000                                ; move to cooling positioning
G1 Y175 F1000                                ; move to cooling positioning
M84                                          ; steppers off
G90                                          ; absolute positioning
;CURA_PROFILE_STRING:eNrtWltv28gVfhWE/oh53EVjlaTE2A7Bh03WNhaIF0Hsol6/ECNyJE3DG8ihZdnQf+93hheRMqXKbbpNdpUHxzw6tznXb2iFfCUybyHkfKFcYzQ+Gyx5GHpqIf0vschz1xxkQmXcVzKJPRHzaSjc26wQgzwJZeCFWr7NPpOQD0ScS7VyLWOQikxGQoFrKmZJJjwZE0upJE6enkLh5fJJwLo9SDMZKy9PhQhc26gelYighKsiE1Bov6Rabg/ruI846SPaDXEqgo61t8YgL9I0yZT7axKLQRpyhTNEHg8WIkdESnLF4wUFDz3xqLJCf/Y+UYvBUqbCU8lSZO4lD3PRIngPSVhEwjXtQZI8IQoLKcKgYkOMeCTgUyC5Dp9rjc7sl2Q6+wviuI846SPabeIsTJauaRgjo530Mhtmh8ajpIiVayJlLao+f/3R2+5nkYw9PDyIcFvKT6KpjOfuT2G4JSCjTjzhl9GRXCQpiOZgmiiVRK0qNEYTyx7o2jS8pQzUwptBJslcE/Rk+k/ho8pk/IV0DpIHkYU81e6TPntQOlqf/NSuLZTVXpHtQVnJ1fPEKFuCZ4JXJFIu41wooyKMq+fH+tke+EkS6uBUnYReoa6Z8brbgqrdvkhUWChjgYDpAFekOU/dMQyVT3XUQhHP1cK17FLVrICfTZfbmla6cNp68CL+SPnfODUDFb0gKP2auBAcTS9nqirTcgooJKI1FMpolRQdoSrCFLO6V9QqFe5HHCdvSDyeY7hMNjxaVpsfN43oPa5QvLnisU8j47ShP7XJqJM8lRkPabBUnsooxaiJkqCmTDGYOhFFifMZYsizuYxde1Q9a5Y85T5V6bimTnkuOiU3btFJRNcdir3ix3wRGaqwK2Sdbn+6EUUVlx9ymSHLHgazLqkWTSdTP+dFJU5llLtWl9pnspHoGJzJR/RVlkmUnlfEutlpISBdHq9Tuptl2oyvNg8ikqQi9qZS5X0M6HFaGA8Is5LKX1CgS7Y0LJALJAitNnfr1vUFhct7dE/MLdKKSGWqr5HpG6EUlOVui/YpS1BY6DIvxijnYeuja9RaJjEFTA+jvueDW6ra9wIuxSL7C8otU6O5TyXl3C5kzq7od7bgOZsKEbO5iGmViIChv3w5kz4CtWJYIUwtBPtYhE9YEuwaTTt03vNc+iyvPH7HPlImWdm079hz2NrUa/YPKALPc3dbr9klWgbk9hJeD53LasKzn6uxX7J0VwH4ftXrmN2ga8DRWs7r4ZVlsp3/HAYNGbx/4GEh8uHVubGPmU8xJwolWJrAQdQPDjy8PrP2ySAuTK+CAEFRyUYHNfTw2jRO9wlTothSqoWOOwYeS2YzuGmxC+Mwk7WrZNuAvYnBbp57UcPaQd4VCiBA8jglkxUp4ne273iLJBIMuaSTnLMbUr/TJ3jgh4JT1BjZZTwO2JJLNbwy2b1pG+ziZGywy1N7W7jwv8AXdncXRQgAq0vg3xmlY5BcJnJFcku+IlN3E5v9Zp5O2KVp2pbRrQeMfIQAnYza9zOO4GjvwHVpWobRY+XD519uf/nw08d3+pD3dMyy2skkNgz911LVWL8/GdnscmI0Sh1kOqXgOAzjI54LhiwlRETF8UAL21rY2i3cNWF0eLa4al1dll269nP9/rreGofoOjO+TV3nB+k6O0gXkE+/su9Cl2nuUPZ96DKbhjSoI82a1yn7Ng/pxqQn3bTIVgy7CV1dzcF8wQh1l+Nv9zzPuMwFe9Kj+A5OGXtG8aM2tTpwHKdZMq2n8fDaMibsZmzsEAEkafi574uQ1gYWC9w637chAFumolJuGb3aHfYZExp3bFp4MW4iwZYFGgoIs63DdGl3tJRbKymUXpF6xMOSuduhlAPXDa8nhrHHa0pQhpTNZpjaZTCfX1zA130rvrvYyBV7pxXi0aiKli7yoYVp6aIg9Irf3oWlWGWs2YNsyrEg9bIosc+he56o5Z5nQZHRbzOZYVdqzDYQcVCBRB0tCgOOswchbdcjwHGgAUvpzuGSQmPPGokgqlDCfpAztkoKoFSsaKl+3A+eXmoFeso38Mk+WG4bwdkAIZSz6kLPgK10nBlOW5cqVap9pjNIE8HYCT8JbhAuwh2Vwt8BliaWxGfbONDN7Voila8MfDnRJu0xttfkPu+hCnPxq6i6PpuwV+Q5VyJFrde5Nl4j24vwHfSRvnrhlkdNsh5oXG7VN6ibUPqIOafbTsBXa/qpMBye6aXI+n96QfqkC4/s4LNqPpVGm6sThl3QvjaV77nWUYu0LG3PW1J+kqu2FD1Dq67JXXOFOX+P/STS8nTTCQLqVzTvMm6mTcXL6PJO6mii9A3WPap61ZyzW7NPk/UfqTL+e6da905n5yXT6b9Rbuaas+sGuIECjm6du7/9Rj5FwBYYQ1imaa6Z7is0opnuX7Loi9cIY+q5/e5wXQmQyfrdMQvonCam3/B2x3Z1bpb0FkRvMkhamP714Nx5Z3WeRFayV6wBK98Bkm+XdOO62IJGTr3+TKO6Dgp6UaES/8vrrTA+5zLe2Dp57n8vvB7eGgcdulyg39Gxu4nHSClUuc9oDEeYPRwXUey4jx9+pmusEDEK1Dxlnyqe0WhESKGZhhfI+tWH6uXGRPdSf+ScZqlulnwlY75SZveScw7EElfn5kEbIhNoB/kgtnfdxQlCOd6/6ZwaMZR1Uk1azqaS0Bj9jYnRG2oNyMFRQrk3VFiwKjjuADlBfHqrQH2ZITcYN7qH/0qXj4sTm92dWBgL9KO/o+8J65UmCaTWHjXeiAcRYxmT2n23jdahdo2fN/BWO0qv3pnMNUSvfCeUvm+rOwfvcOc1G3t83NjHjf3n3NjWn3FjH2HKEaZswZTx/xOmkIx1hDZHaPP1oc3kCG2+KWhjfT1oc0RJvxtKGh+0Oydw+g8EGA6DhuM/1qGP0PAIDbeg4eR7g4YkMz7CySOc/LpwsvpeavtLgg1x8yfh8mu1HSZNaXFkAjvWFyM/f3AHSEI5Zi6qumwAazl8pkIt6auHdGi/yDId4rqEKQE60aA01DdsuRDxptM1mIiKUMk0bMZFlo+G5Vcc9Tcc8T/gja5yXUWk9PaH+McBYqK+Jf/4jBqwdu9fGWOHTg==

