;This Gcode has been generated specifically for the LulzBot Mini
;Basic settings: Layer height: 0.38 Walls: 1 Fill: 20
;Filament Diameter: 2.85
;Nozzle Size: 0.5
G21                          ; metric values
G90                          ; absolute positioning
M82                          ; set extruder to absolute mode
M107                         ; start with the fan off
G92 E0                       ; set extruder position to 0
M140 S60; get bed heating up
G28                          ; home all
M109 S140                    ; set to cleaning temp and wait
G1 Z150 E-30 F75             ; suck up XXmm of filament
M109 S140                    ; heat up rest of way
G1 X45 Y174 F11520           ; move behind scraper
G1 Z0  F1200                 ; CRITICAL: set Z to height of top of scraper
G1 X45 Y174 Z-.5 F4000       ; wiping ; plunge into wipe pad
G1 X55 Y172 Z-.5 F4000       ; wiping
G1 X45 Y174 Z0 F4000         ; wiping
G1 X55 Y172 F4000            ; wiping
G1 X45 Y174 F4000            ; wiping
G1 X55 Y172 F4000            ; wiping
G1 X45 Y174 F4000            ; wiping
G1 X55 Y172 F4000            ; wiping
G1 X60 Y174 F4000            ; wiping
G1 X80 Y172 F4000            ; wiping
G1 X60 Y174 F4000            ; wiping
G1 X80 Y172 F4000            ; wiping
G1 X60 Y174 F4000            ; wiping
G1 X90 Y172 F4000            ; wiping
G1 X80 Y174 F4000            ; wiping
G1 X100 Y172 F4000           ; wiping
G1 X80 Y174 F4000            ; wiping
G1 X100 Y172 F4000           ; wiping
G1 X80 Y174 F4000            ; wiping
G1 X100 Y172 F4000           ; wiping
G1 X110 Y174 F4000           ; wiping
G1 X100 Y172 F4000           ; wiping
G1 X110 Y174 F4000           ; wiping
G1 X100 Y172 F4000           ; wiping
G1 X110 Y174 F4000           ; wiping
G1 X115 Y172 Z-0.5 F1000     ; wipe slower and bury noz in cleanish area
G1 Z10                       ; raise z
G28 X0 Y0                    ; home x and y
M109 S140                    ; set to probing temp
M204 S300                    ; Set probing acceleration
G29                          ; Probe
M204 S2000                   ; Restore standard acceleration
G1 X5 Y15 Z10 F5000          ; get out the way
G4 S1                        ; pause
M400                         ; clear buffer
M109 S205    ; set extruder temp and wait
G4 S15                       ; wait for bed to temp up
G1 Z2 E0 F75                 ; extrude filament back into nozzle
M140 S60; get bed temping up during first layer

;Layer count: 9
;LAYER:0
M107
G0 F10500 X84.762 Y44.468 Z0.425
;TYPE:SKIRT
G1 F900 X94.453 Y44.468 E0.40351
G1 X94.453 Y54.157 E0.80694
G1 X94.467 Y54.149 E0.80761
G1 X94.467 Y53.697 E0.82644
G1 X94.859 Y53.923 E0.84528
G1 X96.953 Y52.714 E0.94595
G1 X96.953 Y55.131 E1.04659
G1 X96.967 Y55.139 E1.04726
G1 X96.967 Y45.449 E1.45074
G1 X107.594 Y45.449 E1.89322
G1 X107.896 Y44.926 E1.91837
G1 X105.322 Y44.926 E2.02555
G1 X106.764 Y42.426 E2.14572
G1 X97.074 Y42.426 E2.54919
G1 X97.074 Y35.456 E2.83940
G1 X95.139 Y34.340 E2.93241
G1 X95.139 Y44.030 E3.33588
G1 X85.015 Y44.030 E3.75743
G1 X84.762 Y44.468 E3.77849
G0 F10500 X68.206 Y44.030
G1 F900 X58.516 Y44.030 E4.18196
G1 X58.516 Y34.341 E4.58539
G1 X56.016 Y35.784 E4.70558
G1 X56.016 Y34.610 E4.75446
G1 X53.762 Y33.309 E4.86283
G1 X53.762 Y42.999 E5.26630
G1 X44.073 Y42.999 E5.66973
G1 X44.326 Y43.438 E5.69083
G1 X47.067 Y43.438 E5.80496
G1 X45.625 Y45.938 E5.92513
G1 X55.315 Y45.938 E6.32860
G1 X55.315 Y56.565 E6.77108
G1 X55.330 Y56.574 E6.77181
G1 X55.330 Y52.716 E6.93245
G1 X57.830 Y54.158 E7.05262
G1 X57.830 Y44.468 E7.45609
G1 X67.953 Y44.468 E7.87759
G1 X68.206 Y44.030 E7.89866
G0 F10500 X56.016 Y18.303
G1 F900 X56.016 Y15.654 E8.00895
G1 X58.516 Y17.096 E8.12912
G1 X58.516 Y4.406 E8.65751
G1 X95.139 Y4.406 E10.18242
G1 X95.139 Y14.375 E10.59751
G1 X97.074 Y15.492 E10.69054
G1 X97.074 Y5.802 E11.09401
G1 X107.700 Y5.802 E11.53645
G1 X109.143 Y3.302 E11.65664
G1 X125.450 Y3.302 E12.33563
G1 X124.008 Y5.802 E12.45580
G1 X136.698 Y5.802 E12.98419
G1 X136.698 Y42.426 E14.50914
G1 X124.009 Y42.426 E15.03748
G1 X124.311 Y42.949 E15.06263
G1 X125.344 Y42.949 E15.10564
G1 X124.827 Y43.844 E15.14868
G1 X125.452 Y44.926 E15.20070
G1 X124.203 Y44.926 E15.25271
G1 X123.901 Y45.449 E15.27786
G1 X136.591 Y45.449 E15.80624
G1 X136.591 Y78.834 E17.19632
G1 X136.569 Y79.325 E17.21679
G1 X136.493 Y79.888 E17.24044
G1 X136.367 Y80.440 E17.26402
G1 X136.192 Y80.978 E17.28758
G1 X135.941 Y81.567 E17.31423
G1 X135.454 Y82.384 E17.35384
G1 X134.999 Y82.964 E17.38453
G1 X134.223 Y83.706 E17.42924
G1 X133.338 Y84.290 E17.47339
G1 X132.750 Y84.573 E17.50056
G1 X132.192 Y84.777 E17.52530
G1 X131.659 Y84.921 E17.54828
G1 X131.127 Y85.018 E17.57080
G1 X130.564 Y85.069 E17.59434
G1 X128.145 Y85.072 E17.69506
G1 X96.967 Y85.072 E18.99325
G1 X96.967 Y72.384 E19.52155
G1 X96.953 Y72.392 E19.52222
G1 X96.953 Y72.844 E19.54104
G1 X96.561 Y72.618 E19.55988
G1 X94.467 Y73.827 E19.66056
G1 X94.467 Y71.410 E19.76120
G1 X94.453 Y71.402 E19.76187
G1 X94.453 Y81.092 E20.16535
G1 X83.825 Y81.092 E20.60787
G1 X82.384 Y83.591 E20.72799
G1 X66.077 Y83.591 E21.40698
G1 X67.519 Y81.092 E21.52711
G1 X57.830 Y81.092 E21.93054
G1 X57.830 Y71.403 E22.33397
G1 X57.815 Y71.412 E22.33470
G1 X57.815 Y74.315 E22.45557
G1 X55.315 Y72.872 E22.57576
G1 X55.315 Y85.561 E23.10411
G1 X21.929 Y85.561 E24.49423
G1 X21.438 Y85.539 E24.51470
G1 X20.876 Y85.463 E24.53831
G1 X20.324 Y85.337 E24.56189
G1 X19.717 Y85.140 E24.58846
G1 X18.854 Y84.726 E24.62831
G1 X18.239 Y84.325 E24.65888
G1 X17.453 Y83.642 E24.70224
G1 X16.766 Y82.788 E24.74788
G1 X16.431 Y82.215 E24.77551
G1 X16.165 Y81.667 E24.80088
G1 X15.860 Y80.727 E24.84203
G1 X15.747 Y80.102 E24.86847
G1 X15.694 Y79.539 E24.89202
G1 X15.691 Y77.115 E24.99295
G1 X15.691 Y45.938 E26.29109
G1 X29.317 Y45.938 E26.85845
G1 X29.570 Y45.499 E26.87955
G1 X25.386 Y45.499 E27.05376
G1 X26.828 Y42.999 E27.17393
G1 X14.138 Y42.999 E27.70232
G1 X14.138 Y6.375 E29.22727
G1 X27.764 Y6.375 E29.79463
G1 X29.207 Y3.875 E29.91482
G1 X45.514 Y3.875 E30.59381
G1 X44.072 Y6.375 E30.71398
G1 X53.762 Y6.375 E31.11745
G1 X53.762 Y17.002 E31.55993
G1 X56.016 Y18.303 E31.66830
G1 F600 E30.16830
G1 Z0.525
G0 F10500 X52.013 Y21.980
;TYPE:WALL-INNER
G1 Z0.425
G1 F600 E31.66830
G1 F900 X52.013 Y27.394 E31.89373
G1 X49.513 Y25.951 E32.01392
G1 X49.513 Y38.750 E32.54684
G1 X36.715 Y38.750 E33.07972
G1 X38.157 Y41.250 E33.19989
G1 X32.743 Y41.250 E33.42532
G1 X34.186 Y38.750 E33.54551
G1 X18.387 Y38.750 E34.20335
G1 X18.387 Y10.624 E35.37446
G1 X34.186 Y10.624 E36.03230
G1 X32.743 Y8.124 E36.15249
G1 X38.157 Y8.124 E36.37791
G1 X36.715 Y10.624 E36.49808
G1 X49.513 Y10.624 E37.03097
G1 X49.513 Y22.342 E37.51888
G1 X50.450 Y22.883 E37.56393
G1 X52.013 Y21.980 E37.63909
G0 F10500 X50.450 Y22.723
G0 X50.243 Y22.518
G0 X50.450 Y22.161
;TYPE:WALL-OUTER
G1 F900 X52.638 Y20.897 E37.74430
G1 X52.638 Y28.477 E38.05992
G1 X50.138 Y27.034 E38.18011
G1 X50.138 Y39.375 E38.69396
G1 X37.797 Y39.375 E39.20782
G1 X39.240 Y41.875 E39.32801
G1 X31.660 Y41.875 E39.64363
G1 X33.104 Y39.375 E39.76384
G1 X17.762 Y39.375 E40.40265
G1 X17.762 Y9.999 E41.62580
G1 X33.104 Y9.999 E42.26461
G1 X31.660 Y7.499 E42.38482
G1 X39.240 Y7.499 E42.70044
G1 X37.797 Y9.999 E42.82063
G1 X50.138 Y9.999 E43.33448
G1 X50.138 Y21.981 E43.83339
G1 X50.450 Y22.161 E43.84839
G0 F10500 X50.784 Y22.942
;TYPE:SKIN
G1 F900 X51.793 Y23.951 E43.90780
G0 F10500 X51.793 Y24.835
G1 F900 X49.607 Y22.650 E44.03650
G0 F10500 X49.293 Y22.335
G1 F900 X37.801 Y10.843 E44.71320
G0 F10500 X36.917 Y10.843
G1 F900 X51.793 Y25.719 E45.58917
G0 F10500 X51.793 Y26.603
G1 F900 X33.533 Y8.343 E46.66441
G0 F10500 X34.417 Y8.343
G1 F900 X36.548 Y10.474 E46.78990
G0 F10500 X36.871 Y9.913
G1 F900 X35.300 Y8.343 E46.88238
G0 F10500 X36.184 Y8.343
G1 F900 X37.195 Y9.353 E46.94188
G0 F10500 X37.518 Y8.792
G1 F900 X37.068 Y8.343 E46.96835
G0 F10500 X37.082 Y10.412
G0 X38.685 Y10.843
G1 F900 X49.293 Y21.451 E47.59300
G0 F10500 X49.293 Y20.567
G1 F900 X39.568 Y10.843 E48.16563
G0 F10500 X34.265 Y10.843
G1 F900 X49.293 Y25.870 E49.05052
G0 F10500 X49.293 Y26.754
G1 F900 X33.381 Y10.843 E49.98747
G0 F10500 X32.497 Y10.843
G1 F900 X49.293 Y27.638 E50.97647
G0 F10500 X49.293 Y28.522
G1 F900 X31.614 Y10.843 E52.01750
G0 F10500 X30.730 Y10.843
G1 F900 X49.293 Y29.406 E53.11058
G0 F10500 X49.293 Y30.290
G1 F900 X29.846 Y10.843 E54.25571
G0 F10500 X28.962 Y10.843
G1 F900 X49.293 Y31.174 E55.45290
G0 F10500 X49.293 Y32.058
G1 F900 X28.078 Y10.843 E56.70215
G0 F10500 X27.194 Y10.843
G1 F900 X49.293 Y32.941 E58.00342
G0 F10500 X49.293 Y33.825
G1 F900 X26.310 Y10.843 E59.35674
G0 F10500 X25.426 Y10.843
G1 F900 X49.293 Y34.709 E60.76212
G0 F10500 X49.293 Y35.593
G1 F900 X24.542 Y10.843 E62.21955
G0 F10500 X23.659 Y10.843
G1 F900 X49.293 Y36.477 E63.72901
G0 F10500 X49.293 Y37.361
G1 F900 X22.775 Y10.843 E65.29052
G0 F10500 X21.891 Y10.843
G1 F900 X49.293 Y38.245 E66.90408
G0 F10500 X48.694 Y38.530
G1 F900 X21.007 Y10.843 E68.53443
G0 F10500 X20.123 Y10.843
G1 F900 X47.810 Y38.530 E70.16478
G0 F10500 X46.926 Y38.530
G1 F900 X19.239 Y10.843 E71.79513
G0 F10500 X18.605 Y11.093
G1 F900 X46.042 Y38.530 E73.41075
G0 F10500 X45.158 Y38.530
G1 F900 X18.605 Y11.976 E74.97436
G0 F10500 X18.605 Y12.860
G1 F900 X44.274 Y38.530 E76.48590
G0 F10500 X43.390 Y38.530
G1 F900 X18.605 Y13.744 E77.94540
G0 F10500 X18.605 Y14.628
G1 F900 X42.507 Y38.530 E79.35286
G0 F10500 X41.623 Y38.530
G1 F900 X18.605 Y15.512 E80.70828
G0 F10500 X18.605 Y16.396
G1 F900 X40.739 Y38.530 E82.01164
G0 F10500 X49.725 Y26.319
G0 X50.676 Y26.370
G1 F900 X33.765 Y9.458 E83.00747
G0 F10500 X37.082 Y10.412
G0 X40.452 Y10.843
G1 F900 X49.293 Y19.683 E83.52804
G0 F10500 X49.293 Y18.799
G1 F900 X41.336 Y10.843 E83.99656
G0 F10500 X42.220 Y10.843
G1 F900 X49.293 Y17.915 E84.41303
G0 F10500 X49.293 Y17.032
G1 F900 X43.104 Y10.843 E84.77746
G0 F10500 X43.988 Y10.843
G1 F900 X49.293 Y16.148 E85.08985
G0 F10500 X49.293 Y15.264
G1 F900 X44.872 Y10.843 E85.35018
G0 F10500 X45.756 Y10.843
G1 F900 X49.293 Y14.380 E85.55846
G0 F10500 X49.293 Y13.496
G1 F900 X46.640 Y10.843 E85.71468
G0 F10500 X47.523 Y10.843
G1 F900 X49.293 Y12.612 E85.81887
G0 F10500 X49.293 Y11.728
G1 F900 X48.407 Y10.843 E85.87102
G0 F10500 X49.652 Y22.262
G0 X50.450 Y22.723
G0 X51.344 Y22.618
G1 F900 X51.793 Y23.067 E85.89746
G0 F10500 X39.855 Y38.530
G1 F900 X18.605 Y17.280 E87.14876
G0 F10500 X18.605 Y18.164
G1 F900 X38.971 Y38.530 E88.34801
G0 F10500 X38.087 Y38.530
G1 F900 X18.605 Y19.048 E89.49521
G0 F10500 X18.605 Y19.931
G1 F900 X37.203 Y38.530 E90.59038
G0 F10500 X36.356 Y38.567
G1 F900 X18.605 Y20.815 E91.63568
G0 F10500 X18.605 Y21.699
G1 F900 X37.562 Y40.656 E92.75196
G0 F10500 X37.052 Y41.030
G1 F900 X34.559 Y38.538 E92.89873
G0 F10500 X34.552 Y38.530
G1 F900 X18.605 Y22.583 E93.83777
G0 F10500 X18.605 Y23.467
G1 F900 X33.668 Y38.530 E94.72475
G0 F10500 X34.236 Y39.098
G1 F900 X36.168 Y41.030 E94.83852
G0 F10500 X35.284 Y41.030
G1 F900 X33.912 Y39.658 E94.91931
G0 F10500 X33.819 Y38.962
G0 X32.784 Y38.530
G1 F900 X18.605 Y24.351 E95.75424
G0 F10500 X18.605 Y25.235
G1 F900 X31.900 Y38.530 E96.53711
G0 F10500 X31.016 Y38.530
G1 F900 X18.605 Y26.119 E97.26793
G0 F10500 X18.605 Y27.002
G1 F900 X30.132 Y38.530 E97.94673
G0 F10500 X29.248 Y38.530
G1 F900 X18.605 Y27.886 E98.57347
G0 F10500 X18.605 Y28.770
G1 F900 X28.364 Y38.530 E99.14816
G0 F10500 X27.480 Y38.530
G1 F900 X18.605 Y29.654 E99.67079
G0 F10500 X18.605 Y30.538
G1 F900 X26.597 Y38.530 E100.14140
G0 F10500 X25.713 Y38.530
G1 F900 X18.605 Y31.422 E100.55996
G0 F10500 X18.605 Y32.306
G1 F900 X24.829 Y38.530 E100.92646
G0 F10500 X23.945 Y38.530
G1 F900 X18.605 Y33.190 E101.24090
G0 F10500 X18.605 Y34.074
G1 F900 X23.061 Y38.530 E101.50329
G0 F10500 X22.177 Y38.530
G1 F900 X18.605 Y34.957 E101.71366
G0 F10500 X18.605 Y35.841
G1 F900 X21.293 Y38.530 E101.87197
G0 F10500 X20.409 Y38.530
G1 F900 X18.605 Y36.725 E101.97823
G0 F10500 X18.605 Y37.609
G1 F900 X19.526 Y38.530 E102.03246
G0 F10500 X33.819 Y38.962
G0 X33.266 Y40.780
G1 F900 X33.552 Y40.624 E102.04718
G1 X34.400 Y41.030 E102.08633
G1 F600 E100.58633
G1 Z0.525
G0 F10500 X34.296 Y47.687
;TYPE:WALL-INNER
G1 Z0.425
G1 F600 E102.08633
G1 F900 X39.710 Y47.687 E102.31175
G1 X38.268 Y50.187 E102.43192
G1 X51.066 Y50.187 E102.96481
G1 X51.066 Y62.986 E103.49773
G1 X53.566 Y61.543 E103.61792
G1 X53.566 Y66.957 E103.84335
G1 X51.066 Y65.514 E103.96354
G1 X51.066 Y81.312 E104.62134
G1 X22.023 Y81.312 E105.83063
G1 X21.634 Y81.277 E105.84689
G1 X21.300 Y81.187 E105.86129
G1 X20.944 Y81.016 E105.87774
G1 X20.805 Y80.926 E105.88463
G1 X20.526 Y80.682 E105.90006
G1 X20.273 Y80.369 E105.91682
G1 X20.115 Y80.076 E105.93068
G1 X19.990 Y79.690 E105.94758
G1 X19.943 Y79.338 E105.96236
G1 X19.940 Y77.113 E106.05501
G1 X19.940 Y50.187 E107.17615
G1 X35.739 Y50.187 E107.83399
G1 X34.296 Y47.687 E107.95418
G0 F10500 X35.014 Y49.356
G0 X34.657 Y49.562
;TYPE:WALL-OUTER
G1 F900 X33.213 Y47.062 E108.07439
G1 X40.793 Y47.062 E108.39001
G1 X39.350 Y49.562 E108.51020
G1 X51.691 Y49.562 E109.02405
G1 X51.691 Y61.903 E109.53791
G1 X54.191 Y60.460 E109.65810
G1 X54.191 Y68.040 E109.97371
G1 X51.691 Y66.597 E110.09390
G1 X51.691 Y81.937 E110.73263
G1 X22.017 Y81.937 E111.96819
G1 X21.757 Y81.925 E111.97903
G1 X21.522 Y81.894 E111.98890
G1 X21.292 Y81.841 E111.99873
G1 X21.062 Y81.767 E112.00879
G1 X20.637 Y81.563 E112.02842
G1 X20.427 Y81.426 E112.03886
G1 X20.076 Y81.120 E112.05825
G1 X19.757 Y80.723 E112.07945
G1 X19.631 Y80.508 E112.08983
G1 X19.535 Y80.311 E112.09895
G1 X19.382 Y79.839 E112.11961
G1 X19.341 Y79.613 E112.12918
G1 X19.318 Y79.365 E112.13955
G1 X19.315 Y49.562 E113.38048
G1 X34.657 Y49.562 E114.01929
G0 F10500 X35.317 Y49.018
;TYPE:SKIN
G1 F900 X52.233 Y65.934 E115.01539
G0 F10500 X53.346 Y66.163
G1 F900 X35.088 Y47.905 E116.09051
G0 F10500 X35.971 Y47.905
G1 F900 X38.102 Y50.035 E116.21597
G0 F10500 X38.472 Y50.405
G1 F900 X50.847 Y62.780 E116.94467
G0 F10500 X51.217 Y63.150
G1 F900 X53.346 Y65.280 E117.07006
G0 F10500 X53.346 Y64.396
G1 F900 X51.778 Y62.827 E117.16242
G0 F10500 X52.338 Y62.503
G1 F900 X53.346 Y63.512 E117.22181
G0 F10500 X53.346 Y62.628
G1 F900 X52.899 Y62.180 E117.24816
G0 F10500 X51.278 Y62.618
G0 X50.847 Y61.896
G1 F900 X39.356 Y50.405 E117.92481
G0 F10500 X38.425 Y49.474
G1 F900 X36.855 Y47.905 E118.01723
G0 F10500 X37.739 Y47.905
G1 F900 X38.748 Y48.914 E118.07664
G0 F10500 X39.072 Y48.354
G1 F900 X38.623 Y47.905 E118.10308
G0 F10500 X35.820 Y50.405
G1 F900 X50.846 Y65.431 E118.98789
G0 F10500 X50.846 Y66.315
G1 F900 X34.936 Y50.405 E119.92475
G0 F10500 X34.052 Y50.405
G1 F900 X50.846 Y67.199 E120.91366
G0 F10500 X50.846 Y68.083
G1 F900 X33.168 Y50.405 E121.95463
G0 F10500 X32.285 Y50.405
G1 F900 X50.846 Y68.966 E123.04759
G0 F10500 X50.846 Y69.850
G1 F900 X31.401 Y50.405 E124.19261
G0 F10500 X30.517 Y50.405
G1 F900 X50.846 Y70.734 E125.38968
G0 F10500 X50.846 Y71.618
G1 F900 X29.633 Y50.405 E126.63881
G0 F10500 X28.749 Y50.405
G1 F900 X50.846 Y72.502 E127.93999
G0 F10500 X50.846 Y73.386
G1 F900 X27.865 Y50.405 E129.29323
G0 F10500 X26.981 Y50.405
G1 F900 X50.846 Y74.270 E130.69852
G0 F10500 X50.846 Y75.154
G1 F900 X26.097 Y50.405 E132.15586
G0 F10500 X25.214 Y50.405
G1 F900 X50.846 Y76.038 E133.66523
G0 F10500 X50.846 Y76.921
G1 F900 X24.330 Y50.405 E135.22662
G0 F10500 X23.446 Y50.405
G1 F900 X50.846 Y77.805 E136.84007
G0 F10500 X50.846 Y78.689
G1 F900 X22.562 Y50.405 E138.50557
G0 F10500 X21.678 Y50.405
G1 F900 X50.846 Y79.573 E140.22313
G0 F10500 X50.847 Y61.012
G1 F900 X40.240 Y50.405 E140.84772
G0 F10500 X41.123 Y50.405
G1 F900 X50.847 Y60.128 E141.42029
G0 F10500 X50.847 Y59.244
G1 F900 X42.007 Y50.405 E141.94080
G0 F10500 X42.891 Y50.405
G1 F900 X50.847 Y58.361 E142.40929
G0 F10500 X50.847 Y57.477
G1 F900 X43.775 Y50.405 E142.82572
G0 F10500 X44.660 Y50.406
G1 F900 X50.846 Y56.592 E143.18999
G0 F10500 X50.846 Y55.708
G1 F900 X45.544 Y50.406 E143.50219
G0 F10500 X46.427 Y50.406
G1 F900 X50.846 Y54.824 E143.76238
G0 F10500 X50.846 Y53.940
G1 F900 X47.311 Y50.406 E143.97051
G0 F10500 X48.195 Y50.406
G1 F900 X50.846 Y53.057 E144.12661
G0 F10500 X50.846 Y52.173
G1 F900 X49.079 Y50.406 E144.23066
G0 F10500 X49.963 Y50.406
G1 F900 X50.846 Y51.289 E144.28266
G0 F10500 X50.846 Y80.457
G1 F900 X20.794 Y50.405 E146.05227
G0 F10500 X20.158 Y50.653
G1 F900 X50.597 Y81.092 E147.84467
G0 F10500 X49.713 Y81.092
G1 F900 X20.158 Y51.537 E149.58501
G0 F10500 X20.158 Y52.421
G1 F900 X48.829 Y81.092 E151.27330
G0 F10500 X47.946 Y81.092
G1 F900 X20.158 Y53.305 E152.90957
G0 F10500 X20.158 Y54.189
G1 F900 X47.062 Y81.092 E154.49378
G0 F10500 X46.178 Y81.092
G1 F900 X20.158 Y55.073 E156.02594
G0 F10500 X20.158 Y55.956
G1 F900 X45.294 Y81.092 E157.50607
G0 F10500 X44.410 Y81.092
G1 F900 X20.158 Y56.840 E158.93415
G0 F10500 X20.159 Y57.725
G1 F900 X43.526 Y81.092 E160.31011
G0 F10500 X42.642 Y81.092
G1 F900 X20.159 Y58.609 E161.63402
G0 F10500 X20.159 Y59.493
G1 F900 X41.758 Y81.092 E162.90588
G0 F10500 X40.875 Y81.092
G1 F900 X20.159 Y60.377 E164.12571
G0 F10500 X20.159 Y61.260
G1 F900 X39.991 Y81.092 E165.29351
G0 F10500 X39.107 Y81.092
G1 F900 X20.159 Y62.144 E166.40927
G0 F10500 X20.159 Y63.028
G1 F900 X38.223 Y81.092 E167.47296
G0 F10500 X37.339 Y81.092
G1 F900 X20.159 Y63.912 E168.48461
G0 F10500 X20.159 Y64.796
G1 F900 X36.455 Y81.092 E169.44420
G0 F10500 X35.571 Y81.092
G1 F900 X20.160 Y65.681 E170.35167
G0 F10500 X20.160 Y66.564
G1 F900 X34.687 Y81.092 E171.20712
G0 F10500 X33.803 Y81.092
G1 F900 X20.160 Y67.448 E172.01052
G0 F10500 X20.160 Y68.332
G1 F900 X32.920 Y81.092 E172.76189
G0 F10500 X32.036 Y81.092
G1 F900 X20.160 Y69.216 E173.46121
G0 F10500 X20.160 Y70.100
G1 F900 X31.152 Y81.092 E174.10847
G0 F10500 X30.268 Y81.092
G1 F900 X20.160 Y70.984 E174.70368
G0 F10500 X20.160 Y71.868
G1 F900 X29.384 Y81.092 E175.24684
G0 F10500 X28.500 Y81.092
G1 F900 X20.161 Y72.752 E175.73791
G0 F10500 X20.161 Y73.636
G1 F900 X27.616 Y81.092 E176.17693
G0 F10500 X26.732 Y81.092
G1 F900 X20.161 Y74.520 E176.56389
G0 F10500 X20.161 Y75.404
G1 F900 X25.848 Y81.092 E176.89880
G0 F10500 X24.965 Y81.092
G1 F900 X20.161 Y76.288 E177.18168
G0 F10500 X20.161 Y77.172
G1 F900 X24.081 Y81.092 E177.41251
G0 F10500 X23.197 Y81.092
G1 F900 X20.161 Y78.056 E177.59128
G0 F10500 X20.161 Y78.939
G1 F900 X22.313 Y81.092 E177.71803
G0 F10500 X21.264 Y80.926
G1 F900 X20.313 Y79.975 E177.77403
G1 F600 E176.27403
G1 Z0.525
G0 F10500 X59.579 Y65.487
;TYPE:WALL-INNER
G1 Z0.425
G1 F600 E177.77403
G1 F900 X59.579 Y60.073 E177.99946
G1 X62.079 Y61.515 E178.11963
G1 X62.079 Y48.717 E178.65251
G1 X74.878 Y48.717 E179.18544
G1 X73.435 Y46.217 E179.30563
G1 X78.849 Y46.217 E179.53106
G1 X77.407 Y48.717 E179.65123
G1 X90.204 Y48.717 E180.18407
G1 X90.204 Y61.515 E180.71695
G1 X92.704 Y60.073 E180.83712
G1 X92.704 Y65.487 E181.06255
G1 X90.204 Y64.045 E181.18272
G1 X90.204 Y76.843 E181.71560
G1 X77.407 Y76.843 E182.24844
G1 X78.848 Y79.342 E182.36855
G1 X73.435 Y79.342 E182.59394
G1 X73.757 Y78.783 E182.62080
G1 X74.337 Y77.781 E182.66901
G1 X73.796 Y76.843 E182.71409
G1 X62.079 Y76.843 E183.20197
G1 X62.079 Y64.045 E183.73485
G1 X59.579 Y65.487 E183.85502
G0 F10500 X61.248 Y64.770
G0 X61.454 Y65.127
;TYPE:WALL-OUTER
G1 F900 X58.954 Y66.570 E183.97521
G1 X58.954 Y58.990 E184.29082
G1 X61.454 Y60.433 E184.41101
G1 X61.454 Y48.092 E184.92487
G1 X73.795 Y48.092 E185.43872
G1 X72.352 Y45.592 E185.55891
G1 X79.931 Y45.592 E185.87449
G1 X78.489 Y48.092 E185.99466
G1 X90.829 Y48.092 E186.50847
G1 X90.829 Y60.433 E187.02232
G1 X93.329 Y58.990 E187.14251
G1 X93.329 Y66.570 E187.45813
G1 X90.829 Y65.127 E187.57832
G1 X90.829 Y77.468 E188.09217
G1 X78.489 Y77.468 E188.60599
G1 X79.931 Y79.967 E188.72612
G1 X72.352 Y79.967 E189.04169
G1 X73.795 Y77.468 E189.16185
G1 X61.454 Y77.468 E189.67570
G1 X61.454 Y65.127 E190.18956
G0 F10500 X61.202 Y64.296
;TYPE:SKIN
G1 F900 X59.797 Y62.892 E190.27226
G0 F10500 X59.797 Y63.776
G1 F900 X60.360 Y64.780 E190.32188
G1 X59.797 Y64.659 E190.34585
G0 F10500 X61.762 Y63.973
G1 F900 X59.797 Y62.008 E190.46156
G0 F10500 X59.797 Y61.124
G1 F900 X77.795 Y79.122 E191.52137
G0 F10500 X78.181 Y78.624
G1 F900 X60.297 Y60.739 E192.57450
G0 F10500 X61.867 Y61.148
G0 X62.297 Y60.972
G1 F900 X77.949 Y76.624 E193.49617
G0 F10500 X77.065 Y76.624
G1 F900 X62.297 Y61.856 E194.36578
G0 F10500 X62.297 Y60.088
G1 F900 X78.833 Y76.624 E195.33950
G0 F10500 X79.717 Y76.624
G1 F900 X62.297 Y59.204 E196.36528
G0 F10500 X62.297 Y58.320
G1 F900 X80.600 Y76.624 E197.44308
G0 F10500 X81.484 Y76.624
G1 F900 X62.297 Y57.436 E198.57294
G0 F10500 X62.297 Y56.552
G1 F900 X82.368 Y76.624 E199.75484
G0 F10500 X83.252 Y76.624
G1 F900 X62.297 Y55.669 E200.98878
G0 F10500 X62.297 Y54.785
G1 F900 X84.136 Y76.624 E202.27477
G0 F10500 X85.020 Y76.624
G1 F900 X62.297 Y53.901 E203.61281
G0 F10500 X62.297 Y53.017
G1 F900 X85.904 Y76.624 E205.00291
G0 F10500 X86.788 Y76.624
G1 F900 X62.297 Y52.133 E206.44506
G0 F10500 X62.297 Y51.249
G1 F900 X87.672 Y76.624 E207.93926
G0 F10500 X88.555 Y76.624
G1 F900 X62.297 Y50.365 E209.48550
G0 F10500 X62.297 Y49.481
G1 F900 X89.439 Y76.624 E211.08378
G0 F10500 X89.984 Y76.284
G1 F900 X62.635 Y48.936 E212.69420
G0 F10500 X63.519 Y48.936
G1 F900 X89.984 Y75.400 E214.25256
G0 F10500 X89.984 Y74.517
G1 F900 X64.403 Y48.936 E215.75889
G0 F10500 X65.287 Y48.936
G1 F900 X89.984 Y73.633 E217.21317
G0 F10500 X89.984 Y72.749
G1 F900 X66.171 Y48.936 E218.61540
G0 F10500 X67.054 Y48.936
G1 F900 X89.984 Y71.865 E219.96560
G0 F10500 X89.984 Y70.981
G1 F900 X67.938 Y48.936 E221.26375
G0 F10500 X68.822 Y48.936
G1 F900 X89.984 Y70.097 E222.50985
G0 F10500 X89.984 Y69.213
G1 F900 X69.706 Y48.936 E223.70389
G0 F10500 X70.590 Y48.936
G1 F900 X89.984 Y68.329 E224.84587
G0 F10500 X89.984 Y67.445
G1 F900 X71.474 Y48.936 E225.93580
G0 F10500 X72.358 Y48.936
G1 F900 X89.984 Y66.562 E226.97371
G0 F10500 X89.984 Y65.678
G1 F900 X73.242 Y48.936 E227.95956
G0 F10500 X74.126 Y48.936
G1 F900 X89.984 Y64.794 E228.89336
G0 F10500 X89.984 Y63.910
G1 F900 X75.009 Y48.936 E229.77513
G0 F10500 X74.386 Y47.428
G1 F900 X91.494 Y64.536 E230.78253
G0 F10500 X92.484 Y64.642
G1 F900 X74.277 Y46.435 E231.85465
G0 F10500 X75.161 Y46.435
G1 F900 X77.259 Y48.533 E231.97819
G0 F10500 X77.660 Y48.935
G1 F900 X89.984 Y61.258 E232.70386
G0 F10500 X90.387 Y61.661
G1 F900 X92.484 Y63.759 E232.82737
G0 F10500 X92.484 Y62.875
G1 F900 X90.948 Y61.338 E232.91785
G0 F10500 X91.508 Y61.014
G1 F900 X92.484 Y61.991 E232.97535
G0 F10500 X92.484 Y61.107
G1 F900 X92.068 Y60.691 E232.99985
G0 F10500 X90.416 Y61.148
G0 X89.984 Y60.374
G1 F900 X78.544 Y48.935 E233.67346
G0 F10500 X79.428 Y48.935
G1 F900 X89.984 Y59.491 E234.29505
G0 F10500 X89.984 Y58.607
G1 F900 X80.312 Y48.935 E234.86459
G0 F10500 X81.196 Y48.935
G1 F900 X89.984 Y57.723 E235.38207
G0 F10500 X89.984 Y56.839
G1 F900 X82.080 Y48.935 E235.84749
G0 F10500 X82.964 Y48.935
G1 F900 X89.984 Y55.955 E236.26087
G0 F10500 X89.984 Y55.071
G1 F900 X83.848 Y48.935 E236.62218
G0 F10500 X84.731 Y48.935
G1 F900 X89.984 Y54.187 E236.93148
G0 F10500 X89.984 Y53.303
G1 F900 X85.615 Y48.935 E237.18872
G0 F10500 X86.499 Y48.935
G1 F900 X89.984 Y52.419 E237.39390
G0 F10500 X89.984 Y51.536
G1 F900 X87.383 Y48.935 E237.54706
G0 F10500 X88.267 Y48.935
G1 F900 X89.984 Y50.652 E237.64817
G0 F10500 X89.984 Y49.768
G1 F900 X89.151 Y48.935 E237.69722
G0 F10500 X77.774 Y48.505
G0 X78.229 Y46.852
G1 F900 X77.812 Y46.435 E237.72177
G0 F10500 X76.928 Y46.435
G1 F900 X77.906 Y47.412 E237.77933
G0 F10500 X77.583 Y47.973
G1 F900 X76.045 Y46.435 E237.86990
G0 F10500 X62.297 Y64.507
G1 F900 X76.912 Y79.122 E238.73050
G0 F10500 X76.028 Y79.122
G1 F900 X74.457 Y77.551 E238.82301
G0 F10500 X74.300 Y78.278
G1 F900 X74.702 Y79.122 E238.87271
G1 X73.977 Y78.839 E238.90512
G0 F10500 X74.510 Y77.055
G0 X73.529 Y76.623
G1 F900 X62.297 Y65.391 E239.56651
G0 F10500 X62.297 Y66.275
G1 F900 X72.645 Y76.623 E240.17585
G0 F10500 X71.761 Y76.623
G1 F900 X62.297 Y67.159 E240.73314
G0 F10500 X62.297 Y68.043
G1 F900 X70.877 Y76.623 E241.23837
G0 F10500 X69.993 Y76.623
G1 F900 X62.297 Y68.927 E241.69155
G0 F10500 X62.297 Y69.811
G1 F900 X69.109 Y76.623 E242.09268
G0 F10500 X68.225 Y76.623
G1 F900 X62.297 Y70.695 E242.44175
G0 F10500 X62.297 Y71.579
G1 F900 X67.342 Y76.623 E242.73879
G0 F10500 X66.458 Y76.623
G1 F900 X62.297 Y72.462 E242.98381
G0 F10500 X62.297 Y73.346
G1 F900 X65.574 Y76.623 E243.17678
G0 F10500 X64.690 Y76.623
G1 F900 X62.297 Y74.230 E243.31769
G0 F10500 X62.297 Y75.114
G1 F900 X63.806 Y76.623 E243.40655
G0 F10500 X62.922 Y76.623
G1 F900 X62.297 Y75.998 E243.44335
G1 F600 E241.94335
G1 Z0.525
G0 F10500 X98.716 Y66.468
;TYPE:WALL-INNER
G1 Z0.425
G1 F600 E243.44335
G1 F900 X98.716 Y61.054 E243.66878
G1 X101.216 Y62.496 E243.78895
G1 X101.216 Y49.698 E244.32183
G1 X112.934 Y49.698 E244.80974
G1 X113.475 Y48.761 E244.85479
G1 X112.572 Y47.198 E244.92995
G1 X117.986 Y47.198 E245.15538
G1 X116.543 Y49.698 E245.27557
G1 X132.342 Y49.698 E245.93341
G1 X132.342 Y78.740 E247.14266
G1 X132.307 Y79.137 E247.15925
G1 X132.212 Y79.479 E247.17403
G1 X132.143 Y79.640 E247.18133
G1 X131.942 Y79.977 E247.19767
G1 X131.846 Y80.100 E247.20416
G1 X131.563 Y80.371 E247.22048
G1 X131.236 Y80.586 E247.23677
G1 X131.100 Y80.652 E247.24307
G1 X130.721 Y80.773 E247.25963
G1 X130.374 Y80.820 E247.27421
G1 X128.142 Y80.823 E247.36715
G1 X101.216 Y80.823 E248.48829
G1 X101.216 Y65.026 E249.14605
G1 X98.716 Y66.468 E249.26622
G0 F10500 X100.385 Y65.751
G0 X100.591 Y66.108
;TYPE:WALL-OUTER
G1 F900 X98.091 Y67.551 E249.38641
G1 X98.091 Y59.971 E249.70202
G1 X100.591 Y61.414 E249.82221
G1 X100.591 Y49.073 E250.33607
G1 X112.573 Y49.073 E250.83497
G1 X112.753 Y48.761 E250.84997
G1 X111.489 Y46.573 E250.95518
G1 X119.069 Y46.573 E251.27080
G1 X117.626 Y49.073 E251.39099
G1 X132.967 Y49.073 E252.02976
G1 X132.967 Y78.746 E253.26528
G1 X132.955 Y79.006 E253.27612
G1 X132.924 Y79.239 E253.28591
G1 X132.870 Y79.473 E253.29591
G1 X132.796 Y79.703 E253.30597
G1 X132.703 Y79.921 E253.31583
G1 X132.461 Y80.326 E253.33548
G1 X132.303 Y80.528 E253.34616
G1 X131.954 Y80.862 E253.36627
G1 X131.547 Y81.130 E253.38656
G1 X131.338 Y81.231 E253.39623
G1 X130.864 Y81.383 E253.41695
G1 X130.397 Y81.445 E253.43657
G1 X100.591 Y81.448 E254.67763
G1 X100.591 Y66.108 E255.31636
G0 F10500 X100.245 Y65.332
;TYPE:SKIN
G1 F900 X98.934 Y64.021 E255.39355
G0 F10500 X98.934 Y64.905
G1 F900 X99.403 Y65.816 E255.43765
G1 X98.934 Y65.789 E255.45721
G0 F10500 X100.805 Y65.008
G1 F900 X98.934 Y63.137 E255.56739
G0 F10500 X98.934 Y62.253
G1 F900 X101.365 Y64.685 E255.71056
G0 F10500 X101.434 Y64.754
G1 F900 X117.282 Y80.602 E256.64377
G0 F10500 X116.398 Y80.602
G1 F900 X101.434 Y65.637 E257.52496
G0 F10500 X101.434 Y66.521
G1 F900 X115.515 Y80.602 E258.35412
G0 F10500 X114.631 Y80.602
G1 F900 X101.434 Y67.405 E259.13122
G0 F10500 X101.434 Y68.289
G1 F900 X113.747 Y80.602 E259.85627
G0 F10500 X112.864 Y80.603
G1 F900 X101.434 Y69.173 E260.52933
G0 F10500 X101.434 Y70.057
G1 F900 X111.980 Y80.603 E261.15033
G0 F10500 X111.096 Y80.603
G1 F900 X101.434 Y70.941 E261.71927
G0 F10500 X101.434 Y71.825
G1 F900 X110.212 Y80.603 E262.23617
G0 F10500 X109.328 Y80.603
G1 F900 X101.434 Y72.708 E262.70103
G0 F10500 X101.434 Y73.592
G1 F900 X108.444 Y80.603 E263.11385
G0 F10500 X107.560 Y80.603
G1 F900 X101.434 Y74.476 E263.47460
G0 F10500 X101.434 Y75.360
G1 F900 X106.677 Y80.603 E263.78334
G0 F10500 X105.793 Y80.603
G1 F900 X101.434 Y76.244 E264.04002
G0 F10500 X101.434 Y77.128
G1 F900 X104.909 Y80.603 E264.24464
G0 F10500 X104.026 Y80.603
G1 F900 X101.434 Y78.012 E264.39724
G0 F10500 X101.434 Y78.896
G1 F900 X103.142 Y80.603 E264.49779
G0 F10500 X102.258 Y80.603
G1 F900 X101.434 Y79.780 E264.54628
G0 F10500 X101.171 Y62.723
G1 F900 X119.049 Y80.601 E265.59903
G0 F10500 X118.166 Y80.602
G1 F900 X99.084 Y61.520 E266.72267
G0 F10500 X101.004 Y62.129
G0 X101.434 Y61.218
G1 F900 X120.817 Y80.601 E267.86404
G0 F10500 X121.701 Y80.601
G1 F900 X101.434 Y60.334 E269.05746
G0 F10500 X101.434 Y62.102
G1 F900 X119.933 Y80.601 E270.14677
G0 F10500 X122.585 Y80.601
G1 F900 X101.434 Y59.450 E271.39225
G0 F10500 X101.434 Y58.566
G1 F900 X123.469 Y80.601 E272.68978
G0 F10500 X124.353 Y80.601
G1 F900 X101.434 Y57.682 E274.03936
G0 F10500 X101.434 Y56.799
G1 F900 X125.236 Y80.600 E275.44091
G0 F10500 X126.120 Y80.600
G1 F900 X101.434 Y55.915 E276.89451
G0 F10500 X101.434 Y55.031
G1 F900 X127.004 Y80.600 E278.40017
G0 F10500 X127.888 Y80.600
G1 F900 X101.434 Y54.147 E279.95789
G0 F10500 X101.434 Y53.263
G1 F900 X128.771 Y80.600 E281.56762
G0 F10500 X129.655 Y80.600
G1 F900 X101.434 Y52.379 E283.22942
G0 F10500 X101.434 Y51.495
G1 F900 X130.517 Y80.579 E284.94200
G0 F10500 X131.181 Y80.358
G1 F900 X101.434 Y50.611 E286.69365
G0 F10500 X101.623 Y49.917
G1 F900 X131.670 Y79.963 E288.46294
G0 F10500 X132.001 Y79.411
G1 F900 X102.507 Y49.917 E290.19969
G0 F10500 X103.391 Y49.917
G1 F900 X132.122 Y78.647 E291.89148
G0 F10500 X132.122 Y77.764
G1 F900 X104.275 Y49.917 E293.53125
G0 F10500 X105.159 Y49.917
G1 F900 X132.122 Y76.880 E295.11897
G0 F10500 X132.122 Y75.996
G1 F900 X106.043 Y49.917 E296.65463
G0 F10500 X106.927 Y49.917
G1 F900 X132.122 Y75.112 E298.13823
G0 F10500 X132.122 Y74.228
G1 F900 X107.811 Y49.917 E299.56979
G0 F10500 X108.695 Y49.917
G1 F900 X132.122 Y73.344 E300.94928
G0 F10500 X132.122 Y72.460
G1 F900 X109.578 Y49.917 E302.27676
G0 F10500 X110.462 Y49.917
G1 F900 X132.122 Y71.576 E303.55218
G0 F10500 X132.122 Y70.693
G1 F900 X111.346 Y49.917 E304.77557
G0 F10500 X112.230 Y49.917
G1 F900 X132.122 Y69.809 E305.94691
G0 F10500 X132.122 Y68.925
G1 F900 X113.079 Y49.882 E307.06825
G0 F10500 X113.402 Y49.321
G1 F900 X132.122 Y68.041 E308.17058
G0 F10500 X132.122 Y67.157
G1 F900 X113.726 Y48.761 E309.25383
G0 F10500 X114.149 Y47.417
G1 F900 X116.341 Y49.609 E309.38290
G0 F10500 X116.649 Y49.917
G1 F900 X132.122 Y65.389 E310.29400
G0 F10500 X132.122 Y66.273
G1 F900 X113.265 Y47.417 E311.40437
G0 F10500 X115.033 Y47.417
G1 F900 X116.665 Y49.049 E311.50047
G0 F10500 X116.988 Y48.488
G1 F900 X115.917 Y47.417 E311.56353
G0 F10500 X116.801 Y47.417
G1 F900 X117.311 Y47.927 E311.59356
G0 F10500 X116.911 Y49.486
G0 X117.533 Y49.917
G1 F900 X132.122 Y64.505 E312.45261
G0 F10500 X132.122 Y63.621
G1 F900 X118.417 Y49.917 E313.25960
G0 F10500 X119.301 Y49.917
G1 F900 X132.122 Y62.738 E314.01456
G0 F10500 X132.122 Y61.854
G1 F900 X120.185 Y49.917 E314.71747
G0 F10500 X121.069 Y49.917
G1 F900 X132.122 Y60.970 E315.36832
G0 F10500 X132.122 Y60.086
G1 F900 X121.953 Y49.917 E315.96713
G0 F10500 X122.837 Y49.917
G1 F900 X132.122 Y59.202 E316.51387
G0 F10500 X132.122 Y58.318
G1 F900 X123.721 Y49.917 E317.00857
G0 F10500 X124.604 Y49.917
G1 F900 X132.122 Y57.434 E317.45123
G0 F10500 X132.122 Y56.550
G1 F900 X125.488 Y49.917 E317.84185
G0 F10500 X126.372 Y49.917
G1 F900 X132.122 Y55.666 E318.18041
G0 F10500 X132.122 Y54.783
G1 F900 X127.256 Y49.917 E318.46694
G0 F10500 X128.140 Y49.917
G1 F900 X132.122 Y53.899 E318.70142
G0 F10500 X132.122 Y53.015
G1 F900 X129.024 Y49.917 E318.88384
G0 F10500 X129.908 Y49.917
G1 F900 X132.122 Y52.131 E319.01422
G0 F10500 X132.122 Y51.247
G1 F900 X130.792 Y49.917 E319.09253
G0 F10500 X131.676 Y49.917
G1 F900 X132.122 Y50.363 E319.11880
G1 F600 E317.61880
G1 Z0.525
G0 F10500 X132.449 Y38.177
;TYPE:WALL-INNER
G1 Z0.425
G1 F600 E319.11880
G1 F900 X116.651 Y38.177 E319.77659
G1 X118.093 Y40.677 E319.89676
G1 X112.679 Y40.677 E320.12219
G1 X114.122 Y38.177 E320.24238
G1 X101.323 Y38.177 E320.77530
G1 X101.323 Y25.378 E321.30823
G1 X98.823 Y26.821 E321.42842
G1 X98.823 Y21.407 E321.65385
G1 X101.323 Y22.850 E321.77404
G1 X101.323 Y10.051 E322.30696
G1 X114.122 Y10.051 E322.83989
G1 X112.679 Y7.551 E322.96008
G1 X118.093 Y7.551 E323.18550
G1 X116.651 Y10.051 E323.30567
G1 X132.449 Y10.051 E323.96347
G1 X132.449 Y38.177 E325.13458
G0 F10500 X133.074 Y38.802
;TYPE:WALL-OUTER
G1 F900 X117.733 Y38.802 E325.77335
G1 X119.176 Y41.302 E325.89354
G1 X111.596 Y41.302 E326.20915
G1 X113.040 Y38.802 E326.32937
G1 X100.698 Y38.802 E326.84326
G1 X100.698 Y26.461 E327.35711
G1 X98.198 Y27.904 E327.47731
G1 X98.198 Y20.324 E327.79292
G1 X100.698 Y21.767 E327.91311
G1 X100.698 Y9.426 E328.42697
G1 X113.040 Y9.426 E328.94086
G1 X111.596 Y6.926 E329.06107
G1 X119.176 Y6.926 E329.37669
G1 X117.733 Y9.426 E329.49688
G1 X133.074 Y9.426 E330.13565
G1 X133.074 Y38.802 E331.35880
G0 F10500 X132.091 Y37.958
;TYPE:SKIN
G1 F900 X104.402 Y10.270 E332.98924
G0 F10500 X103.519 Y10.270
G1 F900 X131.207 Y37.958 E334.61965
G0 F10500 X130.323 Y37.958
G1 F900 X102.635 Y10.270 E336.25005
G0 F10500 X101.751 Y10.270
G1 F900 X129.439 Y37.958 E337.88046
G0 F10500 X128.555 Y37.958
G1 F900 X101.541 Y10.943 E339.47121
G0 F10500 X101.541 Y11.827
G1 F900 X127.671 Y37.958 E341.00990
G0 F10500 X126.787 Y37.958
G1 F900 X101.541 Y12.711 E342.49654
G0 F10500 X101.541 Y13.595
G1 F900 X125.903 Y37.958 E343.93112
G0 F10500 X125.020 Y37.958
G1 F900 X101.541 Y14.479 E345.31368
G0 F10500 X101.541 Y15.363
G1 F900 X124.136 Y37.958 E346.64419
G0 F10500 X123.252 Y37.958
G1 F900 X101.541 Y16.247 E347.92264
G0 F10500 X101.541 Y17.131
G1 F900 X122.368 Y37.958 E349.14904
G0 F10500 X121.484 Y37.958
G1 F900 X101.541 Y18.014 E350.32341
G0 F10500 X101.541 Y18.898
G1 F900 X120.600 Y37.958 E351.44573
G0 F10500 X132.229 Y37.212
G1 F900 X105.286 Y10.270 E353.03223
G0 F10500 X106.170 Y10.270
G1 F900 X132.229 Y36.329 E354.56672
G0 F10500 X132.229 Y35.445
G1 F900 X107.054 Y10.270 E356.04915
G0 F10500 X107.938 Y10.270
G1 F900 X132.229 Y34.561 E357.47952
G0 F10500 X132.229 Y33.677
G1 F900 X108.822 Y10.270 E358.85784
G0 F10500 X109.706 Y10.270
G1 F900 X132.229 Y32.793 E360.18411
G0 F10500 X132.229 Y31.909
G1 F900 X110.590 Y10.270 E361.45832
G0 F10500 X111.473 Y10.270
G1 F900 X132.229 Y31.025 E362.68051
G0 F10500 X132.229 Y30.141
G1 F900 X112.357 Y10.270 E363.85064
G0 F10500 X113.241 Y10.270
G1 F900 X132.229 Y29.257 E364.96872
G0 F10500 X132.229 Y28.374
G1 F900 X114.125 Y10.270 E366.03477
G0 F10500 X113.804 Y9.065
G1 F900 X132.229 Y27.490 E367.11972
G0 F10500 X132.229 Y26.606
G1 F900 X113.393 Y7.770 E368.22888
G0 F10500 X114.277 Y7.770
G1 F900 X116.456 Y9.948 E368.35716
G0 F10500 X116.777 Y10.270
G1 F900 X132.229 Y25.722 E369.26705
G0 F10500 X132.229 Y24.838
G1 F900 X117.661 Y10.270 E370.12489
G0 F10500 X118.545 Y10.270
G1 F900 X132.229 Y23.954 E370.93067
G0 F10500 X132.229 Y23.070
G1 F900 X119.428 Y10.270 E371.68443
G0 F10500 X117.018 Y9.839
G0 X117.103 Y8.828
G1 F900 X116.045 Y7.770 E371.74673
G0 F10500 X115.161 Y7.770
G1 F900 X116.780 Y9.388 E371.84203
G0 F10500 X117.426 Y8.267
G1 F900 X116.929 Y7.770 E371.87130
G0 F10500 X101.541 Y19.782
G1 F900 X119.716 Y37.958 E372.94156
G0 F10500 X118.832 Y37.958
G1 F900 X101.541 Y20.666 E373.95977
G0 F10500 X101.541 Y21.550
G1 F900 X117.948 Y37.958 E374.92593
G0 F10500 X117.065 Y37.958
G1 F900 X101.541 Y22.434 E375.84006
G0 F10500 X101.330 Y23.107
G1 F900 X116.395 Y38.172 E376.72716
G0 F10500 X114.467 Y38.012
G1 F900 X116.913 Y40.457 E376.87116
G0 F10500 X117.600 Y40.261
G1 F900 X99.239 Y21.900 E377.95235
G0 F10500 X99.040 Y22.585
G1 F900 X101.485 Y25.030 E378.09632
G0 F10500 X101.541 Y25.086
G1 F900 X114.412 Y37.957 E378.85423
G0 F10500 X114.144 Y38.573
G1 F900 X116.029 Y40.457 E378.96520
G0 F10500 X115.145 Y40.457
G1 F900 X113.820 Y39.133 E379.04319
G0 F10500 X113.497 Y39.694
G1 F900 X113.819 Y40.457 E379.08810
G1 X113.174 Y40.254 E379.11626
G0 F10500 X113.755 Y38.389
G0 X113.528 Y37.957
G1 F900 X101.541 Y25.969 E379.82214
G0 F10500 X100.924 Y25.353
G1 F900 X99.040 Y23.469 E379.93308
G0 F10500 X99.040 Y24.353
G1 F900 X100.364 Y25.677 E380.01104
G0 F10500 X101.111 Y25.746
G0 X101.541 Y26.853
G1 F900 X112.644 Y37.957 E380.66487
G0 F10500 X111.761 Y37.957
G1 F900 X101.541 Y27.737 E381.26668
G0 F10500 X101.541 Y28.621
G1 F900 X110.877 Y37.957 E381.81643
G0 F10500 X109.993 Y37.957
G1 F900 X101.541 Y29.505 E382.31412
G0 F10500 X101.541 Y30.389
G1 F900 X109.109 Y37.957 E382.75976
G0 F10500 X108.225 Y37.957
G1 F900 X101.541 Y31.273 E383.15335
G0 F10500 X101.541 Y32.157
G1 F900 X107.341 Y37.957 E383.49488
G0 F10500 X106.457 Y37.957
G1 F900 X101.541 Y33.040 E383.78439
G0 F10500 X101.541 Y33.924
G1 F900 X105.573 Y37.957 E384.02184
G0 F10500 X104.689 Y37.957
G1 F900 X101.541 Y34.808 E384.20724
G0 F10500 X101.541 Y35.692
G1 F900 X103.806 Y37.957 E384.34062
G0 F10500 X102.922 Y37.957
G1 F900 X101.541 Y36.576 E384.42194
G0 F10500 X101.541 Y37.460
G1 F900 X102.038 Y37.957 E384.45120
G0 F10500 X101.111 Y25.746
G0 X99.243 Y26.324
G1 F900 X99.422 Y26.061 E384.46316
G1 X99.040 Y25.237 E384.50098
G0 F10500 X120.312 Y10.270
G1 F900 X132.229 Y22.186 E385.20268
G0 F10500 X132.229 Y21.303
G1 F900 X121.196 Y10.270 E385.85236
G0 F10500 X122.080 Y10.270
G1 F900 X132.229 Y20.419 E386.44998
G0 F10500 X132.229 Y19.535
G1 F900 X122.964 Y10.270 E386.99555
G0 F10500 X123.848 Y10.270
G1 F900 X132.229 Y18.651 E387.48906
G0 F10500 X132.229 Y17.767
G1 F900 X124.732 Y10.270 E387.93052
G0 F10500 X125.616 Y10.270
G1 F900 X132.229 Y16.883 E388.31993
G0 F10500 X132.229 Y15.999
G1 F900 X126.499 Y10.270 E388.65731
G0 F10500 X127.383 Y10.270
G1 F900 X132.229 Y15.115 E388.94264
G0 F10500 X132.229 Y14.231
G1 F900 X128.267 Y10.270 E389.17591
G0 F10500 X129.151 Y10.270
G1 F900 X132.229 Y13.348 E389.35716
G0 F10500 X132.229 Y12.464
G1 F900 X130.035 Y10.270 E389.48635
G0 F10500 X130.919 Y10.270
G1 F900 X132.229 Y11.580 E389.56349
G0 F10500 X132.229 Y10.696
G1 F900 X131.803 Y10.270 E389.58858
G1 F600 E388.08858
G1 Z0.525
G0 F10500 X93.390 Y23.011
;TYPE:WALL-INNER
G1 Z0.425
G1 F600 E389.58858
G1 F900 X93.390 Y28.425 E389.81400
G1 X90.890 Y26.983 E389.93417
G1 X90.890 Y39.781 E390.46706
G1 X78.093 Y39.781 E390.99990
G1 X79.535 Y42.281 E391.12007
G1 X74.121 Y42.281 E391.34550
G1 X75.564 Y39.781 E391.46569
G1 X62.765 Y39.781 E391.99861
G1 X62.765 Y26.983 E392.53149
G1 X60.265 Y28.425 E392.65166
G1 X60.265 Y23.011 E392.87709
G1 X62.765 Y24.453 E392.99726
G1 X62.765 Y8.655 E393.65506
G1 X90.890 Y8.655 E394.82612
G1 X90.890 Y24.453 E395.48392
G1 X93.390 Y23.011 E395.60409
G0 F10500 X91.721 Y23.728
G0 X91.515 Y23.371
;TYPE:WALL-OUTER
G1 F900 X94.015 Y21.928 E395.72428
G1 X94.015 Y29.508 E396.03990
G1 X91.515 Y28.065 E396.16009
G1 X91.515 Y40.406 E396.67394
G1 X79.175 Y40.406 E397.18775
G1 X80.617 Y42.906 E397.30792
G1 X73.038 Y42.906 E397.62350
G1 X74.481 Y40.406 E397.74369
G1 X62.140 Y40.406 E398.25754
G1 X62.140 Y28.065 E398.77140
G1 X59.640 Y29.508 E398.89159
G1 X59.640 Y21.928 E399.20720
G1 X62.140 Y23.371 E399.32739
G1 X62.140 Y8.030 E399.96616
G1 X91.515 Y8.030 E401.18927
G1 X91.515 Y23.371 E401.82804
G0 F10500 X91.798 Y24.181
;TYPE:SKIN
G1 F900 X93.170 Y25.554 E401.90886
G0 F10500 X93.170 Y26.438
G1 F900 X91.237 Y24.504 E402.02272
G0 F10500 X90.676 Y24.827
G1 F900 X93.170 Y27.321 E402.16958
G0 F10500 X92.792 Y27.827
G1 F900 X73.838 Y8.874 E403.28565
G0 F10500 X72.955 Y8.874
G1 F900 X90.703 Y26.622 E404.33074
G0 F10500 X90.670 Y27.473
G1 F900 X72.071 Y8.874 E405.42594
G0 F10500 X71.187 Y8.874
G1 F900 X90.670 Y28.357 E406.57320
G0 F10500 X90.670 Y29.240
G1 F900 X70.303 Y8.874 E407.77248
G0 F10500 X69.419 Y8.874
G1 F900 X90.670 Y30.124 E409.02381
G0 F10500 X90.670 Y31.008
G1 F900 X68.535 Y8.874 E410.32720
G0 F10500 X67.651 Y8.874
G1 F900 X90.670 Y31.892 E411.68265
G0 F10500 X90.670 Y32.776
G1 F900 X66.767 Y8.874 E413.09014
G0 F10500 X65.883 Y8.874
G1 F900 X90.670 Y33.660 E414.54970
G0 F10500 X90.670 Y34.544
G1 F900 X65.000 Y8.874 E416.06127
G0 F10500 X64.116 Y8.874
G1 F900 X90.670 Y35.428 E417.62490
G0 F10500 X90.670 Y36.312
G1 F900 X63.232 Y8.874 E419.24059
G0 F10500 X62.983 Y9.509
G1 F900 X90.670 Y37.195 E420.87091
G0 F10500 X90.670 Y38.079
G1 F900 X62.983 Y10.393 E422.50123
G0 F10500 X62.983 Y11.276
G1 F900 X90.670 Y38.963 E424.13157
G0 F10500 X90.384 Y39.561
G1 F900 X62.983 Y12.160 E425.74508
G0 F10500 X62.983 Y13.044
G1 F900 X89.500 Y39.561 E427.30653
G0 F10500 X88.616 Y39.561
G1 F900 X62.983 Y13.928 E428.81593
G0 F10500 X62.983 Y14.812
G1 F900 X87.732 Y39.561 E430.27327
G0 F10500 X86.848 Y39.561
G1 F900 X62.983 Y15.696 E431.67856
G0 F10500 X62.983 Y16.580
G1 F900 X85.965 Y39.561 E433.03183
G0 F10500 X85.081 Y39.561
G1 F900 X62.983 Y17.464 E434.33304
G0 F10500 X62.983 Y18.348
G1 F900 X84.197 Y39.561 E435.58219
G0 F10500 X83.313 Y39.561
G1 F900 X62.983 Y19.231 E436.77932
G0 F10500 X74.722 Y8.874
G1 F900 X90.670 Y24.821 E437.71839
G0 F10500 X90.670 Y23.937
G1 F900 X75.606 Y8.874 E438.60541
G0 F10500 X76.490 Y8.874
G1 F900 X90.670 Y23.053 E439.44037
G0 F10500 X90.670 Y22.169
G1 F900 X77.374 Y8.874 E440.22327
G0 F10500 X78.258 Y8.874
G1 F900 X90.670 Y21.286 E440.95415
G0 F10500 X90.670 Y20.402
G1 F900 X79.142 Y8.874 E441.63298
G0 F10500 X80.026 Y8.874
G1 F900 X90.670 Y19.518 E442.25975
G0 F10500 X90.670 Y18.634
G1 F900 X80.909 Y8.874 E442.83449
G0 F10500 X81.793 Y8.874
G1 F900 X90.670 Y17.750 E443.35719
G0 F10500 X90.670 Y16.866
G1 F900 X82.677 Y8.874 E443.82782
G0 F10500 X83.561 Y8.874
G1 F900 X90.670 Y15.982 E444.24641
G0 F10500 X90.670 Y15.098
G1 F900 X84.445 Y8.874 E444.61294
G0 F10500 X85.329 Y8.874
G1 F900 X90.670 Y14.214 E444.92741
G0 F10500 X90.670 Y13.331
G1 F900 X86.213 Y8.874 E445.18986
G0 F10500 X87.097 Y8.874
G1 F900 X90.670 Y12.447 E445.40026
G0 F10500 X90.670 Y11.563
G1 F900 X87.981 Y8.874 E445.55860
G0 F10500 X88.864 Y8.874
G1 F900 X90.670 Y10.679 E445.66492
G0 F10500 X90.670 Y9.795
G1 F900 X89.748 Y8.874 E445.71918
G0 F10500 X91.102 Y24.086
G0 X92.919 Y23.535
G1 F900 X92.764 Y23.822 E445.73391
G1 X93.170 Y24.670 E445.77306
G0 F10500 X82.429 Y39.561
G1 F900 X62.983 Y20.115 E446.91814
G0 F10500 X62.983 Y20.999
G1 F900 X81.545 Y39.561 E448.01116
G0 F10500 X80.661 Y39.561
G1 F900 X62.983 Y21.883 E449.05213
G0 F10500 X62.983 Y22.767
G1 F900 X79.777 Y39.561 E450.04104
G0 F10500 X78.894 Y39.561
G1 F900 X62.983 Y23.651 E450.97793
G0 F10500 X62.983 Y24.535
G1 F900 X78.010 Y39.561 E451.86277
G0 F10500 X78.513 Y40.949
G1 F900 X61.596 Y24.032 E452.85892
G0 F10500 X60.483 Y23.802
G1 F900 X78.741 Y42.061 E453.93407
G0 F10500 X77.858 Y42.061
G1 F900 X75.728 Y39.931 E454.05950
G0 F10500 X75.358 Y39.561
G1 F900 X62.982 Y27.186 E454.78823
G0 F10500 X62.613 Y26.817
G1 F900 X60.483 Y24.686 E454.91368
G0 F10500 X60.483 Y25.570
G1 F900 X62.052 Y27.140 E455.00610
G0 F10500 X61.492 Y27.463
G1 F900 X60.483 Y26.454 E455.06552
G0 F10500 X60.483 Y27.338
G1 F900 X60.932 Y27.787 E455.09196
G0 F10500 X62.553 Y27.350
G0 X62.982 Y28.070
G1 F900 X74.474 Y39.561 E455.76863
G0 F10500 X73.590 Y39.561
G1 F900 X62.982 Y28.953 E456.39329
G0 F10500 X62.982 Y29.837
G1 F900 X72.706 Y39.561 E456.96588
G0 F10500 X71.822 Y39.561
G1 F900 X62.982 Y30.721 E457.48643
G0 F10500 X62.982 Y31.605
G1 F900 X70.939 Y39.561 E457.95494
G0 F10500 X70.055 Y39.561
G1 F900 X62.982 Y32.489 E458.37141
G0 F10500 X62.982 Y33.373
G1 F900 X69.171 Y39.561 E458.73582
G0 F10500 X68.287 Y39.561
G1 F900 X62.982 Y34.257 E459.04817
G0 F10500 X62.982 Y35.141
G1 F900 X67.403 Y39.561 E459.30847
G0 F10500 X66.519 Y39.561
G1 F900 X62.982 Y36.024 E459.51675
G0 F10500 X62.982 Y36.908
G1 F900 X65.635 Y39.561 E459.67297
G0 F10500 X64.751 Y39.561
G1 F900 X62.982 Y37.792 E459.77714
G0 F10500 X62.982 Y38.676
G1 F900 X63.868 Y39.561 E459.82928
G0 F10500 X75.196 Y39.993
G0 X74.758 Y41.613
G1 F900 X75.206 Y42.061 E459.85566
G0 F10500 X76.090 Y42.061
G1 F900 X75.081 Y41.052 E459.91508
G0 F10500 X75.405 Y40.492
G1 F900 X76.974 Y42.061 E460.00747
;LAYER:1
M106 S191
G1 F600 E458.50747
G1 Z0.525
G0 F10500 X49.700 Y38.937 Z0.805
;TYPE:WALL-INNER
G1 Z0.805
G1 F600 E460.00747
G1 F1140 X37.038 Y38.937 E460.38458
G1 X38.481 Y41.437 E460.47056
G1 X32.419 Y41.437 E460.65110
G1 X33.430 Y39.687 E460.71130
G1 X32.997 Y38.937 E460.73709
G1 X18.200 Y38.937 E461.17779
G1 X18.200 Y10.437 E462.02662
G1 X32.997 Y10.437 E462.46733
G1 X33.430 Y9.687 E462.49312
G1 X32.419 Y7.937 E462.55331
G1 X38.481 Y7.937 E462.73386
G1 X37.038 Y10.437 E462.81983
G1 X49.700 Y10.437 E463.19695
G1 X49.700 Y23.100 E463.57409
G1 X52.200 Y21.657 E463.66007
G1 X52.200 Y27.718 E463.84058
G1 X49.700 Y26.275 E463.92655
G1 X49.700 Y38.937 E464.30367
G0 F10500 X50.200 Y39.437
;TYPE:WALL-OUTER
G1 F1080 X37.904 Y39.437 E464.66989
G1 X39.347 Y41.937 E464.75586
G1 X31.553 Y41.937 E464.98799
G1 X32.853 Y39.687 E465.06539
G1 X32.708 Y39.437 E465.07399
G1 X17.700 Y39.437 E465.52098
G1 X17.700 Y9.937 E466.39959
G1 X32.708 Y9.937 E466.84658
G1 X32.853 Y9.687 E466.85519
G1 X31.553 Y7.437 E466.93258
G1 X39.347 Y7.437 E467.16471
G1 X37.904 Y9.937 E467.25069
G1 X50.200 Y9.937 E467.61690
G1 X50.200 Y22.234 E467.98315
G1 X52.700 Y20.791 E468.06912
G1 X52.700 Y28.584 E468.30122
G1 X50.200 Y27.141 E468.38719
G1 X50.200 Y39.437 E468.75341
G0 F10500 X49.524 Y38.510
;TYPE:SKIN
G1 F1380 X49.272 Y38.762 E468.76402
G0 F10500 X48.565 Y38.762
G1 F1380 X49.524 Y37.803 E468.80442
G0 F10500 X49.524 Y37.096
G1 F1380 X47.858 Y38.762 E468.87459
G0 F10500 X47.151 Y38.762
G1 F1380 X49.524 Y36.389 E468.97454
G0 F10500 X49.524 Y35.682
G1 F1380 X46.444 Y38.762 E469.10427
G0 F10500 X45.737 Y38.762
G1 F1380 X49.524 Y34.974 E469.26380
G0 F10500 X49.524 Y34.267
G1 F1380 X45.029 Y38.762 E469.45313
G0 F10500 X44.322 Y38.762
G1 F1380 X49.524 Y33.560 E469.67224
G0 F10500 X49.524 Y32.853
G1 F1380 X43.615 Y38.762 E469.92113
G0 F10500 X42.908 Y38.762
G1 F1380 X49.524 Y32.146 E470.19979
G0 F10500 X49.524 Y31.439
G1 F1380 X42.201 Y38.762 E470.50824
G0 F10500 X41.494 Y38.762
G1 F1380 X49.524 Y30.732 E470.84646
G0 F10500 X49.524 Y30.025
G1 F1380 X40.787 Y38.762 E471.21446
G0 F10500 X40.080 Y38.762
G1 F1380 X49.524 Y29.318 E471.61225
G0 F10500 X49.524 Y28.610
G1 F1380 X39.373 Y38.762 E472.03983
G0 F10500 X38.666 Y38.762
G1 F1380 X49.524 Y27.903 E472.49719
G0 F10500 X49.524 Y27.196
G1 F1380 X37.958 Y38.762 E472.98435
G0 F10500 X37.251 Y38.762
G1 F1380 X49.524 Y26.489 E473.50129
G0 F10500 X49.852 Y26.161
G1 F1380 X52.023 Y23.990 E473.59273
G0 F10500 X52.023 Y24.697
G1 F1380 X50.300 Y26.420 E473.66530
G0 F10500 X50.748 Y26.679
G1 F1380 X52.023 Y25.404 E473.71901
G0 F10500 X52.023 Y26.111
G1 F1380 X51.196 Y26.938 E473.75384
G0 F10500 X51.644 Y27.197
G1 F1380 X52.023 Y26.818 E473.76980
G0 F10500 X52.023 Y23.282
G1 F1380 X34.045 Y41.261 E474.52706
G0 F10500 X34.752 Y41.261
G1 F1380 X36.923 Y39.090 E474.61850
G0 F10500 X37.182 Y39.538
G1 F1380 X35.459 Y41.261 E474.69108
G0 F10500 X36.166 Y41.261
G1 F1380 X37.442 Y39.986 E474.74480
G0 F10500 X33.584 Y39.601
G1 F1380 X50.136 Y23.048 E475.44199
G0 F10500 X49.524 Y22.954
G1 F1380 X33.324 Y39.153 E476.12432
G0 F10500 X33.010 Y38.760
G1 F1380 X49.524 Y22.246 E476.81989
G0 F10500 X49.524 Y21.539
G1 F1380 X32.303 Y38.760 E477.54524
G0 F10500 X31.596 Y38.760
G1 F1380 X49.524 Y20.832 E478.30036
G0 F10500 X49.524 Y20.125
G1 F1380 X30.889 Y38.760 E479.08527
G0 F10500 X30.182 Y38.760
G1 F1380 X49.524 Y19.418 E479.89996
G0 F10500 X49.524 Y18.711
G1 F1380 X29.475 Y38.760 E480.74442
G0 F10500 X28.767 Y38.760
G1 F1380 X49.524 Y18.004 E481.61869
G0 F10500 X49.524 Y17.297
G1 F1380 X28.060 Y38.760 E482.52273
G0 F10500 X27.353 Y38.760
G1 F1380 X49.524 Y16.590 E483.45655
G0 F10500 X49.524 Y15.883
G1 F1380 X26.646 Y38.760 E484.42016
G0 F10500 X25.939 Y38.760
G1 F1380 X49.524 Y15.175 E485.41356
G0 F10500 X49.524 Y14.468
G1 F1380 X25.232 Y38.760 E486.43674
G0 F10500 X24.525 Y38.760
G1 F1380 X49.524 Y13.761 E487.48970
G0 F10500 X49.524 Y13.054
G1 F1380 X23.818 Y38.760 E488.57244
G0 F10500 X23.111 Y38.760
G1 F1380 X49.524 Y12.347 E489.68495
G0 F10500 X49.524 Y11.640
G1 F1380 X22.403 Y38.760 E490.82727
G0 F10500 X21.696 Y38.760
G1 F1380 X49.524 Y10.933 E491.99937
G0 F10500 X49.138 Y10.612
G1 F1380 X20.989 Y38.760 E493.18498
G0 F10500 X20.282 Y38.760
G1 F1380 X48.431 Y10.612 E494.37060
G0 F10500 X47.724 Y10.612
G1 F1380 X19.575 Y38.760 E495.55622
G0 F10500 X18.868 Y38.760
G1 F1380 X47.016 Y10.612 E496.74181
G0 F10500 X46.309 Y10.612
G1 F1380 X18.374 Y38.547 E497.91844
G0 F10500 X18.374 Y37.840
G1 F1380 X45.602 Y10.612 E499.06528
G0 F10500 X44.895 Y10.612
G1 F1380 X18.374 Y37.133 E500.18235
G0 F10500 X18.374 Y36.425
G1 F1380 X44.188 Y10.612 E501.26961
G0 F10500 X43.481 Y10.612
G1 F1380 X18.374 Y35.718 E502.32710
G0 F10500 X18.374 Y35.011
G1 F1380 X42.774 Y10.612 E503.35481
G0 F10500 X42.067 Y10.612
G1 F1380 X18.374 Y34.304 E504.35274
G0 F10500 X18.374 Y33.597
G1 F1380 X41.360 Y10.612 E505.32089
G0 F10500 X40.652 Y10.612
G1 F1380 X18.374 Y32.890 E506.25924
G0 F10500 X18.374 Y32.183
G1 F1380 X39.945 Y10.612 E507.16781
G0 F10500 X39.238 Y10.612
G1 F1380 X18.374 Y31.476 E508.04660
G0 F10500 X18.374 Y30.769
G1 F1380 X38.531 Y10.612 E508.89562
G0 F10500 X37.824 Y10.612
G1 F1380 X18.374 Y30.061 E509.71483
G0 F10500 X18.374 Y29.354
G1 F1380 X37.117 Y10.612 E510.50427
G0 F10500 X37.175 Y9.847
G1 F1380 X18.374 Y28.647 E511.29615
G0 F10500 X18.374 Y27.940
G1 F1380 X38.139 Y8.175 E512.12865
G0 F10500 X37.496 Y8.111
G1 F1380 X18.374 Y27.233 E512.93407
G0 F10500 X18.374 Y26.526
G1 F1380 X36.789 Y8.111 E513.70971
G0 F10500 X36.082 Y8.111
G1 F1380 X18.374 Y25.819 E514.45557
G0 F10500 X18.374 Y25.112
G1 F1380 X32.875 Y10.611 E515.06636
G0 F10500 X32.168 Y10.611
G1 F1380 X18.374 Y24.405 E515.64736
G0 F10500 X18.374 Y23.697
G1 F1380 X31.461 Y10.611 E516.19856
G0 F10500 X30.754 Y10.611
G1 F1380 X18.374 Y22.990 E516.71999
G0 F10500 X18.374 Y22.283
G1 F1380 X30.047 Y10.611 E517.21164
G0 F10500 X29.339 Y10.611
G1 F1380 X18.374 Y21.576 E517.67348
G0 F10500 X18.374 Y20.869
G1 F1380 X28.632 Y10.611 E518.10555
G0 F10500 X27.925 Y10.611
G1 F1380 X18.374 Y20.162 E518.50784
G0 F10500 X18.374 Y19.455
G1 F1380 X27.218 Y10.611 E518.88035
G0 F10500 X26.511 Y10.611
G1 F1380 X18.374 Y18.748 E519.22308
G0 F10500 X18.374 Y18.041
G1 F1380 X25.804 Y10.611 E519.53603
G0 F10500 X25.097 Y10.611
G1 F1380 X18.374 Y17.334 E519.81920
G0 F10500 X18.374 Y16.626
G1 F1380 X24.390 Y10.611 E520.07258
G0 F10500 X23.683 Y10.611
G1 F1380 X18.374 Y15.919 E520.29617
G0 F10500 X18.374 Y15.212
G1 F1380 X22.976 Y10.611 E520.48999
G0 F10500 X22.268 Y10.611
G1 F1380 X18.374 Y14.505 E520.65400
G0 F10500 X18.374 Y13.798
G1 F1380 X21.561 Y10.611 E520.78824
G0 F10500 X20.854 Y10.611
G1 F1380 X18.374 Y13.091 E520.89270
G0 F10500 X18.374 Y12.384
G1 F1380 X20.147 Y10.611 E520.96738
G0 F10500 X32.953 Y10.360
G0 X33.341 Y9.687
G0 X32.916 Y8.449
G1 F1380 X33.253 Y8.111 E520.98159
G0 F10500 X33.960 Y8.111
G1 F1380 X33.175 Y8.897 E521.01468
G0 F10500 X33.434 Y9.345
G1 F1380 X34.668 Y8.111 E521.06665
G0 F10500 X35.375 Y8.111
G1 F1380 X33.400 Y10.086 E521.14984
G0 F10500 X32.953 Y10.360
G0 X19.440 Y10.611
G1 F1380 X18.374 Y11.677 E521.19474
G0 F10500 X18.374 Y10.970
G1 F1380 X18.733 Y10.611 E521.20986
G0 F10500 X33.341 Y39.687
G0 X32.844 Y41.048
G1 F1380 X51.807 Y22.085 E522.00858
G0 F10500 X52.023 Y22.575
G1 F1380 X33.337 Y41.261 E522.79564
G0 F10500 X36.873 Y41.261
G1 F1380 X37.700 Y40.434 E522.83047
G0 F10500 X37.959 Y40.882
G1 F1380 X37.580 Y41.261 E522.84644
G1 F600 E521.34644
G1 Z0.905
G0 F10500 X40.034 Y47.500
;TYPE:WALL-INNER
G1 Z0.805
G1 F600 E522.84644
G1 F1140 X38.591 Y50.000 E522.93241
G1 X51.253 Y50.000 E523.30952
G1 X51.253 Y62.662 E523.68664
G1 X53.753 Y61.219 E523.77261
G1 X53.753 Y67.281 E523.95316
G1 X51.253 Y65.838 E524.03913
G1 X51.253 Y81.499 E524.50557
G1 X22.037 Y81.499 E525.37572
G1 X21.602 Y81.460 E525.38873
G1 X21.212 Y81.353 E525.40077
G1 X20.855 Y81.180 E525.41259
G1 X20.516 Y80.934 E525.42506
G1 X20.352 Y80.773 E525.43191
G1 X20.234 Y80.633 E525.43736
G1 X19.941 Y80.143 E525.45437
G1 X19.809 Y79.737 E525.46708
G1 X19.756 Y79.346 E525.47883
G1 X19.753 Y50.000 E526.35286
G1 X34.550 Y50.000 E526.79356
G1 X34.983 Y49.250 E526.81935
G1 X33.972 Y47.500 E526.87955
G1 X40.034 Y47.500 E527.06009
G0 F10500 X38.851 Y49.850
G0 X39.457 Y49.850
G0 X39.457 Y49.500
;TYPE:WALL-OUTER
G1 F1080 X51.753 Y49.500 E527.42631
G1 X51.753 Y61.796 E527.79253
G1 X54.253 Y60.353 E527.87850
G1 X54.253 Y68.147 E528.11063
G1 X51.753 Y66.704 E528.19660
G1 X51.753 Y81.999 E528.65214
G1 X22.014 Y81.999 E529.53787
G1 X21.512 Y81.954 E529.55288
G1 X21.038 Y81.823 E529.56752
G1 X20.593 Y81.608 E529.58224
G1 X20.191 Y81.316 E529.59704
G1 X19.832 Y80.932 E529.61270
G1 X19.562 Y80.507 E529.62769
G1 X19.477 Y80.332 E529.63349
G1 X19.322 Y79.854 E529.64845
G1 X19.256 Y79.371 E529.66297
G1 X19.253 Y49.500 E530.55263
G1 X34.261 Y49.500 E530.99962
G1 X34.406 Y49.250 E531.00823
G1 X33.106 Y47.000 E531.08562
G1 X40.900 Y47.000 E531.31776
G1 X39.457 Y49.500 E531.40373
G0 F10500 X38.871 Y49.163
;TYPE:SKIN
G1 F1380 X19.930 Y68.104 E532.20152
G0 F10500 X19.930 Y68.811
G1 F1380 X38.567 Y50.174 E532.98651
G0 F10500 X39.274 Y50.174
G1 F1380 X19.930 Y69.518 E533.80129
G0 F10500 X19.930 Y70.225
G1 F1380 X39.981 Y50.174 E534.64583
G0 F10500 X38.851 Y49.850
G0 X39.653 Y47.673
G1 F1380 X19.930 Y67.397 E535.47659
G0 F10500 X19.930 Y66.690
G1 F1380 X38.946 Y47.673 E536.27757
G0 F10500 X38.239 Y47.673
G1 F1380 X19.930 Y65.982 E537.04874
G0 F10500 X19.930 Y65.275
G1 F1380 X37.532 Y47.673 E537.79014
G0 F10500 X36.825 Y47.673
G1 F1380 X35.095 Y49.403 E537.86301
G0 F10500 X34.950 Y48.841
G1 F1380 X36.118 Y47.673 E537.91220
G0 F10500 X35.411 Y47.673
G1 F1380 X34.691 Y48.393 E537.94253
G0 F10500 X34.432 Y47.945
G1 F1380 X34.704 Y47.673 E537.95399
G0 F10500 X34.894 Y49.250
G0 X34.325 Y50.174
G1 F1380 X19.929 Y64.569 E538.56033
G0 F10500 X19.929 Y63.862
G1 F1380 X33.617 Y50.174 E539.13687
G0 F10500 X32.910 Y50.174
G1 F1380 X19.929 Y63.155 E539.68363
G0 F10500 X19.929 Y62.448
G1 F1380 X32.203 Y50.174 E540.20061
G0 F10500 X31.496 Y50.174
G1 F1380 X19.929 Y61.741 E540.68781
G0 F10500 X19.929 Y61.033
G1 F1380 X30.789 Y50.174 E541.14521
G0 F10500 X30.082 Y50.174
G1 F1380 X19.929 Y60.326 E541.57284
G0 F10500 X19.930 Y70.932
G1 F1380 X40.689 Y50.174 E542.44719
G0 F10500 X41.396 Y50.174
G1 F1380 X19.930 Y71.639 E543.35131
G0 F10500 X19.931 Y72.346
G1 F1380 X42.103 Y50.174 E544.28520
G0 F10500 X42.810 Y50.174
G1 F1380 X19.931 Y73.053 E545.24887
G0 F10500 X19.931 Y73.760
G1 F1380 X43.517 Y50.174 E546.24231
G0 F10500 X44.224 Y50.174
G1 F1380 X19.931 Y74.467 E547.26553
G0 F10500 X19.931 Y75.174
G1 F1380 X44.931 Y50.174 E548.31853
G0 F10500 X45.638 Y50.174
G1 F1380 X19.931 Y75.881 E549.40131
G0 F10500 X19.931 Y76.588
G1 F1380 X46.345 Y50.174 E550.51387
G0 F10500 X47.053 Y50.174
G1 F1380 X19.931 Y77.295 E551.65623
G0 F10500 X19.931 Y78.003
G1 F1380 X47.760 Y50.174 E552.82839
G0 F10500 X48.467 Y50.174
G1 F1380 X19.931 Y78.710 E554.03033
G0 F10500 X19.941 Y79.406
G1 F1380 X49.174 Y50.174 E555.26160
G0 F10500 X49.881 Y50.174
G1 F1380 X20.073 Y79.982 E556.51712
G0 F10500 X20.323 Y80.439
G1 F1380 X50.588 Y50.174 E557.79188
G0 F10500 X51.077 Y50.392
G1 F1380 X20.652 Y80.817 E559.07339
G0 F10500 X21.081 Y81.095
G1 F1380 X51.077 Y51.099 E560.33682
G0 F10500 X51.077 Y51.806
G1 F1380 X21.604 Y81.279 E561.57822
G0 F10500 X22.267 Y81.323
G1 F1380 X51.077 Y52.513 E562.79170
G0 F10500 X51.077 Y53.221
G1 F1380 X22.974 Y81.323 E563.97538
G0 F10500 X23.681 Y81.323
G1 F1380 X51.077 Y53.928 E565.12928
G0 F10500 X51.077 Y54.635
G1 F1380 X24.388 Y81.323 E566.25340
G0 F10500 X25.095 Y81.323
G1 F1380 X51.077 Y55.342 E567.34775
G0 F10500 X51.077 Y56.049
G1 F1380 X25.803 Y81.323 E568.41229
G0 F10500 X26.510 Y81.323
G1 F1380 X51.077 Y56.756 E569.44705
G0 F10500 X51.077 Y57.463
G1 F1380 X27.217 Y81.323 E570.45204
G0 F10500 X27.924 Y81.323
G1 F1380 X51.077 Y58.170 E571.42724
G0 F10500 X51.077 Y58.877
G1 F1380 X28.631 Y81.323 E572.37267
G0 F10500 X29.338 Y81.323
G1 F1380 X51.077 Y59.585 E573.28830
G0 F10500 X51.077 Y60.292
G1 F1380 X30.045 Y81.323 E574.17414
G0 F10500 X30.752 Y81.323
G1 F1380 X51.077 Y60.999 E575.03021
G0 F10500 X51.077 Y61.706
G1 F1380 X31.459 Y81.323 E575.85650
G0 F10500 X32.166 Y81.323
G1 F1380 X51.077 Y62.413 E576.65301
G0 F10500 X51.446 Y62.751
G1 F1380 X32.874 Y81.323 E577.43527
G0 F10500 X33.581 Y81.323
G1 F1380 X53.119 Y61.785 E578.25821
G0 F10500 X53.577 Y62.034
G1 F1380 X34.288 Y81.323 E579.07066
G0 F10500 X34.995 Y81.323
G1 F1380 X53.577 Y62.741 E579.85334
G0 F10500 X53.577 Y63.448
G1 F1380 X51.340 Y65.685 E579.94756
G0 F10500 X51.077 Y65.948
G1 F1380 X35.702 Y81.323 E580.59516
G0 F10500 X36.409 Y81.323
G1 F1380 X51.077 Y66.655 E581.21297
G0 F10500 X51.077 Y67.362
G1 F1380 X37.116 Y81.323 E581.80101
G0 F10500 X37.823 Y81.323
G1 F1380 X51.077 Y68.069 E582.35927
G0 F10500 X51.077 Y68.776
G1 F1380 X38.530 Y81.323 E582.88775
G0 F10500 X39.238 Y81.323
G1 F1380 X51.077 Y69.483 E583.38643
G0 F10500 X51.077 Y70.190
G1 F1380 X39.945 Y81.323 E583.85533
G0 F10500 X40.652 Y81.323
G1 F1380 X51.077 Y70.898 E584.29444
G0 F10500 X51.077 Y71.605
G1 F1380 X41.359 Y81.323 E584.70376
G0 F10500 X42.066 Y81.323
G1 F1380 X51.077 Y72.312 E585.08330
G0 F10500 X51.077 Y73.019
G1 F1380 X42.773 Y81.323 E585.43307
G0 F10500 X43.480 Y81.323
G1 F1380 X51.077 Y73.726 E585.75305
G0 F10500 X51.077 Y74.433
G1 F1380 X44.187 Y81.323 E586.04326
G0 F10500 X44.894 Y81.323
G1 F1380 X51.077 Y75.140 E586.30369
G0 F10500 X51.077 Y75.847
G1 F1380 X45.602 Y81.323 E586.53432
G0 F10500 X46.309 Y81.323
G1 F1380 X51.077 Y76.554 E586.73517
G0 F10500 X51.077 Y77.262
G1 F1380 X47.016 Y81.323 E586.90622
G0 F10500 X47.723 Y81.323
G1 F1380 X51.077 Y77.969 E587.04749
G0 F10500 X51.077 Y78.676
G1 F1380 X48.430 Y81.323 E587.15898
G0 F10500 X49.137 Y81.323
G1 F1380 X51.077 Y79.383 E587.24069
G0 F10500 X51.403 Y66.098
G0 X53.133 Y66.721
G1 F1380 X53.577 Y66.277 E587.25939
G0 F10500 X53.577 Y65.570
G1 F1380 X52.685 Y66.462 E587.29696
G0 F10500 X52.236 Y66.203
G1 F1380 X53.577 Y64.862 E587.35345
G0 F10500 X53.577 Y64.155
G1 F1380 X51.788 Y65.944 E587.42880
G0 F10500 X51.403 Y66.098
G0 X51.077 Y80.090
G1 F1380 X49.844 Y81.323 E587.48073
G0 F10500 X50.551 Y81.323
G1 F1380 X51.077 Y80.797 E587.50289
G0 F10500 X29.375 Y50.174
G1 F1380 X19.929 Y59.619 E587.90073
G0 F10500 X19.929 Y58.912
G1 F1380 X28.668 Y50.174 E588.26880
G0 F10500 X27.961 Y50.174
G1 F1380 X19.929 Y58.205 E588.60709
G0 F10500 X19.929 Y57.498
G1 F1380 X27.254 Y50.174 E588.91560
G0 F10500 X26.546 Y50.174
G1 F1380 X19.929 Y56.791 E589.19430
G0 F10500 X19.929 Y56.084
G1 F1380 X25.839 Y50.174 E589.44323
G0 F10500 X25.132 Y50.174
G1 F1380 X19.929 Y55.377 E589.66239
G0 F10500 X19.929 Y54.670
G1 F1380 X24.425 Y50.174 E589.85176
G0 F10500 X23.718 Y50.174
G1 F1380 X19.929 Y53.963 E590.01135
G0 F10500 X19.929 Y53.256
G1 F1380 X23.011 Y50.174 E590.14116
G0 F10500 X22.304 Y50.174
G1 F1380 X19.929 Y52.549 E590.24120
G0 F10500 X19.929 Y51.842
G1 F1380 X21.597 Y50.174 E590.31146
G0 F10500 X20.890 Y50.174
G1 F1380 X19.929 Y51.135 E590.35193
G0 F10500 X19.929 Y50.428
G1 F1380 X20.182 Y50.174 E590.36261
G1 F600 E588.86261
G1 Z0.905
G0 F10500 X59.392 Y59.749
;TYPE:WALL-INNER
G1 Z0.805
G1 F600 E590.36261
G1 F1140 X61.892 Y61.192 E590.44858
G1 X61.892 Y48.530 E590.82570
G1 X74.554 Y48.530 E591.20282
G1 X73.111 Y46.030 E591.28879
G1 X79.173 Y46.030 E591.46933
G1 X77.731 Y48.530 E591.55529
G1 X90.391 Y48.530 E591.93235
G1 X90.391 Y61.192 E592.30947
G1 X92.891 Y59.749 E592.39544
G1 X92.891 Y65.811 E592.57598
G1 X90.391 Y64.368 E592.66196
G1 X90.391 Y77.030 E593.03907
G1 X77.731 Y77.030 E593.41613
G1 X79.172 Y79.529 E593.50205
G1 X73.111 Y79.529 E593.68256
G1 X74.121 Y77.780 E593.74272
G1 X73.688 Y77.030 E593.76851
G1 X61.892 Y77.030 E594.11983
G1 X61.892 Y64.368 E594.49695
G1 X59.392 Y65.811 E594.58292
G1 X59.392 Y59.749 E594.76347
G0 F10500 X61.742 Y60.932
G0 X61.742 Y60.326
G0 X61.392 Y60.326
;TYPE:WALL-OUTER
G1 F1080 X61.392 Y48.030 E595.12969
G1 X73.688 Y48.030 E595.49590
G1 X72.245 Y45.530 E595.58187
G1 X80.038 Y45.530 E595.81398
G1 X78.596 Y48.030 E595.89993
G1 X90.891 Y48.030 E596.26612
G1 X90.891 Y60.326 E596.63234
G1 X93.391 Y58.883 E596.71831
G1 X93.391 Y66.677 E596.95044
G1 X90.891 Y65.234 E597.03641
G1 X90.891 Y77.530 E597.40263
G1 X78.596 Y77.530 E597.76881
G1 X80.038 Y80.029 E597.85475
G1 X72.245 Y80.029 E598.08685
G1 X73.544 Y77.780 E598.16420
G1 X73.399 Y77.530 E598.17281
G1 X61.392 Y77.530 E598.53042
G1 X61.392 Y65.234 E598.89663
G1 X58.892 Y66.677 E598.98261
G1 X58.892 Y58.883 E599.21474
G1 X61.392 Y60.326 E599.30071
G0 F10500 X61.062 Y60.913
;TYPE:SKIN
G1 F1380 X59.567 Y62.408 E599.36368
G0 F10500 X59.567 Y63.115
G1 F1380 X61.509 Y61.173 E599.44548
G0 F10500 X61.958 Y61.432
G1 F1380 X59.567 Y63.822 E599.54616
G0 F10500 X59.567 Y64.529
G1 F1380 X77.892 Y46.205 E600.31799
G0 F10500 X78.599 Y46.205
G1 F1380 X59.567 Y65.236 E601.11960
G0 F10500 X59.567 Y61.701
G1 F1380 X60.613 Y60.654 E601.16368
G0 F10500 X60.165 Y60.396
G1 F1380 X59.567 Y60.640 E601.18888
G1 X59.717 Y60.137 E601.20451
G0 F10500 X61.742 Y60.932
G0 X62.066 Y59.909
G1 F1380 X73.271 Y48.704 E601.67647
G0 F10500 X73.978 Y48.704
G1 F1380 X62.066 Y60.616 E602.17820
G0 F10500 X62.066 Y61.323
G1 F1380 X74.685 Y48.704 E602.70971
G0 F10500 X74.794 Y48.595
G1 F1380 X77.184 Y46.205 E602.81038
G0 F10500 X76.477 Y46.205
G1 F1380 X74.535 Y48.147 E602.89218
G0 F10500 X74.276 Y47.699
G1 F1380 X75.770 Y46.205 E602.95511
G0 F10500 X75.063 Y46.205
G1 F1380 X74.017 Y47.250 E602.99914
G0 F10500 X73.759 Y46.802
G1 F1380 X74.002 Y46.205 E603.02429
G1 X73.500 Y46.354 E603.03989
G0 F10500 X74.294 Y48.380
G0 X72.564 Y48.704
G1 F1380 X62.066 Y59.202 E603.48206
G0 F10500 X62.066 Y58.495
G1 F1380 X71.856 Y48.704 E603.89444
G0 F10500 X71.149 Y48.704
G1 F1380 X62.066 Y57.788 E604.27704
G0 F10500 X62.066 Y57.081
G1 F1380 X70.442 Y48.704 E604.62985
G0 F10500 X69.735 Y48.704
G1 F1380 X62.066 Y56.374 E604.95289
G0 F10500 X62.066 Y55.666
G1 F1380 X69.028 Y48.704 E605.24613
G0 F10500 X68.321 Y48.704
G1 F1380 X62.066 Y54.959 E605.50960
G0 F10500 X62.066 Y54.252
G1 F1380 X67.614 Y48.704 E605.74328
G0 F10500 X66.907 Y48.704
G1 F1380 X62.066 Y53.545 E605.94718
G0 F10500 X62.066 Y52.838
G1 F1380 X66.200 Y48.704 E606.12131
G0 F10500 X65.492 Y48.704
G1 F1380 X62.066 Y52.131 E606.26563
G0 F10500 X62.066 Y51.424
G1 F1380 X64.785 Y48.704 E606.38018
G0 F10500 X64.078 Y48.704
G1 F1380 X62.066 Y50.717 E606.46494
G0 F10500 X62.066 Y50.010
G1 F1380 X63.371 Y48.704 E606.51993
G0 F10500 X62.664 Y48.704
G1 F1380 X62.066 Y49.303 E606.54514
G0 F10500 X62.067 Y64.151
G1 F1380 X77.513 Y48.704 E607.19575
G0 F10500 X78.220 Y48.704
G1 F1380 X62.067 Y64.858 E607.87613
G0 F10500 X62.067 Y65.565
G1 F1380 X78.927 Y48.704 E608.58630
G0 F10500 X79.635 Y48.704
G1 F1380 X62.067 Y66.272 E609.32626
G0 F10500 X62.067 Y66.979
G1 F1380 X80.342 Y48.704 E610.09601
G0 F10500 X81.049 Y48.704
G1 F1380 X62.067 Y67.687 E610.89555
G0 F10500 X62.067 Y68.394
G1 F1380 X81.756 Y48.704 E611.72487
G0 F10500 X82.463 Y48.704
G1 F1380 X62.067 Y69.101 E612.58398
G0 F10500 X62.067 Y69.808
G1 F1380 X83.170 Y48.704 E613.47286
G0 F10500 X83.877 Y48.704
G1 F1380 X62.067 Y70.515 E614.39152
G0 F10500 X62.067 Y71.222
G1 F1380 X84.584 Y48.704 E615.33995
G0 F10500 X85.291 Y48.704
G1 F1380 X62.067 Y71.929 E616.31817
G0 F10500 X62.067 Y72.636
G1 F1380 X85.999 Y48.704 E617.32619
G0 F10500 X86.706 Y48.704
G1 F1380 X62.067 Y73.343 E618.36399
G0 F10500 X62.067 Y74.051
G1 F1380 X87.413 Y48.704 E619.43158
G0 F10500 X88.120 Y48.704
G1 F1380 X62.067 Y74.758 E620.52896
G0 F10500 X62.067 Y75.465
G1 F1380 X88.827 Y48.704 E621.65611
G0 F10500 X89.534 Y48.704
G1 F1380 X62.067 Y76.172 E622.81304
G0 F10500 X62.092 Y76.854
G1 F1380 X90.214 Y48.731 E623.99756
G0 F10500 X90.214 Y49.438
G1 F1380 X62.799 Y76.854 E625.15231
G0 F10500 X63.506 Y76.854
G1 F1380 X90.214 Y50.145 E626.27727
G0 F10500 X90.214 Y50.852
G1 F1380 X64.213 Y76.854 E627.37246
G0 F10500 X64.920 Y76.854
G1 F1380 X90.214 Y51.560 E628.43784
G0 F10500 X90.214 Y52.267
G1 F1380 X65.627 Y76.854 E629.47345
G0 F10500 X66.335 Y76.854
G1 F1380 X90.214 Y52.974 E630.47925
G0 F10500 X90.214 Y53.681
G1 F1380 X67.042 Y76.854 E631.45528
G0 F10500 X67.749 Y76.854
G1 F1380 X90.214 Y54.388 E632.40153
G0 F10500 X90.214 Y55.095
G1 F1380 X68.456 Y76.854 E633.31800
G0 F10500 X69.163 Y76.854
G1 F1380 X90.214 Y55.802 E634.20469
G0 F10500 X90.214 Y56.509
G1 F1380 X69.870 Y76.854 E635.06160
G0 F10500 X70.577 Y76.854
G1 F1380 X90.214 Y57.216 E635.88873
G0 F10500 X90.214 Y57.924
G1 F1380 X71.284 Y76.854 E636.68606
G0 F10500 X71.991 Y76.854
G1 F1380 X90.214 Y58.631 E637.45362
G0 F10500 X90.214 Y59.338
G1 F1380 X72.699 Y76.854 E638.19137
G0 F10500 X73.406 Y76.854
G1 F1380 X90.214 Y60.045 E638.89935
G0 F10500 X90.214 Y60.752
G1 F1380 X73.907 Y77.059 E639.58620
G0 F10500 X74.166 Y77.508
G1 F1380 X90.214 Y61.459 E640.26216
G0 F10500 X91.802 Y60.578
G1 F1380 X73.942 Y78.439 E641.01445
G0 F10500 X73.735 Y79.352
G1 F1380 X92.715 Y60.373 E641.81387
G0 F10500 X92.715 Y61.080
G1 F1380 X74.442 Y79.352 E642.58351
G0 F10500 X75.149 Y79.352
G1 F1380 X77.508 Y76.994 E642.68285
G0 F10500 X77.647 Y76.855
G1 F1380 X90.215 Y64.287 E643.21221
G0 F10500 X90.356 Y64.146
G1 F1380 X92.715 Y61.787 E643.31157
G0 F10500 X92.715 Y62.494
G1 F1380 X90.804 Y64.405 E643.39206
G0 F10500 X91.252 Y64.664
G1 F1380 X92.715 Y63.201 E643.45368
G0 F10500 X92.715 Y63.909
G1 F1380 X91.700 Y64.923 E643.49642
G0 F10500 X92.148 Y65.182
G1 F1380 X92.715 Y64.969 E643.52026
G1 X92.597 Y65.441 E643.53475
G0 F10500 X90.541 Y64.628
G0 X90.215 Y65.701
G1 F1380 X79.061 Y76.855 E644.00456
G0 F10500 X79.768 Y76.855
G1 F1380 X90.215 Y66.408 E644.44459
G0 F10500 X90.215 Y67.115
G1 F1380 X80.475 Y76.855 E644.85484
G0 F10500 X81.182 Y76.855
G1 F1380 X90.215 Y67.822 E645.23531
G0 F10500 X90.215 Y68.529
G1 F1380 X81.890 Y76.855 E645.58598
G0 F10500 X82.597 Y76.855
G1 F1380 X90.215 Y69.237 E645.90685
G0 F10500 X90.215 Y69.944
G1 F1380 X83.304 Y76.855 E646.19794
G0 F10500 X84.011 Y76.855
G1 F1380 X90.215 Y70.651 E646.45926
G0 F10500 X90.215 Y71.358
G1 F1380 X84.718 Y76.855 E646.69079
G0 F10500 X85.425 Y76.855
G1 F1380 X90.215 Y72.065 E646.89254
G0 F10500 X90.215 Y72.772
G1 F1380 X86.132 Y76.855 E647.06452
G0 F10500 X86.839 Y76.855
G1 F1380 X90.215 Y73.479 E647.20672
G0 F10500 X90.215 Y74.186
G1 F1380 X87.546 Y76.855 E647.31914
G0 F10500 X88.253 Y76.855
G1 F1380 X90.215 Y74.893 E647.40178
G0 F10500 X90.215 Y75.601
G1 F1380 X88.961 Y76.855 E647.45459
G0 F10500 X89.668 Y76.855
G1 F1380 X90.215 Y76.308 E647.47763
G0 F10500 X90.215 Y64.994
G1 F1380 X78.354 Y76.855 E647.97722
G0 F10500 X77.766 Y77.443
G1 F1380 X75.857 Y79.352 E648.05763
G0 F10500 X76.564 Y79.352
G1 F1380 X78.025 Y77.891 E648.11916
G0 F10500 X78.283 Y78.340
G1 F1380 X77.271 Y79.352 E648.16179
G0 F10500 X77.978 Y79.352
G1 F1380 X78.671 Y79.012 E648.18552
G1 X78.685 Y79.352 E648.19565
G0 F10500 X61.742 Y64.628
G0 X60.601 Y64.910
G1 F1380 X78.273 Y47.238 E648.94000
G1 F600 E647.44000
G1 Z0.905
G0 F10500 X101.029 Y49.511
;TYPE:WALL-INNER
G1 Z0.805
G1 F600 E648.94000
G1 F1140 X113.692 Y49.511 E649.31714
G1 X112.249 Y47.011 E649.40312
G1 X118.310 Y47.011 E649.58363
G1 X116.867 Y49.511 E649.66960
G1 X132.529 Y49.511 E650.13607
G1 X132.529 Y78.727 E651.00622
G1 X132.490 Y79.161 E651.01920
G1 X132.382 Y79.554 E651.03134
G1 X132.207 Y79.920 E651.04342
G1 X131.977 Y80.235 E651.05504
G1 X131.817 Y80.398 E651.06184
G1 X131.481 Y80.656 E651.07446
G1 X131.150 Y80.833 E651.08564
G1 X130.953 Y80.903 E651.09186
G1 X130.565 Y80.991 E651.10371
G1 X101.029 Y81.010 E651.98340
G1 X101.029 Y65.349 E652.44983
G1 X98.529 Y66.792 E652.53581
G1 X98.529 Y60.730 E652.71635
G1 X101.029 Y62.173 E652.80232
G1 X101.029 Y49.511 E653.17944
G0 F10500 X100.529 Y49.011
;TYPE:WALL-OUTER
G1 F1080 X112.826 Y49.011 E653.54569
G1 X111.383 Y46.511 E653.63166
G1 X119.176 Y46.511 E653.86376
G1 X117.733 Y49.011 E653.94973
G1 X133.029 Y49.011 E654.40530
G1 X133.029 Y78.749 E655.29100
G1 X132.984 Y79.250 E655.30598
G1 X132.853 Y79.727 E655.32071
G1 X132.635 Y80.179 E655.33566
G1 X132.510 Y80.368 E655.34241
G1 X132.346 Y80.574 E655.35025
G1 X132.150 Y80.774 E655.35859
G1 X131.758 Y81.075 E655.37331
G1 X131.351 Y81.292 E655.38705
G1 X131.093 Y81.384 E655.39520
G1 X130.642 Y81.486 E655.40898
G1 X100.529 Y81.510 E656.30584
G1 X100.529 Y66.215 E656.76138
G1 X98.029 Y67.658 E656.84735
G1 X98.029 Y59.864 E657.07948
G1 X100.529 Y61.307 E657.16545
G1 X100.529 Y49.011 E657.53167
G0 F10500 X101.281 Y49.685
;TYPE:SKIN
G1 F1380 X101.203 Y49.764 E657.53498
G0 F10500 X101.203 Y50.471
G1 F1380 X101.988 Y49.685 E657.56806
G0 F10500 X102.695 Y49.685
G1 F1380 X101.203 Y51.178 E657.63093
G0 F10500 X101.203 Y51.885
G1 F1380 X103.403 Y49.685 E657.72359
G0 F10500 X104.110 Y49.685
G1 F1380 X101.203 Y52.592 E657.84603
G0 F10500 X101.203 Y53.299
G1 F1380 X104.817 Y49.685 E657.99826
G0 F10500 X105.524 Y49.685
G1 F1380 X101.203 Y54.006 E658.18026
G0 F10500 X101.203 Y54.713
G1 F1380 X106.231 Y49.685 E658.39204
G0 F10500 X106.938 Y49.685
G1 F1380 X101.203 Y55.420 E658.63359
G0 F10500 X101.203 Y56.128
G1 F1380 X107.645 Y49.685 E658.90495
G0 F10500 X108.352 Y49.685
G1 F1380 X101.203 Y56.835 E659.20609
G0 F10500 X101.203 Y57.542
G1 F1380 X109.059 Y49.685 E659.53701
G0 F10500 X109.767 Y49.685
G1 F1380 X101.203 Y58.249 E659.89772
G0 F10500 X101.203 Y58.956
G1 F1380 X110.474 Y49.685 E660.28822
G0 F10500 X111.181 Y49.685
G1 F1380 X101.203 Y59.663 E660.70849
G0 F10500 X101.203 Y60.370
G1 F1380 X111.888 Y49.685 E661.15854
G0 F10500 X112.595 Y49.685
G1 F1380 X101.203 Y61.077 E661.63838
G0 F10500 X101.203 Y61.784
G1 F1380 X113.302 Y49.685 E662.14799
G0 F10500 X113.741 Y49.246
G1 F1380 X115.802 Y47.185 E662.23480
G0 F10500 X116.509 Y47.185
G1 F1380 X98.703 Y64.991 E662.98479
G0 F10500 X98.703 Y65.698
G1 F1380 X117.216 Y47.185 E663.76456
G0 F10500 X117.923 Y47.185
G1 F1380 X98.703 Y66.405 E664.57410
G0 F10500 X98.703 Y64.284
G1 F1380 X100.764 Y62.223 E664.66091
G0 F10500 X100.317 Y61.963
G1 F1380 X98.703 Y63.577 E664.72889
G0 F10500 X98.703 Y62.870
G1 F1380 X99.868 Y61.704 E664.77799
G0 F10500 X99.420 Y61.446
G1 F1380 X98.703 Y62.163 E664.80819
G0 F10500 X98.703 Y61.456
G1 F1380 X98.972 Y61.187 E664.81952
G0 F10500 X100.178 Y65.637
G1 F1380 X117.154 Y48.662 E665.53452
G0 F10500 X116.838 Y49.685
G1 F1380 X101.203 Y65.319 E666.19305
G0 F10500 X101.203 Y66.026
G1 F1380 X117.545 Y49.685 E666.88136
G0 F10500 X118.252 Y49.685
G1 F1380 X101.203 Y66.733 E667.59944
G0 F10500 X101.203 Y67.441
G1 F1380 X118.959 Y49.685 E668.34732
G0 F10500 X119.666 Y49.685
G1 F1380 X101.203 Y68.148 E669.12499
G0 F10500 X101.203 Y68.855
G1 F1380 X120.373 Y49.685 E669.93243
G0 F10500 X121.080 Y49.685
G1 F1380 X101.203 Y69.562 E670.76965
G0 F10500 X101.203 Y70.269
G1 F1380 X121.787 Y49.685 E671.63665
G0 F10500 X122.494 Y49.685
G1 F1380 X101.203 Y70.976 E672.53343
G0 F10500 X101.203 Y71.683
G1 F1380 X123.202 Y49.685 E673.46000
G0 F10500 X123.909 Y49.685
G1 F1380 X101.203 Y72.390 E674.41636
G0 F10500 X101.203 Y73.097
G1 F1380 X124.616 Y49.685 E675.40250
G0 F10500 X125.323 Y49.685
G1 F1380 X101.203 Y73.804 E676.41841
G0 F10500 X101.203 Y74.512
G1 F1380 X126.030 Y49.685 E677.46413
G0 F10500 X126.737 Y49.685
G1 F1380 X101.203 Y75.219 E678.53962
G0 F10500 X101.203 Y75.926
G1 F1380 X127.444 Y49.685 E679.64489
G0 F10500 X128.151 Y49.685
G1 F1380 X101.203 Y76.633 E680.77994
G0 F10500 X101.203 Y77.340
G1 F1380 X128.858 Y49.685 E681.94477
G0 F10500 X129.566 Y49.685
G1 F1380 X101.203 Y78.047 E683.13940
G0 F10500 X101.203 Y78.754
G1 F1380 X130.273 Y49.685 E684.36381
G0 F10500 X130.980 Y49.685
G1 F1380 X101.203 Y79.461 E685.61800
G0 F10500 X101.203 Y80.168
G1 F1380 X131.687 Y49.685 E686.90197
G0 F10500 X132.353 Y49.726
G1 F1380 X101.244 Y80.835 E688.21228
G0 F10500 X101.952 Y80.835
G1 F1380 X132.353 Y50.433 E689.49279
G0 F10500 X132.353 Y51.140
G1 F1380 X102.659 Y80.834 E690.74351
G0 F10500 X103.366 Y80.834
G1 F1380 X132.353 Y51.847 E691.96444
G0 F10500 X132.353 Y52.555
G1 F1380 X104.074 Y80.833 E693.15553
G0 F10500 X104.782 Y80.832
G1 F1380 X132.353 Y53.262 E694.31681
G0 F10500 X132.353 Y53.969
G1 F1380 X105.489 Y80.832 E695.44830
G0 F10500 X106.197 Y80.832
G1 F1380 X132.353 Y54.676 E696.54999
G0 F10500 X132.353 Y55.383
G1 F1380 X106.905 Y80.831 E697.62186
G0 F10500 X107.612 Y80.831
G1 F1380 X132.353 Y56.090 E698.66395
G0 F10500 X132.353 Y56.797
G1 F1380 X108.320 Y80.830 E699.67623
G0 F10500 X109.028 Y80.830
G1 F1380 X132.353 Y57.504 E700.65870
G0 F10500 X132.353 Y58.211
G1 F1380 X109.735 Y80.830 E701.61139
G0 F10500 X110.443 Y80.829
G1 F1380 X132.353 Y58.918 E702.53426
G0 F10500 X132.353 Y59.626
G1 F1380 X111.150 Y80.828 E703.42731
G0 F10500 X111.857 Y80.828
G1 F1380 X132.353 Y60.333 E704.29058
G0 F10500 X132.353 Y61.040
G1 F1380 X112.565 Y80.827 E705.12403
G0 F10500 X113.273 Y80.827
G1 F1380 X132.353 Y61.747 E705.92768
G0 F10500 X132.353 Y62.454
G1 F1380 X113.980 Y80.827 E706.70156
G0 F10500 X114.688 Y80.826
G1 F1380 X132.353 Y63.161 E707.44561
G0 F10500 X132.353 Y63.868
G1 F1380 X115.396 Y80.825 E708.15984
G0 F10500 X116.103 Y80.825
G1 F1380 X132.353 Y64.575 E708.84429
G0 F10500 X132.353 Y65.282
G1 F1380 X116.811 Y80.825 E709.49894
G0 F10500 X117.519 Y80.824
G1 F1380 X132.353 Y65.990 E710.12375
G0 F10500 X132.353 Y66.697
G1 F1380 X118.226 Y80.824 E710.71878
G0 F10500 X118.933 Y80.823
G1 F1380 X132.353 Y67.404 E711.28401
G0 F10500 X132.353 Y68.111
G1 F1380 X119.641 Y80.823 E711.81944
G0 F10500 X120.348 Y80.823
G1 F1380 X132.353 Y68.818 E712.32509
G0 F10500 X132.353 Y69.525
G1 F1380 X121.056 Y80.822 E712.80092
G0 F10500 X121.763 Y80.822
G1 F1380 X132.353 Y70.232 E713.24697
G0 F10500 X132.353 Y70.939
G1 F1380 X122.471 Y80.821 E713.66320
G0 F10500 X123.179 Y80.820
G1 F1380 X132.353 Y71.646 E714.04961
G0 F10500 X132.353 Y72.353
G1 F1380 X123.886 Y80.820 E714.40624
G0 F10500 X124.594 Y80.820
G1 F1380 X132.353 Y73.061 E714.73305
G0 F10500 X132.353 Y73.768
G1 F1380 X125.302 Y80.819 E715.03004
G0 F10500 X126.009 Y80.819
G1 F1380 X132.353 Y74.475 E715.29725
G0 F10500 X132.353 Y75.182
G1 F1380 X126.717 Y80.818 E715.53464
G0 F10500 X127.424 Y80.818
G1 F1380 X132.353 Y75.889 E715.74225
G0 F10500 X132.353 Y76.596
G1 F1380 X128.131 Y80.818 E715.92008
G0 F10500 X128.839 Y80.817
G1 F1380 X132.353 Y77.303 E716.06809
G0 F10500 X132.353 Y78.010
G1 F1380 X129.547 Y80.816 E716.18628
G0 F10500 X130.254 Y80.816
G1 F1380 X132.353 Y78.717 E716.27469
G0 F10500 X132.152 Y79.625
G1 F1380 X131.137 Y80.640 E716.31744
G0 F10500 X113.482 Y48.798
G1 F1380 X115.095 Y47.185 E716.38538
G0 F10500 X114.387 Y47.185
G1 F1380 X113.223 Y48.350 E716.43443
G0 F10500 X112.964 Y47.902
G1 F1380 X113.680 Y47.185 E716.46461
G0 F10500 X112.973 Y47.185
G1 F1380 X112.705 Y47.453 E716.47590
G1 F600 E714.97590
G1 Z0.905
G0 F10500 X112.355 Y40.864
;TYPE:WALL-INNER
G1 Z0.805
G1 F600 E716.47590
G1 F1140 X113.366 Y39.114 E716.53609
G1 X112.933 Y38.364 E716.56188
G1 X101.136 Y38.364 E716.91324
G1 X101.136 Y25.702 E717.29035
G1 X98.636 Y27.145 E717.37633
G1 X98.636 Y21.083 E717.55687
G1 X101.136 Y22.526 E717.64284
G1 X101.136 Y9.864 E718.01996
G1 X112.933 Y9.864 E718.37132
G1 X113.366 Y9.114 E718.39711
G1 X112.355 Y7.364 E718.45730
G1 X118.417 Y7.364 E718.63785
G1 X116.974 Y9.864 E718.72382
G1 X132.636 Y9.864 E719.19029
G1 X132.636 Y38.364 E720.03911
G1 X116.974 Y38.364 E720.50558
G1 X118.417 Y40.864 E720.59155
G1 X112.355 Y40.864 E720.77210
G0 F10500 X113.091 Y39.288
G0 X112.789 Y39.114
;TYPE:WALL-OUTER
G1 F1080 X112.644 Y38.864 E720.78071
G1 X100.636 Y38.864 E721.13835
G1 X100.636 Y26.568 E721.50456
G1 X98.136 Y28.011 E721.59053
G1 X98.136 Y20.217 E721.82267
G1 X100.636 Y21.660 E721.90864
G1 X100.636 Y9.364 E722.27485
G1 X112.644 Y9.364 E722.63249
G1 X112.789 Y9.114 E722.64110
G1 X111.489 Y6.864 E722.71849
G1 X119.283 Y6.864 E722.95063
G1 X117.840 Y9.364 E723.03660
G1 X133.136 Y9.364 E723.49216
G1 X133.136 Y38.864 E724.37077
G1 X117.840 Y38.864 E724.82634
G1 X119.283 Y41.364 E724.91231
G1 X111.489 Y41.364 E725.14444
G1 X112.789 Y39.114 E725.22184
G0 F10500 X113.457 Y38.924
;TYPE:SKIN
G1 F1380 X132.460 Y19.921 E726.02225
G0 F10500 X132.460 Y19.214
G1 F1380 X113.198 Y38.475 E726.83354
G0 F10500 X112.777 Y38.189
G1 F1380 X132.460 Y18.507 E727.66257
G0 F10500 X132.460 Y17.799
G1 F1380 X112.070 Y38.189 E728.52140
G0 F10500 X111.363 Y38.189
G1 F1380 X132.460 Y17.092 E729.41000
G0 F10500 X132.460 Y16.385
G1 F1380 X110.656 Y38.189 E730.32839
G0 F10500 X109.949 Y38.189
G1 F1380 X132.460 Y15.678 E731.27656
G0 F10500 X132.460 Y14.971
G1 F1380 X109.242 Y38.189 E732.25450
G0 F10500 X108.535 Y38.189
G1 F1380 X132.460 Y14.264 E733.26222
G0 F10500 X132.460 Y13.557
G1 F1380 X107.828 Y38.189 E734.29972
G0 F10500 X107.121 Y38.189
G1 F1380 X132.460 Y12.850 E735.36700
G0 F10500 X132.460 Y12.143
G1 F1380 X106.413 Y38.189 E736.46408
G0 F10500 X105.706 Y38.189
G1 F1380 X132.460 Y11.436 E737.59094
G0 F10500 X132.460 Y10.728
G1 F1380 X104.999 Y38.189 E738.74760
G0 F10500 X104.292 Y38.189
G1 F1380 X132.443 Y10.038 E739.93332
G0 F10500 X131.736 Y10.038
G1 F1380 X103.585 Y38.189 E741.11904
G0 F10500 X102.878 Y38.189
G1 F1380 X131.029 Y10.038 E742.30477
G0 F10500 X130.321 Y10.038
G1 F1380 X102.171 Y38.189 E743.49047
G0 F10500 X101.464 Y38.189
G1 F1380 X129.614 Y10.038 E744.67617
G0 F10500 X128.907 Y10.038
G1 F1380 X101.310 Y37.636 E745.83858
G0 F10500 X101.310 Y36.929
G1 F1380 X128.200 Y10.038 E746.97121
G0 F10500 X127.493 Y10.038
G1 F1380 X101.310 Y36.222 E748.07406
G0 F10500 X101.310 Y35.515
G1 F1380 X126.786 Y10.038 E749.14713
G0 F10500 X126.079 Y10.038
G1 F1380 X101.310 Y34.808 E750.19042
G0 F10500 X101.310 Y34.100
G1 F1380 X125.372 Y10.038 E751.20391
G0 F10500 X124.665 Y10.038
G1 F1380 X101.310 Y33.393 E752.18763
G0 F10500 X101.310 Y32.686
G1 F1380 X123.957 Y10.038 E753.14154
G0 F10500 X123.250 Y10.038
G1 F1380 X101.310 Y31.979 E754.06568
G0 F10500 X101.310 Y31.272
G1 F1380 X122.543 Y10.038 E754.96003
G0 F10500 X121.836 Y10.038
G1 F1380 X101.310 Y30.565 E755.82461
G0 F10500 X101.310 Y29.858
G1 F1380 X121.129 Y10.038 E756.65941
G0 F10500 X120.422 Y10.038
G1 F1380 X101.310 Y29.151 E757.46443
G0 F10500 X101.310 Y28.444
G1 F1380 X119.715 Y10.038 E758.23967
G0 F10500 X119.008 Y10.038
G1 F1380 X101.310 Y27.736 E758.98511
G0 F10500 X101.310 Y27.029
G1 F1380 X118.301 Y10.038 E759.70077
G0 F10500 X117.593 Y10.038
G1 F1380 X101.310 Y26.322 E760.38664
G0 F10500 X101.310 Y25.615
G1 F1380 X116.886 Y10.038 E761.04272
G0 F10500 X117.340 Y8.877
G1 F1380 X100.148 Y26.070 E761.76687
G0 F10500 X98.810 Y25.286
G1 F1380 X101.283 Y22.813 E761.87103
G0 F10500 X101.310 Y22.786
G1 F1380 X116.558 Y7.539 E762.51326
G0 F10500 X117.265 Y7.539
G1 F1380 X98.810 Y25.993 E763.29056
G0 F10500 X98.810 Y26.701
G1 F1380 X117.972 Y7.539 E764.09767
G0 F10500 X115.850 Y7.539
G1 F1380 X101.310 Y22.079 E764.71009
G0 F10500 X100.835 Y22.554
G1 F1380 X98.810 Y24.579 E764.79538
G0 F10500 X98.810 Y23.872
G1 F1380 X100.387 Y22.295 E764.86181
G0 F10500 X101.310 Y21.372
G1 F1380 X112.644 Y10.038 E765.33920
G0 F10500 X111.937 Y10.038
G1 F1380 X101.310 Y20.665 E765.78681
G0 F10500 X117.021 Y38.188
G1 F1380 X132.460 Y22.749 E766.43710
G0 F10500 X132.460 Y23.456
G1 F1380 X117.728 Y38.188 E767.05761
G0 F10500 X118.435 Y38.188
G1 F1380 X132.460 Y24.163 E767.64834
G0 F10500 X132.460 Y24.871
G1 F1380 X119.142 Y38.188 E768.20928
G0 F10500 X119.849 Y38.188
G1 F1380 X132.460 Y25.578 E768.74043
G0 F10500 X132.460 Y26.285
G1 F1380 X120.556 Y38.188 E769.24181
G0 F10500 X121.263 Y38.188
G1 F1380 X132.460 Y26.992 E769.71341
G0 F10500 X132.460 Y27.699
G1 F1380 X121.970 Y38.188 E770.15523
G0 F10500 X122.678 Y38.188
G1 F1380 X132.460 Y28.406 E770.56724
G0 F10500 X132.460 Y29.113
G1 F1380 X123.385 Y38.188 E770.94948
G0 F10500 X124.092 Y38.188
G1 F1380 X132.460 Y29.820 E771.30194
G0 F10500 X132.460 Y30.527
G1 F1380 X124.799 Y38.188 E771.62463
G0 F10500 X125.506 Y38.188
G1 F1380 X132.460 Y31.235 E771.91751
G0 F10500 X132.460 Y31.942
G1 F1380 X126.213 Y38.188 E772.18061
G0 F10500 X126.920 Y38.188
G1 F1380 X132.460 Y32.649 E772.41393
G0 F10500 X132.460 Y33.356
G1 F1380 X127.627 Y38.188 E772.61748
G0 F10500 X128.334 Y38.188
G1 F1380 X132.460 Y34.063 E772.79125
G0 F10500 X132.460 Y34.770
G1 F1380 X129.042 Y38.188 E772.93521
G0 F10500 X129.749 Y38.188
G1 F1380 X132.460 Y35.477 E773.04940
G0 F10500 X132.460 Y36.184
G1 F1380 X130.456 Y38.188 E773.13381
G0 F10500 X131.163 Y38.188
G1 F1380 X132.460 Y36.891 E773.18844
G0 F10500 X132.460 Y37.598
G1 F1380 X131.870 Y38.188 E773.21329
G0 F10500 X132.460 Y22.042
G1 F1380 X113.813 Y40.689 E773.99870
G0 F10500 X114.520 Y40.689
G1 F1380 X116.798 Y38.411 E774.09465
G0 F10500 X117.057 Y38.859
G1 F1380 X115.227 Y40.689 E774.17173
G0 F10500 X115.935 Y40.689
G1 F1380 X117.316 Y39.308 E774.22990
G0 F10500 X117.574 Y39.756
G1 F1380 X116.642 Y40.689 E774.26918
G0 F10500 X117.349 Y40.689
G1 F1380 X117.832 Y40.205 E774.28954
G0 F10500 X113.106 Y40.689
G1 F1380 X132.460 Y21.335 E775.10473
G0 F10500 X132.460 Y20.628
G1 F1380 X113.010 Y40.078 E775.92397
G0 F10500 X113.277 Y39.114
G0 X112.889 Y38.441
G0 X98.810 Y23.165
G1 F1380 X99.938 Y22.036 E775.97150
G0 F10500 X99.490 Y21.778
G1 F1380 X98.810 Y22.104 E776.00011
G1 X99.042 Y21.519 E776.01886
G0 F10500 X100.986 Y22.266
G0 X101.310 Y19.958
G1 F1380 X111.230 Y10.038 E776.43669
G0 F10500 X110.522 Y10.038
G1 F1380 X101.310 Y19.250 E776.82470
G0 F10500 X101.310 Y18.543
G1 F1380 X109.815 Y10.038 E777.18293
G0 F10500 X109.108 Y10.038
G1 F1380 X101.310 Y17.836 E777.51138
G0 F10500 X101.310 Y17.129
G1 F1380 X108.401 Y10.038 E777.81006
G0 F10500 X107.694 Y10.038
G1 F1380 X101.310 Y16.422 E778.07895
G0 F10500 X101.310 Y15.715
G1 F1380 X106.987 Y10.038 E778.31807
G0 F10500 X106.280 Y10.038
G1 F1380 X101.310 Y15.008 E778.52740
G0 F10500 X101.310 Y14.301
G1 F1380 X105.573 Y10.038 E778.70696
G0 F10500 X104.866 Y10.038
G1 F1380 X101.310 Y13.594 E778.85674
G0 F10500 X101.310 Y12.887
G1 F1380 X104.158 Y10.038 E778.97672
G0 F10500 X103.451 Y10.038
G1 F1380 X101.310 Y12.179 E779.06690
G0 F10500 X101.310 Y11.472
G1 F1380 X102.744 Y10.038 E779.12730
G0 F10500 X102.037 Y10.038
G1 F1380 X101.310 Y10.765 E779.15792
G0 F10500 X112.889 Y9.787
G0 X113.277 Y9.114
G0 X112.791 Y7.770
G1 F1380 X113.036 Y7.878 E779.16765
G1 X113.729 Y7.539 E779.19062
G0 F10500 X114.436 Y7.539
G1 F1380 X113.309 Y8.666 E779.23809
G0 F10500 X113.566 Y9.116
G1 F1380 X115.143 Y7.539 E779.30452
G1 F600 E777.80452
G1 Z0.905
G0 F10500 X91.077 Y8.468
;TYPE:WALL-INNER
G1 Z0.805
G1 F600 E779.30452
G1 F1140 X91.077 Y24.130 E779.77098
G1 X93.577 Y22.687 E779.85696
G1 X93.577 Y28.749 E780.03750
G1 X91.077 Y27.306 E780.12347
G1 X91.077 Y39.968 E780.50059
G1 X78.417 Y39.968 E780.87765
G1 X79.859 Y42.468 E780.96361
G1 X73.797 Y42.468 E781.14415
G1 X75.240 Y39.968 E781.23012
G1 X62.578 Y39.968 E781.60724
G1 X62.578 Y27.306 E781.98436
G1 X60.078 Y28.749 E782.07033
G1 X60.078 Y22.687 E782.25088
G1 X62.578 Y24.130 E782.33685
G1 X62.578 Y8.468 E782.80332
G1 X91.077 Y8.468 E783.65211
G0 F10500 X91.577 Y7.968
;TYPE:WALL-OUTER
G1 F1080 X91.577 Y23.264 E784.10768
G1 X94.077 Y21.821 E784.19365
G1 X94.077 Y29.615 E784.42578
G1 X91.577 Y28.172 E784.51175
G1 X91.577 Y40.468 E784.87797
G1 X79.282 Y40.468 E785.24416
G1 X80.724 Y42.968 E785.33011
G1 X72.931 Y42.968 E785.56222
G1 X74.374 Y40.468 E785.64819
G1 X62.078 Y40.468 E786.01440
G1 X62.078 Y28.172 E786.38062
G1 X59.578 Y29.615 E786.46659
G1 X59.578 Y21.821 E786.69872
G1 X62.078 Y23.264 E786.78470
G1 X62.078 Y7.968 E787.24026
G1 X91.577 Y7.968 E788.11884
G0 F10500 X90.705 Y8.642
;TYPE:SKIN
G1 F1380 X62.752 Y36.595 E789.29622
G0 F10500 X62.752 Y37.302
G1 F1380 X90.900 Y9.154 E790.48182
G0 F10500 X90.900 Y9.862
G1 F1380 X62.752 Y38.009 E791.66739
G0 F10500 X62.752 Y38.716
G1 F1380 X90.900 Y10.569 E792.85297
G0 F10500 X90.900 Y11.276
G1 F1380 X62.752 Y39.424 E794.03856
G0 F10500 X63.091 Y39.792
G1 F1380 X90.900 Y11.983 E795.20988
G0 F10500 X90.900 Y12.690
G1 F1380 X63.798 Y39.792 E796.35142
G0 F10500 X64.505 Y39.792
G1 F1380 X90.900 Y13.397 E797.46318
G0 F10500 X90.900 Y14.104
G1 F1380 X65.212 Y39.792 E798.54516
G0 F10500 X65.920 Y39.792
G1 F1380 X90.900 Y14.811 E799.59734
G0 F10500 X90.900 Y15.518
G1 F1380 X66.627 Y39.792 E800.61974
G0 F10500 X67.334 Y39.792
G1 F1380 X90.900 Y16.225 E801.61236
G0 F10500 X90.900 Y16.933
G1 F1380 X68.041 Y39.792 E802.57518
G0 F10500 X68.748 Y39.792
G1 F1380 X90.900 Y17.640 E803.50823
G0 F10500 X90.900 Y18.347
G1 F1380 X69.455 Y39.792 E804.41149
G0 F10500 X70.162 Y39.792
G1 F1380 X90.900 Y19.054 E805.28498
G0 F10500 X90.900 Y19.761
G1 F1380 X70.869 Y39.792 E806.12869
G0 F10500 X71.576 Y39.792
G1 F1380 X90.900 Y20.468 E806.94261
G0 F10500 X90.900 Y21.175
G1 F1380 X72.283 Y39.792 E807.72676
G0 F10500 X72.991 Y39.792
G1 F1380 X90.900 Y21.882 E808.48111
G0 F10500 X90.900 Y22.589
G1 F1380 X73.698 Y39.792 E809.20568
G0 F10500 X74.405 Y39.792
G1 F1380 X90.900 Y23.297 E809.90045
G0 F10500 X90.900 Y24.004
G1 F1380 X75.112 Y39.792 E810.56544
G0 F10500 X78.647 Y39.793
G1 F1380 X90.901 Y27.538 E811.08160
G0 F10500 X91.240 Y27.199
G1 F1380 X93.401 Y25.039 E811.17260
G0 F10500 X93.401 Y25.746
G1 F1380 X91.689 Y27.458 E811.24471
G0 F10500 X92.137 Y27.717
G1 F1380 X93.401 Y26.453 E811.29795
G0 F10500 X93.401 Y27.160
G1 F1380 X92.585 Y27.975 E811.33230
G0 F10500 X93.034 Y28.234
G1 F1380 X93.401 Y27.867 E811.34776
G0 F10500 X91.227 Y27.566
G0 X90.901 Y28.246
G1 F1380 X79.354 Y39.793 E811.83412
G0 F10500 X62.752 Y35.888
G1 F1380 X89.998 Y8.642 E812.98172
G0 F10500 X89.291 Y8.642
G1 F1380 X62.752 Y35.181 E814.09955
G0 F10500 X62.752 Y34.474
G1 F1380 X88.584 Y8.642 E815.18759
G0 F10500 X87.877 Y8.642
G1 F1380 X62.752 Y33.767 E816.24586
G0 F10500 X62.752 Y33.060
G1 F1380 X87.170 Y8.642 E817.27435
G0 F10500 X86.462 Y8.642
G1 F1380 X62.752 Y32.352 E818.27302
G0 F10500 X62.752 Y31.645
G1 F1380 X85.755 Y8.642 E819.24190
G0 F10500 X85.048 Y8.642
G1 F1380 X62.752 Y30.938 E820.18101
G0 F10500 X62.752 Y30.231
G1 F1380 X84.341 Y8.642 E821.09034
G0 F10500 X83.634 Y8.642
G1 F1380 X62.752 Y29.524 E821.96989
G0 F10500 X62.752 Y28.817
G1 F1380 X82.927 Y8.642 E822.81967
G0 F10500 X82.220 Y8.642
G1 F1380 X62.752 Y28.110 E823.63966
G0 F10500 X62.752 Y27.403
G1 F1380 X81.513 Y8.642 E824.42987
G0 F10500 X80.806 Y8.642
G1 F1380 X62.026 Y27.422 E825.22089
G0 F10500 X60.251 Y27.075
G1 F1380 X78.684 Y8.642 E825.99729
G0 F10500 X79.391 Y8.642
G1 F1380 X60.251 Y27.782 E826.80346
G0 F10500 X60.355 Y28.386
G1 F1380 X80.098 Y8.642 E827.63506
G0 F10500 X77.977 Y8.642
G1 F1380 X62.752 Y23.868 E828.27636
G0 F10500 X62.394 Y24.226
G1 F1380 X60.251 Y26.368 E828.36660
G0 F10500 X60.251 Y25.661
G1 F1380 X61.946 Y23.967 E828.43798
G0 F10500 X61.497 Y23.708
G1 F1380 X60.251 Y24.954 E828.49046
G0 F10500 X60.251 Y24.247
G1 F1380 X61.049 Y23.449 E828.52407
G0 F10500 X60.601 Y23.190
G1 F1380 X60.251 Y23.540 E828.53881
G0 F10500 X62.428 Y23.870
G0 X62.752 Y23.161
G1 F1380 X77.270 Y8.642 E829.15033
G0 F10500 X76.563 Y8.642
G1 F1380 X62.752 Y22.454 E829.73207
G0 F10500 X62.752 Y21.747
G1 F1380 X75.856 Y8.642 E830.28404
G0 F10500 X75.149 Y8.642
G1 F1380 X62.752 Y21.039 E830.80620
G0 F10500 X62.752 Y20.332
G1 F1380 X74.442 Y8.642 E831.29858
G0 F10500 X73.734 Y8.642
G1 F1380 X62.752 Y19.625 E831.76116
G0 F10500 X62.752 Y18.918
G1 F1380 X73.027 Y8.642 E832.19397
G0 F10500 X72.320 Y8.642
G1 F1380 X62.752 Y18.211 E832.59700
G0 F10500 X62.752 Y17.504
G1 F1380 X71.613 Y8.642 E832.97024
G0 F10500 X70.906 Y8.642
G1 F1380 X62.752 Y16.797 E833.31371
G0 F10500 X62.752 Y16.090
G1 F1380 X70.199 Y8.642 E833.62740
G0 F10500 X69.492 Y8.642
G1 F1380 X62.752 Y15.383 E833.91131
G0 F10500 X62.752 Y14.676
G1 F1380 X68.785 Y8.642 E834.16544
G0 F10500 X68.078 Y8.642
G1 F1380 X62.752 Y13.968 E834.38977
G0 F10500 X62.752 Y13.261
G1 F1380 X67.371 Y8.642 E834.58432
G0 F10500 X66.663 Y8.642
G1 F1380 X62.752 Y12.554 E834.74908
G0 F10500 X62.752 Y11.847
G1 F1380 X65.956 Y8.642 E834.88405
G0 F10500 X65.249 Y8.642
G1 F1380 X62.752 Y11.140 E834.98925
G0 F10500 X62.752 Y10.433
G1 F1380 X64.542 Y8.642 E835.06466
G0 F10500 X63.835 Y8.642
G1 F1380 X62.752 Y9.726 E835.11030
G0 F10500 X62.752 Y9.019
G1 F1380 X63.128 Y8.642 E835.12616
G0 F10500 X91.557 Y24.054
G1 F1380 X75.164 Y40.447 E835.81663
G0 F10500 X75.439 Y42.293
G1 F1380 X93.401 Y24.332 E836.57317
G0 F10500 X93.401 Y23.625
G1 F1380 X74.732 Y42.293 E837.35949
G0 F10500 X74.199 Y42.119
G1 F1380 X93.230 Y23.088 E838.16108
G0 F10500 X91.227 Y27.566
G0 X90.901 Y28.953
G1 F1380 X80.061 Y39.793 E838.61766
G0 F10500 X80.768 Y39.793
G1 F1380 X90.901 Y29.660 E839.04446
G0 F10500 X90.901 Y30.367
G1 F1380 X81.475 Y39.793 E839.44148
G0 F10500 X82.182 Y39.793
G1 F1380 X90.901 Y31.074 E839.80873
G0 F10500 X90.901 Y31.781
G1 F1380 X82.889 Y39.793 E840.14619
G0 F10500 X83.596 Y39.793
G1 F1380 X90.901 Y32.488 E840.45388
G0 F10500 X90.901 Y33.195
G1 F1380 X84.304 Y39.793 E840.73177
G0 F10500 X85.011 Y39.793
G1 F1380 X90.901 Y33.902 E840.97988
G0 F10500 X90.901 Y34.610
G1 F1380 X85.718 Y39.793 E841.19819
G0 F10500 X86.425 Y39.793
G1 F1380 X90.901 Y35.317 E841.38671
G0 F10500 X90.901 Y36.024
G1 F1380 X87.132 Y39.793 E841.54547
G0 F10500 X87.839 Y39.793
G1 F1380 X90.901 Y36.731 E841.67444
G0 F10500 X90.901 Y37.438
G1 F1380 X88.546 Y39.793 E841.77363
G0 F10500 X89.253 Y39.793
G1 F1380 X90.901 Y38.145 E841.84304
G0 F10500 X90.901 Y38.852
G1 F1380 X89.960 Y39.793 E841.88268
G0 F10500 X90.668 Y39.793
G1 F1380 X90.901 Y39.559 E841.89251
G0 F10500 X78.677 Y40.118
G0 X79.343 Y41.925
G1 F1380 X78.975 Y42.293 E841.90801
G0 F10500 X78.268 Y42.293
G1 F1380 X79.084 Y41.477 E841.94238
G0 F10500 X78.825 Y41.029
G1 F1380 X77.561 Y42.293 E841.99562
G0 F10500 X76.854 Y42.293
G1 F1380 X78.567 Y40.580 E842.06778
G0 F10500 X78.308 Y40.131
G1 F1380 X76.146 Y42.293 E842.15884
;LAYER:2
G1 F600 E840.65884
G1 Z0.905
G0 F10500 X49.700 Y38.937 Z1.185
;TYPE:WALL-INNER
G1 Z1.185
G1 F600 E842.15884
G1 F1440 X37.038 Y38.937 E842.53596
G1 X38.481 Y41.437 E842.62193
G1 X32.419 Y41.437 E842.80247
G1 X33.430 Y39.687 E842.86267
G1 X32.997 Y38.937 E842.88846
G1 X18.200 Y38.937 E843.32917
G1 X18.200 Y10.437 E844.17799
G1 X32.997 Y10.437 E844.61870
G1 X33.430 Y9.687 E844.64449
G1 X32.419 Y7.937 E844.70468
G1 X38.481 Y7.937 E844.88523
G1 X37.038 Y10.437 E844.97120
G1 X49.700 Y10.437 E845.34832
G1 X49.700 Y22.234 E845.69967
G1 X50.450 Y22.667 E845.72547
G1 X52.200 Y21.656 E845.78566
G1 X52.200 Y27.718 E845.96621
G1 X49.700 Y26.275 E846.05218
G1 X49.700 Y38.937 E846.42930
G0 F10500 X50.200 Y39.437
;TYPE:WALL-OUTER
G1 F1320 X37.904 Y39.437 E846.79551
G1 X39.347 Y41.937 E846.88148
G1 X31.553 Y41.937 E847.11362
G1 X32.853 Y39.687 E847.19101
G1 X32.708 Y39.437 E847.19962
G1 X17.700 Y39.437 E847.64661
G1 X17.700 Y9.937 E848.52522
G1 X32.708 Y9.937 E848.97220
G1 X32.853 Y9.687 E848.98081
G1 X31.553 Y7.437 E849.05821
G1 X39.347 Y7.437 E849.29034
G1 X37.904 Y9.937 E849.37631
G1 X50.200 Y9.937 E849.74253
G1 X50.200 Y21.945 E850.10016
G1 X50.450 Y22.090 E850.10877
G1 X52.700 Y20.790 E850.18617
G1 X52.700 Y28.584 E850.41830
G1 X50.200 Y27.141 E850.50427
G1 X50.200 Y39.437 E850.87049
G0 F10500 X49.524 Y38.564
;TYPE:SKIN
G1 F1920 X21.571 Y10.611 E852.04787
G0 F10500 X20.864 Y10.611
G1 F1920 X49.014 Y38.761 E853.23355
G0 F10500 X48.307 Y38.761
G1 F1920 X20.157 Y10.611 E854.41923
G0 F10500 X22.278 Y10.611
G1 F1920 X49.524 Y37.857 E855.56683
G0 F10500 X49.524 Y37.149
G1 F1920 X22.985 Y10.611 E856.68463
G0 F10500 X23.693 Y10.611
G1 F1920 X49.524 Y36.442 E857.77264
G0 F10500 X49.524 Y35.735
G1 F1920 X24.400 Y10.611 E858.83086
G0 F10500 X25.107 Y10.611
G1 F1920 X49.524 Y35.028 E859.85931
G0 F10500 X49.524 Y34.321
G1 F1920 X25.814 Y10.611 E860.85797
G0 F10500 X26.521 Y10.611
G1 F1920 X49.524 Y33.614 E861.82686
G0 F10500 X49.524 Y32.907
G1 F1920 X27.228 Y10.611 E862.76597
G0 F10500 X27.935 Y10.611
G1 F1920 X49.524 Y32.200 E863.67530
G0 F10500 X49.524 Y31.493
G1 F1920 X28.642 Y10.611 E864.55485
G0 F10500 X29.349 Y10.611
G1 F1920 X49.524 Y30.786 E865.40462
G0 F10500 X49.524 Y30.078
G1 F1920 X30.056 Y10.611 E866.22460
G0 F10500 X30.764 Y10.611
G1 F1920 X49.524 Y29.371 E867.01477
G0 F10500 X49.524 Y28.664
G1 F1920 X31.471 Y10.611 E867.77516
G0 F10500 X32.178 Y10.611
G1 F1920 X49.524 Y27.957 E868.50578
G0 F10500 X49.524 Y27.250
G1 F1920 X32.885 Y10.611 E869.20661
G0 F10500 X33.277 Y10.296
G1 F1920 X49.524 Y26.543 E869.89094
G0 F10500 X49.845 Y26.157
G1 F1920 X33.537 Y9.849 E870.57783
G0 F10500 X33.014 Y8.618
G1 F1920 X51.518 Y27.123 E871.35724
G0 F10500 X52.024 Y26.922
G1 F1920 X33.214 Y8.111 E872.14954
G0 F10500 X33.921 Y8.111
G1 F1920 X52.024 Y26.215 E872.91206
G0 F10500 X52.024 Y25.508
G1 F1920 X37.128 Y10.612 E873.53948
G0 F10500 X36.879 Y10.362
G1 F1920 X34.628 Y8.111 E873.63429
G0 F10500 X35.335 Y8.111
G1 F1920 X37.137 Y9.913 E873.71019
G0 F10500 X37.396 Y9.465
G1 F1920 X36.042 Y8.111 E873.76722
G0 F10500 X36.749 Y8.111
G1 F1920 X37.654 Y9.017 E873.80536
G0 F10500 X37.913 Y8.568
G1 F1920 X37.456 Y8.111 E873.82461
G0 F10500 X37.298 Y10.287
G0 X37.835 Y10.612
G1 F1920 X49.524 Y22.300 E874.31693
G0 F10500 X49.604 Y22.380
G1 F1920 X52.024 Y24.801 E874.41889
G0 F10500 X52.024 Y24.093
G1 F1920 X50.671 Y22.741 E874.47585
G0 F10500 X51.119 Y22.481
G1 F1920 X52.024 Y23.386 E874.51397
G0 F10500 X52.024 Y22.679
G1 F1920 X51.567 Y22.222 E874.53322
G0 F10500 X50.450 Y22.578
G0 X49.777 Y22.190
G0 X49.524 Y21.593
G1 F1920 X38.542 Y10.612 E874.99576
G0 F10500 X39.250 Y10.612
G1 F1920 X49.524 Y20.886 E875.42850
G0 F10500 X49.524 Y20.179
G1 F1920 X39.957 Y10.612 E875.83147
G0 F10500 X40.664 Y10.612
G1 F1920 X49.524 Y19.472 E876.20465
G0 F10500 X49.524 Y18.765
G1 F1920 X41.371 Y10.612 E876.54805
G0 F10500 X42.078 Y10.612
G1 F1920 X49.524 Y18.058 E876.86168
G0 F10500 X49.524 Y17.350
G1 F1920 X42.785 Y10.612 E877.14551
G0 F10500 X43.492 Y10.612
G1 F1920 X49.524 Y16.643 E877.39955
G0 F10500 X49.524 Y15.936
G1 F1920 X44.199 Y10.612 E877.62382
G0 F10500 X44.906 Y10.612
G1 F1920 X49.524 Y15.229 E877.81831
G0 F10500 X49.524 Y14.522
G1 F1920 X45.614 Y10.612 E877.98300
G0 F10500 X46.321 Y10.612
G1 F1920 X49.524 Y13.815 E878.11791
G0 F10500 X49.524 Y13.108
G1 F1920 X47.028 Y10.612 E878.22304
G0 F10500 X47.735 Y10.612
G1 F1920 X49.524 Y12.401 E878.29840
G0 F10500 X49.524 Y11.694
G1 F1920 X48.442 Y10.612 E878.34397
G0 F10500 X49.149 Y10.612
G1 F1920 X49.524 Y10.987 E878.35976
G0 F10500 X47.600 Y38.761
G1 F1920 X19.450 Y10.611 E879.54544
G0 F10500 X18.743 Y10.611
G1 F1920 X46.893 Y38.761 E880.73112
G0 F10500 X46.186 Y38.761
G1 F1920 X18.374 Y10.949 E881.90257
G0 F10500 X18.374 Y11.656
G1 F1920 X45.478 Y38.761 E883.04421
G0 F10500 X44.771 Y38.761
G1 F1920 X18.374 Y12.363 E884.15607
G0 F10500 X18.374 Y13.070
G1 F1920 X44.064 Y38.761 E885.23816
G0 F10500 X43.357 Y38.761
G1 F1920 X18.374 Y13.777 E886.29047
G0 F10500 X18.374 Y14.485
G1 F1920 X42.650 Y38.761 E887.31297
G0 F10500 X41.943 Y38.761
G1 F1920 X18.374 Y15.192 E888.30570
G0 F10500 X18.374 Y15.899
G1 F1920 X41.236 Y38.761 E889.26865
G0 F10500 X40.529 Y38.761
G1 F1920 X18.374 Y16.606 E890.20182
G0 F10500 X18.374 Y17.313
G1 F1920 X39.822 Y38.761 E891.10521
G0 F10500 X39.115 Y38.761
G1 F1920 X18.374 Y18.020 E891.97882
G0 F10500 X18.374 Y18.727
G1 F1920 X38.407 Y38.761 E892.82264
G0 F10500 X37.700 Y38.761
G1 F1920 X18.374 Y19.434 E893.63667
G0 F10500 X18.374 Y20.141
G1 F1920 X36.993 Y38.761 E894.42092
G0 F10500 X37.347 Y39.822
G1 F1920 X18.374 Y20.849 E895.22007
G0 F10500 X18.374 Y21.556
G1 F1920 X38.079 Y41.261 E896.05004
G0 F10500 X37.372 Y41.261
G1 F1920 X18.374 Y22.263 E896.85024
G0 F10500 X18.374 Y22.970
G1 F1920 X36.664 Y41.261 E897.62064
G0 F10500 X35.957 Y41.261
G1 F1920 X18.374 Y23.677 E898.36126
G0 F10500 X18.374 Y24.384
G1 F1920 X32.750 Y38.760 E898.96677
G0 F10500 X32.043 Y38.760
G1 F1920 X18.374 Y25.091 E899.54251
G0 F10500 X18.374 Y25.798
G1 F1920 X31.336 Y38.760 E900.08847
G0 F10500 X30.629 Y38.760
G1 F1920 X18.374 Y26.505 E900.60465
G0 F10500 X18.374 Y27.213
G1 F1920 X29.921 Y38.760 E901.09101
G0 F10500 X29.214 Y38.760
G1 F1920 X18.374 Y27.920 E901.54760
G0 F10500 X18.374 Y28.627
G1 F1920 X28.507 Y38.760 E901.97440
G0 F10500 X27.800 Y38.760
G1 F1920 X18.374 Y29.334 E902.37142
G0 F10500 X18.374 Y30.041
G1 F1920 X27.093 Y38.760 E902.73867
G0 F10500 X26.386 Y38.760
G1 F1920 X18.374 Y30.748 E903.07613
G0 F10500 X18.374 Y31.455
G1 F1920 X25.679 Y38.760 E903.38382
G0 F10500 X24.972 Y38.760
G1 F1920 X18.374 Y32.162 E903.66173
G0 F10500 X18.374 Y32.869
G1 F1920 X24.265 Y38.760 E903.90986
G0 F10500 X23.557 Y38.760
G1 F1920 X18.374 Y33.576 E904.12819
G0 F10500 X18.374 Y34.284
G1 F1920 X22.850 Y38.760 E904.31672
G0 F10500 X22.143 Y38.760
G1 F1920 X18.374 Y34.991 E904.47547
G0 F10500 X18.374 Y35.698
G1 F1920 X21.436 Y38.760 E904.60444
G0 F10500 X20.729 Y38.760
G1 F1920 X18.374 Y36.405 E904.70363
G0 F10500 X18.374 Y37.112
G1 F1920 X20.022 Y38.760 E904.77304
G0 F10500 X32.953 Y39.014
G0 X33.571 Y39.581
G1 F1920 X35.250 Y41.261 E904.84379
G0 F10500 X34.543 Y41.261
G1 F1920 X33.388 Y40.106 E904.89243
G0 F10500 X33.129 Y40.553
G1 F1920 X33.836 Y41.261 E904.92223
G0 F10500 X33.129 Y41.261
G1 F1920 X32.870 Y41.002 E904.93314
G0 F10500 X33.341 Y39.687
G0 X32.953 Y39.014
G0 X19.315 Y38.760
G1 F1920 X18.374 Y37.819 E904.97278
G0 F10500 X18.374 Y38.526
G1 F1920 X18.608 Y38.760 E904.98263
G1 F600 E903.48263
G1 Z1.285
G0 F10500 X19.753 Y50.000
;TYPE:WALL-INNER
G1 Z1.185
G1 F600 E904.98263
G1 F1440 X34.550 Y50.000 E905.42334
G1 X34.983 Y49.250 E905.44913
G1 X33.972 Y47.500 E905.50933
G1 X40.034 Y47.500 E905.68987
G1 X38.591 Y50.000 E905.77584
G1 X51.253 Y50.000 E906.15296
G1 X51.253 Y62.662 E906.53008
G1 X53.753 Y61.219 E906.61605
G1 X53.753 Y67.281 E906.79660
G1 X51.253 Y65.838 E906.88257
G1 X51.253 Y81.499 E907.34901
G1 X22.037 Y81.499 E908.21916
G1 X21.602 Y81.460 E908.23216
G1 X21.212 Y81.353 E908.24421
G1 X20.840 Y81.173 E908.25652
G1 X20.697 Y81.078 E908.26163
G1 X20.364 Y80.787 E908.27480
G1 X20.257 Y80.665 E908.27964
G1 X20.014 Y80.296 E908.29279
G1 X19.942 Y80.147 E908.29772
G1 X19.813 Y79.751 E908.31013
G1 X19.756 Y79.332 E908.32272
G1 X19.753 Y50.000 E909.19633
G0 F10500 X19.253 Y49.500
;TYPE:WALL-OUTER
G1 F1320 X34.261 Y49.500 E909.64332
G1 X34.406 Y49.250 E909.65192
G1 X33.106 Y47.000 E909.72932
G1 X40.900 Y47.000 E909.96145
G1 X39.457 Y49.500 E910.04742
G1 X51.753 Y49.500 E910.41364
G1 X51.753 Y61.796 E910.77985
G1 X54.253 Y60.353 E910.86583
G1 X54.253 Y68.147 E911.09796
G1 X51.753 Y66.704 E911.18393
G1 X51.753 Y81.999 E911.63947
G1 X22.014 Y81.999 E912.52519
G1 X21.512 Y81.954 E912.54021
G1 X21.038 Y81.823 E912.55485
G1 X20.588 Y81.606 E912.56973
G1 X20.393 Y81.478 E912.57668
G1 X20.009 Y81.142 E912.59188
G1 X19.862 Y80.973 E912.59855
G1 X19.578 Y80.543 E912.61389
G1 X19.478 Y80.335 E912.62077
G1 X19.324 Y79.861 E912.63561
G1 X19.256 Y79.364 E912.65055
G1 X19.253 Y49.500 E913.54000
G0 F10500 X19.928 Y50.687
;TYPE:SKIN
G1 F1920 X50.563 Y81.322 E914.83035
G0 F10500 X51.077 Y81.129
G1 F1920 X20.122 Y50.174 E916.13418
G0 F10500 X20.829 Y50.174
G1 F1920 X51.077 Y80.422 E917.40823
G0 F10500 X49.856 Y81.322
G1 F1920 X19.928 Y51.394 E918.66879
G0 F10500 X19.928 Y52.101
G1 F1920 X49.149 Y81.322 E919.89958
G0 F10500 X48.442 Y81.322
G1 F1920 X19.928 Y52.808 E921.10060
G0 F10500 X19.928 Y53.515
G1 F1920 X47.735 Y81.322 E922.27183
G0 F10500 X47.028 Y81.322
G1 F1920 X19.928 Y54.223 E923.41326
G0 F10500 X19.928 Y54.930
G1 F1920 X46.321 Y81.322 E924.52491
G0 F10500 X45.614 Y81.322
G1 F1920 X19.928 Y55.637 E925.60679
G0 F10500 X19.928 Y56.344
G1 F1920 X44.906 Y81.322 E926.65886
G0 F10500 X44.199 Y81.322
G1 F1920 X19.928 Y57.051 E927.68116
G0 F10500 X19.929 Y57.759
G1 F1920 X43.492 Y81.322 E928.67364
G0 F10500 X42.785 Y81.322
G1 F1920 X19.929 Y58.466 E929.63633
G0 F10500 X19.929 Y59.173
G1 F1920 X42.078 Y81.322 E930.56925
G0 F10500 X41.371 Y81.322
G1 F1920 X19.929 Y59.880 E931.47239
G0 F10500 X19.929 Y60.587
G1 F1920 X40.664 Y81.322 E932.34575
G0 F10500 X39.957 Y81.322
G1 F1920 X19.929 Y61.294 E933.18933
G0 F10500 X19.929 Y62.001
G1 F1920 X39.250 Y81.322 E934.00313
G0 F10500 X38.542 Y81.322
G1 F1920 X19.929 Y62.709 E934.78711
G0 F10500 X19.929 Y63.416
G1 F1920 X37.835 Y81.322 E935.54131
G0 F10500 X37.128 Y81.322
G1 F1920 X19.929 Y64.123 E936.26573
G0 F10500 X19.929 Y64.831
G1 F1920 X36.421 Y81.322 E936.96036
G0 F10500 X35.714 Y81.322
G1 F1920 X19.929 Y65.538 E937.62520
G0 F10500 X19.929 Y66.245
G1 F1920 X35.007 Y81.322 E938.26027
G0 F10500 X34.300 Y81.322
G1 F1920 X19.929 Y66.952 E938.86555
G0 F10500 X19.929 Y67.659
G1 F1920 X33.593 Y81.322 E939.44106
G0 F10500 X32.886 Y81.322
G1 F1920 X19.929 Y68.366 E939.98679
G0 F10500 X19.929 Y69.073
G1 F1920 X32.179 Y81.322 E940.50274
G0 F10500 X31.471 Y81.322
G1 F1920 X19.929 Y69.780 E940.98889
G0 F10500 X19.929 Y70.487
G1 F1920 X30.764 Y81.322 E941.44526
G0 F10500 X30.057 Y81.322
G1 F1920 X19.929 Y71.195 E941.87183
G0 F10500 X19.929 Y71.902
G1 F1920 X29.350 Y81.322 E942.26862
G0 F10500 X28.643 Y81.322
G1 F1920 X19.930 Y72.609 E942.63561
G0 F10500 X19.930 Y73.317
G1 F1920 X27.936 Y81.322 E942.97281
G0 F10500 X27.229 Y81.322
G1 F1920 X19.930 Y74.024 E943.28022
G0 F10500 X19.930 Y74.731
G1 F1920 X26.522 Y81.322 E943.55785
G0 F10500 X25.815 Y81.322
G1 F1920 X19.930 Y75.438 E943.80571
G0 F10500 X19.930 Y76.145
G1 F1920 X25.107 Y81.322 E944.02377
G0 F10500 X24.400 Y81.322
G1 F1920 X19.930 Y76.852 E944.21204
G0 F10500 X19.930 Y77.559
