;This Gcode has been generated specifically for the LulzBot Mini
;Basic settings: Layer height: 0.38 Walls: 1 Fill: 20
;Filament Diameter: 2.85
;Nozzle Size: 0.5
G21                          ; metric values
G90                          ; absolute positioning
M82                          ; set extruder to absolute mode
M107                         ; start with the fan off
G92 E0                       ; set extruder position to 0
M140 S60; get bed heating up
G28                          ; home all
M109 S140                    ; set to cleaning temp and wait
G1 Z150 E-30 F75             ; suck up XXmm of filament
M109 S140                    ; heat up rest of way
G1 X45 Y174 F11520           ; move behind scraper
G1 Z0  F1200                 ; CRITICAL: set Z to height of top of scraper
G1 X45 Y174 Z-.5 F4000       ; wiping ; plunge into wipe pad
G1 X55 Y172 Z-.5 F4000       ; wiping
G1 X45 Y174 Z0 F4000         ; wiping
G1 X55 Y172 F4000            ; wiping
G1 X45 Y174 F4000            ; wiping
G1 X55 Y172 F4000            ; wiping
G1 X45 Y174 F4000            ; wiping
G1 X55 Y172 F4000            ; wiping
G1 X60 Y174 F4000            ; wiping
G1 X80 Y172 F4000            ; wiping
G1 X60 Y174 F4000            ; wiping
G1 X80 Y172 F4000            ; wiping
G1 X60 Y174 F4000            ; wiping
G1 X90 Y172 F4000            ; wiping
G1 X80 Y174 F4000            ; wiping
G1 X100 Y172 F4000           ; wiping
G1 X80 Y174 F4000            ; wiping
G1 X100 Y172 F4000           ; wiping
G1 X80 Y174 F4000            ; wiping
G1 X100 Y172 F4000           ; wiping
G1 X110 Y174 F4000           ; wiping
G1 X100 Y172 F4000           ; wiping
G1 X110 Y174 F4000           ; wiping
G1 X100 Y172 F4000           ; wiping
G1 X110 Y174 F4000           ; wiping
G1 X115 Y172 Z-0.5 F1000     ; wipe slower and bury noz in cleanish area
G1 Z10                       ; raise z
G28 X0 Y0                    ; home x and y
M109 S140                    ; set to probing temp
M204 S300                    ; Set probing acceleration
G29                          ; Probe
M204 S2000                   ; Restore standard acceleration
G1 X5 Y15 Z10 F5000          ; get out the way
G4 S1                        ; pause
M400                         ; clear buffer
M109 S190    ; set extruder temp and wait
G4 S15                       ; wait for bed to temp up
G1 Z2 E0 F75                 ; extrude filament back into nozzle
M140 S60; get bed temping up during first layer

;Layer count: 9
;LAYER:0
M107
G0 F10500 X92.900 Y48.645 Z0.425
;TYPE:SKIRT
G1 F900 X102.590 Y48.645 E0.40347
G1 X102.590 Y58.334 E0.80690
G1 X102.605 Y58.325 E0.80763
G1 X102.605 Y57.874 E0.82641
G1 X102.996 Y58.100 E0.84521
G1 X105.090 Y56.891 E0.94589
G1 X105.090 Y59.307 E1.04649
G1 X105.105 Y59.316 E1.04722
G1 X105.105 Y49.626 E1.45069
G1 X115.731 Y49.626 E1.89313
G1 X116.033 Y49.103 E1.91828
G1 X113.459 Y49.103 E2.02546
G1 X114.901 Y46.603 E2.14563
G1 X105.212 Y46.603 E2.54906
G1 X105.212 Y39.634 E2.83923
G1 X103.276 Y38.517 E2.93230
G1 X103.276 Y48.207 E3.33577
G1 X93.153 Y48.207 E3.75727
G1 X92.900 Y48.645 E3.77833
G0 F10500 X76.342 Y48.207
G1 F900 X66.653 Y48.207 E4.18176
G1 X66.653 Y38.518 E4.58519
G1 X64.153 Y39.961 E4.70538
G1 X64.153 Y38.787 E4.75427
G1 X61.899 Y37.486 E4.86263
G1 X61.899 Y47.176 E5.26610
G1 X51.274 Y47.176 E5.70850
G1 X51.021 Y47.615 E5.72960
G1 X55.205 Y47.615 E5.90381
G1 X53.763 Y50.115 E6.02398
G1 X63.453 Y50.115 E6.42746
G1 X63.453 Y60.742 E6.86994
G1 X63.467 Y60.750 E6.87061
G1 X63.467 Y56.893 E7.03121
G1 X65.967 Y58.335 E7.15138
G1 X65.967 Y48.645 E7.55485
G1 X76.089 Y48.645 E7.97631
G1 X76.342 Y48.207 E7.99737
G0 F10500 X64.153 Y22.480
G1 F900 X64.153 Y19.831 E8.10767
G1 X66.653 Y21.273 E8.22784
G1 X66.653 Y8.583 E8.75623
G1 X103.276 Y8.583 E10.28113
G1 X103.276 Y18.552 E10.69622
G1 X105.212 Y19.669 E10.78929
G1 X105.212 Y9.979 E11.19276
G1 X115.837 Y9.979 E11.63516
G1 X117.280 Y7.479 E11.75535
G1 X133.588 Y7.479 E12.43439
G1 X132.146 Y9.979 E12.55456
G1 X144.836 Y9.979 E13.08294
G1 X144.836 Y46.603 E14.60789
G1 X131.210 Y46.603 E15.17525
G1 X130.284 Y48.208 E15.25240
G1 X131.102 Y49.626 E15.32057
G1 X144.729 Y49.626 E15.88797
G1 X144.729 Y83.017 E17.27830
G1 X144.705 Y83.508 E17.29877
G1 X144.630 Y84.065 E17.32217
G1 X144.504 Y84.617 E17.34574
G1 X144.329 Y85.155 E17.36930
G1 X144.107 Y85.675 E17.39284
G1 X143.841 Y86.172 E17.41631
G1 X143.489 Y86.707 E17.44298
G1 X142.808 Y87.489 E17.48616
G1 X141.955 Y88.174 E17.53171
G1 X141.386 Y88.509 E17.55920
G1 X140.891 Y88.749 E17.58211
G1 X140.329 Y88.955 E17.60703
G1 X139.795 Y89.099 E17.63006
G1 X139.264 Y89.195 E17.65253
G1 X138.701 Y89.246 E17.67607
G1 X136.283 Y89.249 E17.77675
G1 X105.105 Y89.249 E19.07493
G1 X105.105 Y76.561 E19.60324
G1 X105.090 Y76.570 E19.60397
G1 X105.090 Y77.021 E19.62274
G1 X104.699 Y76.795 E19.64155
G1 X102.605 Y78.004 E19.74223
G1 X102.605 Y75.588 E19.84282
G1 X102.590 Y75.579 E19.84355
G1 X102.590 Y85.268 E20.24698
G1 X91.963 Y85.268 E20.68947
G1 X90.520 Y87.768 E20.80966
G1 X74.214 Y87.768 E21.48861
G1 X75.657 Y85.268 E21.60880
G1 X65.967 Y85.268 E22.01227
G1 X65.967 Y75.580 E22.41566
G1 X65.953 Y75.588 E22.41633
G1 X65.953 Y78.492 E22.53725
G1 X63.453 Y77.049 E22.65744
G1 X63.453 Y89.738 E23.18578
G1 X30.067 Y89.738 E24.57591
G1 X29.576 Y89.716 E24.59637
G1 X29.014 Y89.640 E24.61998
G1 X28.461 Y89.514 E24.64360
G1 X27.854 Y89.317 E24.67017
G1 X26.991 Y88.903 E24.71003
G1 X26.376 Y88.502 E24.74060
G1 X25.590 Y87.819 E24.78395
G1 X24.903 Y86.965 E24.82959
G1 X24.568 Y86.392 E24.85723
G1 X24.302 Y85.844 E24.88259
G1 X23.997 Y84.904 E24.92374
G1 X23.882 Y84.273 E24.95045
G1 X23.832 Y83.710 E24.97398
G1 X23.829 Y81.292 E25.07466
G1 X23.829 Y50.115 E26.37281
G1 X37.454 Y50.115 E26.94012
G1 X37.707 Y49.676 E26.96122
G1 X33.523 Y49.676 E27.13543
G1 X34.965 Y47.176 E27.25560
G1 X22.275 Y47.176 E27.78399
G1 X22.275 Y10.552 E29.30894
G1 X35.901 Y10.552 E29.87630
G1 X37.344 Y8.052 E29.99649
G1 X53.652 Y8.052 E30.67552
G1 X52.210 Y10.552 E30.79569
G1 X61.899 Y10.552 E31.19912
G1 X61.899 Y21.179 E31.64161
G1 X64.153 Y22.480 E31.74997
G1 F600 E30.24997
G1 Z0.525
G0 F10500 X60.150 Y26.157
;TYPE:WALL-INNER
G1 Z0.425
G1 F600 E31.74997
G1 F900 X60.150 Y31.571 E31.97540
G1 X57.650 Y30.128 E32.09559
G1 X57.650 Y42.927 E32.62851
G1 X44.852 Y42.927 E33.16139
G1 X46.295 Y45.427 E33.28159
G1 X40.880 Y45.427 E33.50705
G1 X42.323 Y42.927 E33.62725
G1 X26.524 Y42.927 E34.28508
G1 X26.524 Y14.801 E35.45619
G1 X42.323 Y14.801 E36.11403
G1 X40.880 Y12.301 E36.23422
G1 X46.295 Y12.301 E36.45969
G1 X44.852 Y14.801 E36.57988
G1 X57.650 Y14.801 E37.11276
G1 X57.650 Y26.519 E37.60068
G1 X58.587 Y27.060 E37.64573
G1 X60.150 Y26.157 E37.72089
G0 F10500 X58.587 Y26.900
G0 X58.380 Y26.695
G0 X58.587 Y26.338
;TYPE:WALL-OUTER
G1 F900 X60.775 Y25.074 E37.82610
G1 X60.775 Y32.654 E38.14172
G1 X58.275 Y31.211 E38.26191
G1 X58.275 Y43.552 E38.77576
G1 X45.934 Y43.552 E39.28962
G1 X47.378 Y46.052 E39.40983
G1 X39.797 Y46.052 E39.72548
G1 X41.241 Y43.552 E39.84570
G1 X25.899 Y43.552 E40.48451
G1 X25.899 Y14.176 E41.70766
G1 X41.241 Y14.176 E42.34647
G1 X39.797 Y11.676 E42.46668
G1 X47.378 Y11.676 E42.78234
G1 X45.934 Y14.176 E42.90255
G1 X58.275 Y14.176 E43.41641
G1 X58.275 Y26.158 E43.91531
G1 X58.587 Y26.338 E43.93031
G0 F10500 X59.212 Y26.951
;TYPE:SKIN
G1 F900 X59.930 Y27.669 E43.97259
G0 F10500 X59.930 Y28.553
G1 F900 X58.651 Y27.274 E44.04790
G0 F10500 X59.772 Y26.627
G1 F900 X59.930 Y26.785 E44.05721
G0 F10500 X58.587 Y26.900
G0 X57.789 Y26.439
G0 X57.430 Y26.053
G1 F900 X46.396 Y15.019 E44.70694
G0 F10500 X45.512 Y15.019
G1 F900 X59.930 Y29.437 E45.55595
G0 F10500 X59.930 Y30.321
G1 F900 X44.629 Y15.019 E46.45697
G0 F10500 X44.530 Y14.920
G1 F900 X42.129 Y12.520 E46.59833
G0 F10500 X41.275 Y12.549
G1 F900 X59.899 Y31.174 E47.69503
G0 F10500 X57.808 Y29.966
G1 F900 X42.482 Y14.641 E48.59747
G0 F10500 X41.977 Y15.019
G1 F900 X57.430 Y30.472 E49.50742
G0 F10500 X57.430 Y31.356
G1 F900 X41.093 Y15.019 E50.46942
G0 F10500 X40.209 Y15.019
G1 F900 X57.430 Y32.240 E51.48348
G0 F10500 X57.430 Y33.124
G1 F900 X39.325 Y15.019 E52.54959
G0 F10500 X38.441 Y15.019
G1 F900 X57.430 Y34.008 E53.66776
G0 F10500 X57.430 Y34.892
G1 F900 X37.557 Y15.019 E54.83798
G0 F10500 X36.674 Y15.019
G1 F900 X57.430 Y35.776 E56.06023
G0 F10500 X57.430 Y36.659
G1 F900 X35.790 Y15.019 E57.33450
G0 F10500 X34.906 Y15.019
G1 F900 X57.430 Y37.543 E58.66082
G0 F10500 X57.430 Y38.427
G1 F900 X34.022 Y15.019 E60.03920
G0 F10500 X33.138 Y15.019
G1 F900 X57.430 Y39.311 E61.46963
G0 F10500 X57.430 Y25.169
G1 F900 X47.280 Y15.019 E62.06732
G0 F10500 X48.164 Y15.019
G1 F900 X57.430 Y24.285 E62.61294
G0 F10500 X57.430 Y23.401
G1 F900 X49.048 Y15.019 E63.10652
G0 F10500 X49.932 Y15.019
G1 F900 X57.430 Y22.517 E63.54804
G0 F10500 X57.430 Y21.633
G1 F900 X50.816 Y15.019 E63.93750
G0 F10500 X51.700 Y15.019
G1 F900 X57.430 Y20.750 E64.27494
G0 F10500 X57.430 Y19.866
G1 F900 X52.583 Y15.019 E64.56036
G0 F10500 X53.467 Y15.019
G1 F900 X57.430 Y18.982 E64.79372
G0 F10500 X57.430 Y18.098
G1 F900 X54.351 Y15.019 E64.97503
G0 F10500 X55.235 Y15.019
G1 F900 X57.430 Y17.214 E65.10428
G0 F10500 X57.430 Y16.330
G1 F900 X56.119 Y15.019 E65.18148
G0 F10500 X57.003 Y15.019
G1 F900 X57.430 Y15.446 E65.20662
G0 F10500 X45.219 Y14.589
G0 X45.824 Y12.679
G1 F900 X45.582 Y12.879 E65.21601
G1 X44.781 Y12.520 E65.25256
G0 F10500 X43.897 Y12.520
G1 F900 X45.177 Y13.799 E65.32790
G0 F10500 X44.853 Y14.359
G1 F900 X43.013 Y12.520 E65.43622
G0 F10500 X41.956 Y14.589
G0 X32.254 Y15.019
G1 F900 X57.430 Y40.195 E66.91871
G0 F10500 X57.430 Y41.079
G1 F900 X31.370 Y15.019 E68.45325
G0 F10500 X30.486 Y15.019
G1 F900 X57.430 Y41.963 E70.03985
G0 F10500 X57.291 Y42.707
G1 F900 X29.603 Y15.019 E71.67026
G0 F10500 X28.719 Y15.019
G1 F900 X56.407 Y42.707 E73.30066
G0 F10500 X55.523 Y42.707
G1 F900 X27.835 Y15.019 E74.93107
G0 F10500 X26.951 Y15.019
G1 F900 X54.639 Y42.707 E76.56148
G0 F10500 X53.755 Y42.707
G1 F900 X26.742 Y15.694 E78.15213
G0 F10500 X26.742 Y16.578
G1 F900 X52.871 Y42.707 E79.69074
G0 F10500 X51.987 Y42.707
G1 F900 X26.742 Y17.462 E81.17729
G0 F10500 X26.742 Y18.345
G1 F900 X51.104 Y42.707 E82.61185
G0 F10500 X50.220 Y42.707
G1 F900 X26.742 Y19.229 E83.99435
G0 F10500 X26.742 Y20.113
G1 F900 X49.336 Y42.707 E85.32479
G0 F10500 X48.452 Y42.707
G1 F900 X26.742 Y20.997 E86.60319
G0 F10500 X26.742 Y21.881
G1 F900 X47.568 Y42.707 E87.82952
G0 F10500 X46.684 Y42.707
G1 F900 X26.742 Y22.765 E89.00381
G0 F10500 X26.742 Y23.649
G1 F900 X45.800 Y42.707 E90.12604
G0 F10500 X44.916 Y42.707
G1 F900 X26.742 Y24.533 E91.19621
G0 F10500 X26.742 Y25.416
G1 F900 X45.073 Y43.747 E92.27563
G0 F10500 X44.764 Y45.207
G1 F900 X42.540 Y42.983 E92.40659
G0 F10500 X42.264 Y42.707
G1 F900 X26.742 Y27.184 E93.32063
G0 F10500 X26.742 Y28.068
G1 F900 X41.380 Y42.707 E94.18262
G0 F10500 X40.496 Y42.707
G1 F900 X26.742 Y28.953 E94.99252
G0 F10500 X26.742 Y29.837
G1 F900 X39.612 Y42.707 E95.75037
G0 F10500 X38.728 Y42.707
G1 F900 X26.742 Y30.720 E96.45620
G0 F10500 X26.742 Y31.604
G1 F900 X37.845 Y42.707 E97.11000
G0 F10500 X36.961 Y42.707
G1 F900 X26.742 Y32.488 E97.71174
G0 F10500 X26.742 Y33.372
G1 F900 X36.077 Y42.707 E98.26143
G0 F10500 X35.193 Y42.707
G1 F900 X26.742 Y34.256 E98.75907
G0 F10500 X26.742 Y35.140
G1 F900 X34.309 Y42.707 E99.20465
G0 F10500 X33.425 Y42.707
G1 F900 X26.742 Y36.024 E99.59818
G0 F10500 X26.742 Y36.908
G1 F900 X32.541 Y42.707 E99.93966
G0 F10500 X31.657 Y42.707
G1 F900 X26.742 Y37.792 E100.22908
G0 F10500 X26.742 Y38.675
G1 F900 X30.773 Y42.707 E100.46647
G0 F10500 X29.890 Y42.707
G1 F900 X26.742 Y39.559 E100.65184
G0 F10500 X26.742 Y26.300
G1 F900 X45.648 Y45.207 E101.76515
G0 F10500 X43.880 Y45.207
G1 F900 X42.217 Y43.544 E101.86307
G0 F10500 X41.894 Y44.105
G1 F900 X42.997 Y45.207 E101.92799
G0 F10500 X42.113 Y45.207
G1 F900 X41.570 Y44.665 E101.95994
G0 F10500 X41.956 Y43.139
G0 X29.006 Y42.707
G1 F900 X26.742 Y40.443 E102.09326
G0 F10500 X26.742 Y41.327
G1 F900 X28.122 Y42.707 E102.17452
G0 F10500 X27.238 Y42.707
G1 F900 X26.742 Y42.211 E102.20372
G1 F600 E100.70372
G1 Z0.525
G0 F10500 X28.078 Y54.364
;TYPE:WALL-INNER
G1 Z0.425
G1 F600 E102.20372
G1 F900 X43.876 Y54.364 E102.86152
G1 X42.433 Y51.864 E102.98171
G1 X47.848 Y51.864 E103.20718
G1 X46.405 Y54.364 E103.32737
G1 X59.204 Y54.364 E103.86029
G1 X59.204 Y67.163 E104.39322
G1 X61.704 Y65.720 E104.51341
G1 X61.704 Y71.134 E104.73884
G1 X59.204 Y69.691 E104.85903
G1 X59.204 Y85.489 E105.51682
G1 X30.161 Y85.489 E106.72612
G1 X29.772 Y85.455 E106.74237
G1 X29.437 Y85.364 E106.75683
G1 X29.081 Y85.193 E106.77327
G1 X28.942 Y85.103 E106.78017
G1 X28.663 Y84.859 E106.79560
G1 X28.410 Y84.546 E106.81236
G1 X28.252 Y84.253 E106.82622
G1 X28.127 Y83.867 E106.84311
G1 X28.081 Y83.521 E106.85765
G1 X28.078 Y81.290 E106.95054
G1 X28.078 Y54.364 E108.07168
G0 F10500 X27.453 Y53.739
;TYPE:WALL-OUTER
G1 F900 X42.794 Y53.739 E108.71045
G1 X41.350 Y51.239 E108.83066
G1 X48.931 Y51.239 E109.14632
G1 X47.487 Y53.739 E109.26653
G1 X59.829 Y53.739 E109.78043
G1 X59.829 Y66.080 E110.29428
G1 X62.329 Y64.637 E110.41447
G1 X62.329 Y72.217 E110.73009
G1 X59.829 Y70.774 E110.85028
G1 X59.829 Y86.114 E111.48900
G1 X30.155 Y86.114 E112.72457
G1 X29.895 Y86.102 E112.73541
G1 X29.659 Y86.071 E112.74532
G1 X29.429 Y86.018 E112.75515
G1 X29.199 Y85.944 E112.76521
G1 X28.774 Y85.740 E112.78483
G1 X28.564 Y85.603 E112.79527
G1 X28.213 Y85.297 E112.81466
G1 X27.894 Y84.900 E112.83587
G1 X27.768 Y84.685 E112.84625
G1 X27.672 Y84.488 E112.85537
G1 X27.519 Y84.016 E112.87603
G1 X27.456 Y83.543 E112.89590
G1 X27.453 Y53.739 E114.13688
G0 F10500 X28.507 Y54.582
;TYPE:SKIN
G1 F900 X58.984 Y85.059 E115.93151
G0 F10500 X58.310 Y85.269
G1 F900 X28.296 Y55.256 E117.69886
G0 F10500 X28.296 Y56.140
G1 F900 X57.426 Y85.269 E119.41415
G0 F10500 X56.542 Y85.269
G1 F900 X28.296 Y57.023 E121.07741
G0 F10500 X28.296 Y57.907
G1 F900 X55.658 Y85.269 E122.68862
G0 F10500 X54.774 Y85.269
G1 F900 X28.296 Y58.791 E124.24778
G0 F10500 X28.296 Y59.675
G1 F900 X53.890 Y85.269 E125.75488
G0 F10500 X53.006 Y85.269
G1 F900 X28.296 Y60.559 E127.20993
G0 F10500 X28.296 Y61.443
G1 F900 X52.122 Y85.269 E128.61292
G0 F10500 X51.239 Y85.269
G1 F900 X28.297 Y62.327 E129.96386
G0 F10500 X28.297 Y63.211
G1 F900 X50.355 Y85.269 E131.26274
G0 F10500 X49.471 Y85.269
G1 F900 X28.297 Y64.095 E132.50957
G0 F10500 X28.297 Y64.979
G1 F900 X48.587 Y85.269 E133.70435
G0 F10500 X47.703 Y85.269
G1 F900 X28.297 Y65.863 E134.84707
G0 F10500 X28.297 Y66.747
G1 F900 X46.819 Y85.269 E135.93774
G0 F10500 X45.935 Y85.269
G1 F900 X28.297 Y67.631 E136.97635
G0 F10500 X28.297 Y68.515
G1 F900 X45.051 Y85.269 E137.96291
G0 F10500 X44.168 Y85.269
G1 F900 X28.298 Y69.399 E138.89741
G0 F10500 X28.298 Y70.283
G1 F900 X43.284 Y85.269 E139.77986
G0 F10500 X42.400 Y85.269
G1 F900 X28.298 Y71.167 E140.61026
G0 F10500 X28.298 Y72.051
G1 F900 X41.516 Y85.269 E141.38860
G0 F10500 X40.632 Y85.269
G1 F900 X28.298 Y72.935 E142.11488
G0 F10500 X28.298 Y73.819
G1 F900 X39.748 Y85.269 E142.78912
G0 F10500 X38.864 Y85.269
G1 F900 X28.298 Y74.703 E143.41130
G0 F10500 X28.298 Y75.586
G1 F900 X37.980 Y85.269 E143.98145
G0 F10500 X37.096 Y85.269
G1 F900 X28.299 Y76.471 E144.49949
G0 F10500 X28.299 Y77.355
G1 F900 X36.213 Y85.269 E144.96551
G0 F10500 X35.329 Y85.269
G1 F900 X28.299 Y78.239 E145.37947
G0 F10500 X28.299 Y79.123
G1 F900 X34.445 Y85.269 E145.74137
G0 F10500 X33.561 Y85.269
G1 F900 X28.299 Y80.007 E146.05123
G0 F10500 X28.299 Y80.890
G1 F900 X32.677 Y85.269 E146.30905
G0 F10500 X31.793 Y85.269
G1 F900 X28.299 Y81.774 E146.51483
G0 F10500 X28.299 Y82.658
G1 F900 X30.909 Y85.269 E146.66855
G0 F10500 X30.011 Y85.255
G1 F900 X28.304 Y83.548 E146.76906
G0 F10500 X29.391 Y54.582
G1 F900 X58.984 Y84.176 E148.51168
G0 F10500 X58.984 Y83.292
G1 F900 X30.275 Y54.582 E150.20223
G0 F10500 X31.159 Y54.582
G1 F900 X58.984 Y82.408 E151.84074
G0 F10500 X58.984 Y81.524
G1 F900 X32.043 Y54.582 E153.42719
G0 F10500 X32.927 Y54.582
G1 F900 X58.984 Y80.640 E154.96158
G0 F10500 X58.984 Y79.756
G1 F900 X33.811 Y54.582 E156.44392
G0 F10500 X34.694 Y54.582
G1 F900 X58.984 Y78.872 E157.87424
G0 F10500 X58.984 Y77.988
G1 F900 X35.578 Y54.582 E159.25250
G0 F10500 X36.462 Y54.582
G1 F900 X58.984 Y77.105 E160.57873
G0 F10500 X58.984 Y76.221
G1 F900 X37.346 Y54.582 E161.85292
G0 F10500 X38.230 Y54.582
G1 F900 X58.984 Y75.337 E163.07504
G0 F10500 X58.984 Y74.453
G1 F900 X39.114 Y54.582 E164.24512
G0 F10500 X39.998 Y54.582
G1 F900 X58.984 Y73.569 E165.36314
G0 F10500 X58.984 Y72.685
G1 F900 X40.882 Y54.582 E166.42910
G0 F10500 X41.765 Y54.582
G1 F900 X58.984 Y71.801 E167.44304
G0 F10500 X58.984 Y70.917
G1 F900 X42.649 Y54.582 E168.40493
G0 F10500 X43.533 Y54.582
G1 F900 X58.984 Y70.033 E169.31476
G0 F10500 X59.365 Y69.530
G1 F900 X44.035 Y54.200 E170.21746
G0 F10500 X46.084 Y54.481
G1 F900 X43.684 Y52.081 E170.35879
G0 F10500 X42.826 Y52.108
G1 F900 X61.454 Y70.736 E171.45570
G0 F10500 X61.485 Y69.882
G1 F900 X59.086 Y67.484 E171.59693
G0 F10500 X58.985 Y67.383
G1 F900 X46.185 Y54.582 E172.35069
G0 F10500 X46.408 Y53.921
G1 F900 X44.568 Y52.081 E172.45904
G0 F10500 X45.452 Y52.081
G1 F900 X46.731 Y53.361 E172.53438
G0 F10500 X47.054 Y52.800
G1 F900 X46.777 Y52.081 E172.57668
G1 X47.378 Y52.240 E172.60256
G0 F10500 X46.772 Y54.152
G0 X47.069 Y54.582
G1 F900 X58.985 Y66.499 E173.30427
G0 F10500 X58.985 Y65.615
G1 F900 X47.953 Y54.582 E173.95392
G0 F10500 X48.837 Y54.582
G1 F900 X58.985 Y64.731 E174.55151
G0 F10500 X58.985 Y63.847
G1 F900 X49.720 Y54.582 E175.09708
G0 F10500 X50.604 Y54.582
G1 F900 X58.985 Y62.963 E175.59059
G0 F10500 X58.985 Y62.079
G1 F900 X51.488 Y54.582 E176.03205
G0 F10500 X52.372 Y54.582
G1 F900 X58.985 Y61.195 E176.42146
G0 F10500 X58.984 Y60.311
G1 F900 X53.256 Y54.582 E176.75878
G0 F10500 X54.140 Y54.582
G1 F900 X58.984 Y59.427 E177.04405
G0 F10500 X58.984 Y58.543
G1 F900 X55.024 Y54.582 E177.27726
G0 F10500 X55.908 Y54.582
G1 F900 X58.984 Y57.659 E177.45842
G0 F10500 X58.984 Y56.775
G1 F900 X56.791 Y54.582 E177.58756
G0 F10500 X57.675 Y54.582
G1 F900 X58.984 Y55.891 E177.66464
G0 F10500 X58.984 Y55.007
G1 F900 X58.559 Y54.582 E177.68967
G0 F10500 X59.416 Y66.795
G0 X61.327 Y66.189
G1 F900 X61.126 Y66.430 E177.69897
G1 X61.485 Y67.231 E177.73552
G0 F10500 X61.485 Y68.114
G1 F900 X60.206 Y66.836 E177.81080
G0 F10500 X59.646 Y67.160
G1 F900 X61.485 Y68.998 E177.91906
G1 F600 E176.41906
G1 Z0.525
G0 F10500 X67.716 Y69.664
;TYPE:WALL-INNER
G1 Z0.425
G1 F600 E177.91906
G1 F900 X67.716 Y64.250 E178.14449
G1 X70.216 Y65.692 E178.26466
G1 X70.216 Y52.894 E178.79754
G1 X83.015 Y52.894 E179.33047
G1 X81.572 Y50.394 E179.45066
G1 X86.985 Y50.394 E179.67604
G1 X85.542 Y52.894 E179.79623
G1 X98.341 Y52.894 E180.32916
G1 X98.341 Y65.692 E180.86204
G1 X100.841 Y64.250 E180.98221
G1 X100.841 Y69.664 E181.20764
G1 X98.341 Y68.222 E181.32781
G1 X98.341 Y81.019 E181.86065
G1 X85.542 Y81.019 E182.39357
G1 X86.985 Y83.519 E182.51376
G1 X81.572 Y83.519 E182.73915
G1 X83.015 Y81.019 E182.85934
G1 X70.216 Y81.019 E183.39226
G1 X70.216 Y68.222 E183.92510
G1 X67.716 Y69.664 E184.04527
G0 F10500 X69.385 Y68.947
G0 X69.591 Y69.304
;TYPE:WALL-OUTER
G1 F900 X67.091 Y70.747 E184.16547
G1 X67.091 Y63.167 E184.48108
G1 X69.591 Y64.610 E184.60127
G1 X69.591 Y52.269 E185.11513
G1 X81.932 Y52.269 E185.62898
G1 X80.489 Y49.769 E185.74917
G1 X88.068 Y49.769 E186.06474
G1 X86.625 Y52.269 E186.18493
G1 X98.966 Y52.269 E186.69879
G1 X98.966 Y64.610 E187.21264
G1 X101.466 Y63.167 E187.33283
G1 X101.466 Y70.747 E187.64845
G1 X98.966 Y69.304 E187.76864
G1 X98.966 Y81.644 E188.28245
G1 X86.625 Y81.644 E188.79631
G1 X88.068 Y84.144 E188.91650
G1 X80.489 Y84.144 E189.23207
G1 X81.932 Y81.644 E189.35226
G1 X69.591 Y81.644 E189.86611
G1 X69.591 Y69.304 E190.37993
G0 F10500 X69.070 Y68.628
;TYPE:SKIN
G1 F900 X67.934 Y67.493 E190.44679
G0 F10500 X67.934 Y68.377
G1 F900 X68.510 Y68.952 E190.48068
G0 F10500 X69.630 Y68.305
G1 F900 X67.933 Y66.608 E190.58061
G0 F10500 X67.933 Y65.724
G1 F900 X70.191 Y67.982 E190.71357
G0 F10500 X70.434 Y68.225
G1 F900 X83.008 Y80.799 E191.45399
G0 F10500 X83.252 Y81.043
G1 F900 X85.508 Y83.299 E191.58683
G0 F10500 X84.624 Y83.299
G1 F900 X82.928 Y81.603 E191.68670
G0 F10500 X82.605 Y82.164
G1 F900 X83.740 Y83.299 E191.75354
G0 F10500 X82.856 Y83.299
G1 F900 X82.282 Y82.725 E191.78734
G0 F10500 X82.647 Y81.231
G0 X82.124 Y80.799
G1 F900 X70.434 Y69.109 E192.47570
G0 F10500 X70.434 Y69.992
G1 F900 X81.240 Y80.799 E193.11204
G0 F10500 X80.357 Y80.799
G1 F900 X70.434 Y70.876 E193.69636
G0 F10500 X70.434 Y71.760
G1 F900 X79.473 Y80.799 E194.22862
G0 F10500 X78.589 Y80.799
G1 F900 X70.434 Y72.644 E194.70882
G0 F10500 X70.434 Y73.528
G1 F900 X77.705 Y80.799 E195.13698
G0 F10500 X76.821 Y80.799
G1 F900 X70.434 Y74.412 E195.51308
G0 F10500 X70.434 Y75.296
G1 F900 X75.937 Y80.799 E195.83712
G0 F10500 X75.053 Y80.799
G1 F900 X70.434 Y76.180 E196.10911
G0 F10500 X70.434 Y77.064
G1 F900 X74.169 Y80.799 E196.32904
G0 F10500 X73.285 Y80.799
G1 F900 X70.434 Y77.947 E196.49695
G0 F10500 X70.434 Y78.831
G1 F900 X72.402 Y80.799 E196.61284
G0 F10500 X71.518 Y80.799
G1 F900 X70.434 Y79.715 E196.67667
G0 F10500 X70.434 Y65.573
G1 F900 X85.660 Y80.799 E197.57325
G0 F10500 X86.544 Y80.799
G1 F900 X70.434 Y64.689 E198.52189
G0 F10500 X70.434 Y63.805
G1 F900 X87.428 Y80.799 E199.52258
G0 F10500 X88.311 Y80.799
G1 F900 X70.434 Y62.921 E200.57530
G0 F10500 X70.434 Y62.038
G1 F900 X89.195 Y80.799 E201.68004
G0 F10500 X90.079 Y80.799
G1 F900 X70.434 Y61.154 E202.83683
G0 F10500 X70.434 Y60.270
G1 F900 X90.963 Y80.799 E204.04568
G0 F10500 X91.847 Y80.799
G1 F900 X70.434 Y59.386 E205.30659
G0 F10500 X70.434 Y58.502
G1 F900 X92.731 Y80.799 E206.61954
G0 F10500 X93.615 Y80.799
G1 F900 X70.434 Y57.618 E207.98456
G0 F10500 X70.434 Y56.734
G1 F900 X94.499 Y80.799 E209.40162
G0 F10500 X95.383 Y80.799
G1 F900 X70.434 Y55.850 E210.87074
G0 F10500 X70.434 Y54.966
G1 F900 X96.266 Y80.799 E212.39189
G0 F10500 X97.150 Y80.799
G1 F900 X70.434 Y54.083 E213.96506
G0 F10500 X70.434 Y53.199
G1 F900 X98.034 Y80.799 E215.59028
G0 F10500 X98.120 Y80.002
G1 F900 X71.232 Y53.113 E217.17361
G0 F10500 X72.116 Y53.113
G1 F900 X98.120 Y79.118 E218.70489
G0 F10500 X98.120 Y78.234
G1 F900 X73.000 Y53.113 E220.18411
G0 F10500 X73.884 Y53.113
G1 F900 X98.120 Y77.350 E221.61127
G0 F10500 X98.120 Y76.466
G1 F900 X74.768 Y53.113 E222.98638
G0 F10500 X75.651 Y53.113
G1 F900 X98.120 Y75.582 E224.30947
G0 F10500 X98.120 Y74.698
G1 F900 X76.535 Y53.113 E225.58050
G0 F10500 X77.419 Y53.113
G1 F900 X98.120 Y73.814 E226.79948
G0 F10500 X98.120 Y72.930
G1 F900 X78.303 Y53.113 E227.96640
G0 F10500 X79.187 Y53.113
G1 F900 X98.120 Y72.047 E229.08130
G0 F10500 X98.120 Y71.163
G1 F900 X80.071 Y53.113 E230.14414
G0 F10500 X80.955 Y53.113
G1 F900 X98.120 Y70.279 E231.15493
G0 F10500 X98.120 Y69.395
G1 F900 X81.839 Y53.113 E232.11367
G0 F10500 X82.723 Y53.113
G1 F900 X98.120 Y68.511 E233.02035
G0 F10500 X98.628 Y68.135
G1 F900 X83.101 Y52.608 E233.93465
G0 F10500 X82.874 Y50.613
G1 F900 X85.239 Y52.978 E234.07392
G0 F10500 X85.373 Y53.112
G1 F900 X98.121 Y65.860 E234.82458
G0 F10500 X98.255 Y65.994
G1 F900 X100.621 Y68.360 E234.96390
G0 F10500 X100.621 Y69.244
G1 F900 X81.990 Y50.613 E236.06099
G0 F10500 X83.758 Y50.613
G1 F900 X85.563 Y52.418 E236.16728
G0 F10500 X85.886 Y51.857
G1 F900 X84.642 Y50.613 E236.24053
G0 F10500 X85.525 Y50.613
G1 F900 X86.371 Y51.017 E236.28082
G1 X86.409 Y50.613 E236.29771
G0 F10500 X85.910 Y52.682
G0 X86.257 Y53.112
G1 F900 X98.121 Y64.976 E236.99632
G0 F10500 X98.121 Y64.092
G1 F900 X87.141 Y53.112 E237.64288
G0 F10500 X88.025 Y53.112
G1 F900 X98.121 Y63.208 E238.23738
G0 F10500 X98.121 Y62.325
G1 F900 X88.909 Y53.112 E238.77986
G0 F10500 X89.793 Y53.112
G1 F900 X98.121 Y61.441 E239.27028
G0 F10500 X98.121 Y60.557
G1 F900 X90.677 Y53.112 E239.70865
G0 F10500 X91.561 Y53.112
G1 F900 X98.121 Y59.673 E240.09497
G0 F10500 X98.121 Y58.789
G1 F900 X92.445 Y53.112 E240.42923
G0 F10500 X93.328 Y53.112
G1 F900 X98.121 Y57.905 E240.71146
G0 F10500 X98.121 Y57.021
G1 F900 X94.212 Y53.112 E240.94164
G0 F10500 X95.096 Y53.112
G1 F900 X98.121 Y56.137 E241.11977
G0 F10500 X98.121 Y55.254
G1 F900 X95.980 Y53.112 E241.24587
G0 F10500 X96.864 Y53.112
G1 F900 X98.121 Y54.370 E241.31992
G0 F10500 X98.121 Y53.486
G1 F900 X97.748 Y53.112 E241.34191
G0 F10500 X98.553 Y65.325
G0 X100.497 Y64.700
G1 F900 X100.278 Y64.924 E241.34920
G1 X100.621 Y65.708 E241.38483
G0 F10500 X100.621 Y66.592
G1 F900 X99.376 Y65.347 E241.45814
G0 F10500 X98.816 Y65.671
G1 F900 X100.621 Y67.476 E241.56443
G0 F10500 X98.553 Y68.589
G0 X85.689 Y81.712
G1 F900 X69.522 Y65.545 E242.51642
G0 F10500 X67.933 Y64.840
G1 F900 X86.392 Y83.299 E243.60338
G0 F10500 X82.647 Y81.231
G0 X70.634 Y80.799
G1 F900 X70.434 Y80.599 E243.61516
G1 F600 E242.11516
G1 Z0.525
G0 F10500 X106.854 Y70.645
;TYPE:WALL-INNER
G1 Z0.425
G1 F600 E243.61516
G1 F900 X106.854 Y65.231 E243.84058
G1 X109.354 Y66.674 E243.96078
G1 X109.354 Y53.875 E244.49370
G1 X121.071 Y53.875 E244.98157
G1 X121.612 Y52.938 E245.02662
G1 X120.709 Y51.375 E245.10178
G1 X126.124 Y51.375 E245.32725
G1 X125.221 Y52.938 E245.40241
G1 X125.762 Y53.875 E245.44746
G1 X140.480 Y53.875 E246.06029
G1 X140.480 Y82.913 E247.26937
G1 X140.444 Y83.314 E247.28614
G1 X140.349 Y83.656 E247.30092
G1 X140.274 Y83.832 E247.30888
G1 X140.189 Y83.991 E247.31639
G1 X140.095 Y84.134 E247.32352
G1 X139.851 Y84.414 E247.33898
G1 X139.533 Y84.670 E247.35598
G1 X139.233 Y84.831 E247.37015
G1 X138.858 Y84.950 E247.38654
G1 X138.511 Y84.997 E247.40112
G1 X136.280 Y85.000 E247.49401
G1 X109.354 Y85.000 E248.61515
G1 X109.354 Y69.203 E249.27291
G1 X106.854 Y70.645 E249.39308
G0 F10500 X108.523 Y69.928
G0 X108.729 Y70.285
;TYPE:WALL-OUTER
G1 F900 X106.229 Y71.728 E249.51327
G1 X106.229 Y64.148 E249.82888
G1 X108.729 Y65.592 E249.94910
G1 X108.729 Y53.250 E250.46299
G1 X120.710 Y53.250 E250.96186
G1 X120.890 Y52.938 E250.97685
G1 X119.626 Y50.750 E251.08207
G1 X127.207 Y50.750 E251.39772
G1 X125.943 Y52.938 E251.50294
G1 X126.123 Y53.250 E251.51794
G1 X141.105 Y53.250 E252.14176
G1 X141.105 Y82.922 E253.37724
G1 X141.092 Y83.184 E253.38816
G1 X141.061 Y83.416 E253.39791
G1 X141.007 Y83.650 E253.40791
G1 X140.933 Y83.880 E253.41797
G1 X140.835 Y84.108 E253.42830
G1 X140.725 Y84.314 E253.43802
G1 X140.594 Y84.513 E253.44794
G1 X140.286 Y84.867 E253.46748
G1 X139.894 Y85.182 E253.48842
G1 X139.472 Y85.409 E253.50837
G1 X139.002 Y85.560 E253.52893
G1 X138.534 Y85.622 E253.54858
G1 X108.729 Y85.625 E254.78960
G1 X108.729 Y70.285 E255.42833
G0 F10500 X109.571 Y70.239
;TYPE:SKIN
G1 F900 X124.111 Y84.779 E256.28452
G0 F10500 X123.227 Y84.779
G1 F900 X109.571 Y71.123 E257.08865
G0 F10500 X109.571 Y72.007
G1 F900 X122.343 Y84.779 E257.84073
G0 F10500 X121.459 Y84.779
G1 F900 X109.571 Y72.891 E258.54075
G0 F10500 X109.571 Y73.775
G1 F900 X120.576 Y84.779 E259.18875
G0 F10500 X124.995 Y84.779
G1 F900 X109.571 Y69.355 E260.09699
G0 F10500 X109.234 Y69.018
G1 F900 X107.072 Y66.856 E260.22430
G0 F10500 X107.072 Y67.740
G1 F900 X108.673 Y69.341 E260.31858
G0 F10500 X108.113 Y69.664
G1 F900 X107.072 Y68.624 E260.37985
G0 F10500 X107.072 Y69.507
G1 F900 X107.552 Y69.988 E260.40814
G0 F10500 X108.306 Y66.322
G1 F900 X126.763 Y84.779 E261.49498
G0 F10500 X127.646 Y84.778
G1 F900 X109.572 Y66.704 E262.55927
G0 F10500 X109.572 Y65.821
G1 F900 X128.530 Y84.778 E263.67558
G0 F10500 X129.413 Y84.778
G1 F900 X109.572 Y64.937 E264.84391
G0 F10500 X109.572 Y64.053
G1 F900 X130.297 Y84.778 E266.06431
G0 F10500 X131.181 Y84.778
G1 F900 X109.572 Y63.169 E267.33675
G0 F10500 X109.572 Y62.285
G1 F900 X132.065 Y84.778 E268.66125
G0 F10500 X132.948 Y84.777
G1 F900 X109.572 Y61.401 E270.03774
G0 F10500 X109.572 Y60.517
G1 F900 X133.832 Y84.777 E271.46629
G0 F10500 X134.716 Y84.777
G1 F900 X109.572 Y59.633 E272.94690
G0 F10500 X109.572 Y58.749
G1 F900 X135.600 Y84.777 E274.47955
G0 F10500 X136.484 Y84.777
G1 F900 X109.572 Y57.866 E276.06424
G0 F10500 X109.572 Y56.982
G1 F900 X137.368 Y84.777 E277.70097
G0 F10500 X138.252 Y84.777
G1 F900 X109.572 Y56.098 E279.38976
G0 F10500 X109.572 Y55.214
G1 F900 X139.024 Y84.666 E281.12404
G0 F10500 X139.586 Y84.344
G1 F900 X109.572 Y54.330 E282.89142
G0 F10500 X110.220 Y54.094
G1 F900 X140.002 Y83.876 E284.64513
G0 F10500 X140.232 Y83.222
G1 F900 X111.104 Y54.094 E286.36033
G0 F10500 X111.988 Y54.094
G1 F900 X140.260 Y82.366 E288.02513
G0 F10500 X140.260 Y81.482
G1 F900 X112.871 Y54.094 E289.63790
G0 F10500 X113.755 Y54.094
G1 F900 X140.260 Y80.598 E291.19861
G0 F10500 X140.260 Y79.714
G1 F900 X114.639 Y54.094 E292.70727
G0 F10500 X115.523 Y54.094
G1 F900 X140.260 Y78.831 E294.16391
G0 F10500 X140.260 Y77.947
G1 F900 X116.407 Y54.094 E295.56849
G0 F10500 X117.291 Y54.094
G1 F900 X140.260 Y77.063 E296.92102
G0 F10500 X140.260 Y76.179
G1 F900 X118.175 Y54.094 E298.22150
G0 F10500 X119.059 Y54.094
G1 F900 X140.260 Y75.295 E299.46992
G0 F10500 X140.260 Y74.411
G1 F900 X119.942 Y54.094 E300.66631
G0 F10500 X120.826 Y54.094
G1 F900 X140.260 Y73.527 E301.81065
G0 F10500 X140.260 Y72.643
G1 F900 X121.384 Y53.767 E302.92217
G0 F10500 X121.707 Y53.206
G1 F900 X140.260 Y71.760 E304.01469
G0 F10500 X140.260 Y70.876
G1 F900 X121.237 Y51.853 E305.13486
G0 F10500 X121.862 Y51.594
G1 F900 X140.260 Y69.992 E306.21822
G0 F10500 X140.260 Y69.108
G1 F900 X122.745 Y51.594 E307.24956
G0 F10500 X123.629 Y51.594
G1 F900 X124.970 Y52.934 E307.32850
G0 F10500 X125.294 Y52.374
G1 F900 X124.955 Y51.594 E307.37445
G1 X125.617 Y51.813 E307.40348
G0 F10500 X125.381 Y52.938
G0 X126.130 Y54.094
G1 F900 X140.260 Y68.224 E308.23553
G0 F10500 X140.260 Y67.340
G1 F900 X127.014 Y54.094 E309.01552
G0 F10500 X127.897 Y54.094
G1 F900 X140.260 Y66.456 E309.74348
G0 F10500 X140.260 Y65.572
G1 F900 X128.781 Y54.094 E310.41939
G0 F10500 X129.665 Y54.094
G1 F900 X140.260 Y64.688 E311.04325
G0 F10500 X140.260 Y63.805
G1 F900 X130.549 Y54.094 E311.61508
G0 F10500 X131.433 Y54.094
G1 F900 X140.260 Y62.921 E312.13486
G0 F10500 X140.260 Y62.037
G1 F900 X132.317 Y54.094 E312.60258
G0 F10500 X133.201 Y54.094
G1 F900 X140.260 Y61.153 E313.01825
G0 F10500 X140.260 Y60.269
G1 F900 X134.085 Y54.094 E313.38186
G0 F10500 X134.969 Y54.094
G1 F900 X140.260 Y59.385 E313.69343
G0 F10500 X140.260 Y58.501
G1 F900 X135.852 Y54.094 E313.95296
G0 F10500 X136.736 Y54.094
G1 F900 X140.260 Y57.617 E314.16044
G0 F10500 X140.260 Y56.734
G1 F900 X137.620 Y54.094 E314.31590
G0 F10500 X138.504 Y54.094
G1 F900 X140.260 Y55.850 E314.41930
G0 F10500 X140.260 Y54.966
G1 F900 X139.388 Y54.094 E314.47065
G0 F10500 X125.879 Y84.779
G1 F900 X107.072 Y65.972 E315.57810
G0 F10500 X109.142 Y69.570
G0 X109.571 Y74.659
G1 F900 X119.692 Y84.779 E316.17404
G0 F10500 X118.808 Y84.779
G1 F900 X109.571 Y75.543 E316.71793
G0 F10500 X109.571 Y76.426
G1 F900 X117.924 Y84.779 E317.20980
G0 F10500 X117.041 Y84.779
G1 F900 X109.571 Y77.310 E317.64964
G0 F10500 X109.571 Y78.194
G1 F900 X116.157 Y84.779 E318.03743
G0 F10500 X115.273 Y84.780
G1 F900 X109.571 Y79.078 E318.37319
G0 F10500 X109.571 Y79.962
G1 F900 X114.390 Y84.780 E318.65693
G0 F10500 X113.506 Y84.780
G1 F900 X109.571 Y80.846 E318.88861
G0 F10500 X109.571 Y81.730
G1 F900 X112.622 Y84.780 E319.06824
G0 F10500 X111.738 Y84.780
G1 F900 X109.571 Y82.614 E319.19581
G0 F10500 X109.571 Y83.497
G1 F900 X110.854 Y84.780 E319.27136
G0 F10500 X109.970 Y84.780
G1 F900 X109.571 Y84.381 E319.29486
G1 F600 E317.79486
G1 Z0.525
G0 F10500 X120.816 Y44.854
;TYPE:WALL-INNER
G1 Z0.425
G1 F600 E319.29486
G1 F900 X122.259 Y42.354 E319.41505
G1 X109.461 Y42.354 E319.94793
G1 X109.461 Y29.555 E320.48085
G1 X106.961 Y30.998 E320.60104
G1 X106.961 Y25.584 E320.82647
G1 X109.461 Y27.027 E320.94666
G1 X109.461 Y14.228 E321.47959
G1 X122.259 Y14.228 E322.01247
G1 X120.816 Y11.728 E322.13266
G1 X126.231 Y11.728 E322.35813
G1 X124.788 Y14.228 E322.47832
G1 X140.587 Y14.228 E323.13616
G1 X140.587 Y42.354 E324.30727
G1 X124.788 Y42.354 E324.96510
G1 X126.231 Y44.854 E325.08530
G1 X120.816 Y44.854 E325.31077
G0 F10500 X121.533 Y43.187
G0 X121.177 Y42.979
;TYPE:WALL-OUTER
G1 F900 X108.836 Y42.979 E325.82462
G1 X108.836 Y30.638 E326.33847
G1 X106.336 Y32.081 E326.45866
G1 X106.336 Y24.501 E326.77428
G1 X108.836 Y25.944 E326.89447
G1 X108.836 Y13.603 E327.40832
G1 X121.177 Y13.603 E327.92218
G1 X119.733 Y11.103 E328.04239
G1 X127.314 Y11.103 E328.35805
G1 X125.870 Y13.603 E328.47826
G1 X141.212 Y13.603 E329.11707
G1 X141.212 Y42.979 E330.34022
G1 X125.870 Y42.979 E330.97903
G1 X127.314 Y45.479 E331.09924
G1 X119.733 Y45.479 E331.41490
G1 X121.177 Y42.979 E331.53511
G0 F10500 X121.241 Y42.135
;TYPE:SKIN
G1 F900 X109.679 Y30.572 E332.21597
G0 F10500 X109.679 Y31.456
G1 F900 X120.358 Y42.135 E332.84480
G0 F10500 X122.125 Y42.135
G1 F900 X109.679 Y29.688 E333.57771
G0 F10500 X109.354 Y29.363
G1 F900 X107.179 Y27.188 E333.70579
G0 F10500 X107.179 Y28.072
G1 F900 X108.794 Y29.687 E333.80089
G0 F10500 X108.233 Y30.010
G1 F900 X107.179 Y28.956 E333.86295
G0 F10500 X107.179 Y29.839
G1 F900 X107.672 Y30.333 E333.89201
G0 F10500 X109.249 Y29.923
G0 X109.679 Y32.340
G1 F900 X119.474 Y42.135 E334.46879
G0 F10500 X118.590 Y42.135
G1 F900 X109.679 Y33.224 E334.99351
G0 F10500 X109.679 Y34.108
G1 F900 X117.706 Y42.135 E335.46618
G0 F10500 X116.822 Y42.135
G1 F900 X109.679 Y34.991 E335.88683
G0 F10500 X109.679 Y35.875
G1 F900 X115.938 Y42.135 E336.25542
G0 F10500 X115.054 Y42.135
G1 F900 X109.679 Y36.759 E336.57196
G0 F10500 X109.679 Y37.643
G1 F900 X114.170 Y42.135 E336.83644
G0 F10500 X113.286 Y42.135
G1 F900 X109.679 Y38.527 E337.04886
G0 F10500 X109.679 Y39.411
G1 F900 X112.403 Y42.135 E337.20927
G0 F10500 X111.519 Y42.135
G1 F900 X109.679 Y40.295 E337.31762
G0 F10500 X109.679 Y41.179
G1 F900 X110.635 Y42.135 E337.37391
G0 F10500 X121.892 Y42.566
G0 X121.479 Y44.140
G1 F900 X121.973 Y44.634 E337.40300
G0 F10500 X122.857 Y44.634
G1 F900 X121.802 Y43.579 E337.46512
G0 F10500 X122.126 Y43.019
G1 F900 X123.741 Y44.634 E337.56022
G0 F10500 X124.625 Y44.634
G1 F900 X122.449 Y42.458 E337.68836
G0 F10500 X124.777 Y42.135
G1 F900 X109.679 Y27.036 E338.57743
G0 F10500 X109.679 Y26.153
G1 F900 X125.661 Y42.135 E339.51853
G0 F10500 X126.545 Y42.135
G1 F900 X109.679 Y25.269 E340.51168
G0 F10500 X109.679 Y24.385
G1 F900 X127.429 Y42.135 E341.55689
G0 F10500 X128.313 Y42.135
G1 F900 X109.679 Y23.501 E342.65415
G0 F10500 X109.679 Y22.617
G1 F900 X129.196 Y42.135 E343.80344
G0 F10500 X130.080 Y42.135
G1 F900 X109.679 Y21.733 E345.00478
G0 F10500 X109.679 Y20.849
G1 F900 X130.964 Y42.135 E346.25818
G0 F10500 X131.848 Y42.135
G1 F900 X109.679 Y19.965 E347.56363
G0 F10500 X109.679 Y19.081
G1 F900 X132.732 Y42.135 E348.92113
G0 F10500 X133.616 Y42.135
G1 F900 X109.679 Y18.198 E350.33066
G0 F10500 X109.679 Y17.314
G1 F900 X134.500 Y42.135 E351.79224
G0 F10500 X135.384 Y42.135
G1 F900 X109.679 Y16.430 E353.30588
G0 F10500 X109.679 Y15.546
G1 F900 X136.267 Y42.135 E354.87154
G0 F10500 X137.151 Y42.135
G1 F900 X109.679 Y14.662 E356.48926
G0 F10500 X110.348 Y14.447
G1 F900 X138.035 Y42.135 E358.11964
G0 F10500 X138.919 Y42.135
G1 F900 X111.232 Y14.447 E359.75002
G0 F10500 X112.116 Y14.447
G1 F900 X139.803 Y42.135 E361.38039
G0 F10500 X125.155 Y42.566
G0 X125.509 Y44.634
G1 F900 X107.179 Y26.304 E362.45975
G0 F10500 X108.461 Y26.703
G1 F900 X125.111 Y43.353 E363.44019
G0 F10500 X125.155 Y42.566
G0 X140.367 Y41.815
G1 F900 X112.999 Y14.447 E365.05175
G0 F10500 X113.883 Y14.447
G1 F900 X140.367 Y40.931 E366.61126
G0 F10500 X140.367 Y40.047
G1 F900 X114.767 Y14.447 E368.11872
G0 F10500 X115.651 Y14.447
G1 F900 X140.367 Y39.163 E369.57412
G0 F10500 X140.367 Y38.279
G1 F900 X116.535 Y14.447 E370.97746
G0 F10500 X117.419 Y14.447
G1 F900 X140.367 Y37.396 E372.32878
G0 F10500 X140.367 Y36.512
G1 F900 X118.303 Y14.447 E373.62805
G0 F10500 X119.187 Y14.447
G1 F900 X140.367 Y35.628 E374.87526
G0 F10500 X140.367 Y34.744
G1 F900 X120.070 Y14.447 E376.07045
G0 F10500 X120.954 Y14.447
G1 F900 X140.367 Y33.860 E377.21359
G0 F10500 X140.367 Y32.976
G1 F900 X121.838 Y14.447 E378.30467
G0 F10500 X122.521 Y14.246
G1 F900 X140.367 Y32.092 E379.35553
G0 F10500 X140.367 Y31.208
G1 F900 X121.315 Y12.156 E380.47740
G0 F10500 X121.990 Y11.947
G1 F900 X124.438 Y14.395 E380.62155
G0 F10500 X124.490 Y14.447
G1 F900 X140.367 Y30.324 E381.55647
G0 F10500 X140.367 Y29.441
G1 F900 X125.374 Y14.447 E382.43936
G0 F10500 X124.761 Y13.835
G1 F900 X122.873 Y11.947 E382.55054
G0 F10500 X123.757 Y11.947
G1 F900 X125.085 Y13.275 E382.62873
G0 F10500 X125.408 Y12.714
G1 F900 X125.083 Y11.947 E382.67385
G1 X125.732 Y12.153 E382.70220
G0 F10500 X125.155 Y14.016
G0 X126.258 Y14.447
G1 F900 X140.367 Y28.557 E383.53304
G0 F10500 X140.367 Y27.673
G1 F900 X127.142 Y14.447 E384.31182
G0 F10500 X128.025 Y14.447
G1 F900 X140.367 Y26.789 E385.03858
G0 F10500 X140.367 Y25.905
G1 F900 X128.909 Y14.447 E385.71329
G0 F10500 X129.793 Y14.447
G1 F900 X140.367 Y25.021 E386.33594
G0 F10500 X140.367 Y24.137
G1 F900 X130.677 Y14.447 E386.90653
G0 F10500 X131.561 Y14.447
G1 F900 X140.367 Y23.253 E387.42507
G0 F10500 X140.367 Y22.370
G1 F900 X132.445 Y14.447 E387.89159
G0 F10500 X133.329 Y14.447
G1 F900 X140.367 Y21.486 E388.30605
G0 F10500 X140.367 Y20.602
G1 F900 X134.213 Y14.447 E388.66846
G0 F10500 X135.096 Y14.447
G1 F900 X140.367 Y19.718 E388.97884
G0 F10500 X140.367 Y18.834
G1 F900 X135.980 Y14.447 E389.23717
G0 F10500 X136.864 Y14.447
G1 F900 X140.367 Y17.950 E389.44344
G0 F10500 X140.367 Y17.066
G1 F900 X137.748 Y14.447 E389.59766
G0 F10500 X138.632 Y14.447
G1 F900 X140.367 Y16.182 E389.69983
G0 F10500 X140.367 Y15.298
G1 F900 X139.516 Y14.447 E389.74994
G1 F600 E388.24994
G1 Z0.525
G0 F10500 X101.527 Y27.188
;TYPE:WALL-INNER
G1 Z0.425
G1 F600 E389.74994
G1 F900 X101.527 Y32.602 E389.97537
G1 X99.027 Y31.160 E390.09554
G1 X99.027 Y43.958 E390.62842
G1 X86.228 Y43.958 E391.16134
G1 X87.671 Y46.458 E391.28153
G1 X82.257 Y46.458 E391.50696
G1 X83.700 Y43.958 E391.62715
G1 X70.902 Y43.958 E392.16003
G1 X70.902 Y31.160 E392.69292
G1 X68.402 Y32.602 E392.81309
G1 X68.402 Y27.188 E393.03851
G1 X70.902 Y28.630 E393.15868
G1 X70.902 Y12.832 E393.81648
G1 X99.027 Y12.832 E394.98755
G1 X99.027 Y28.630 E395.64534
G1 X101.527 Y27.188 E395.76551
G0 F10500 X99.858 Y27.905
G0 X99.652 Y27.548
;TYPE:WALL-OUTER
G1 F900 X102.152 Y26.105 E395.88570
G1 X102.152 Y33.685 E396.20132
G1 X99.652 Y32.242 E396.32151
G1 X99.652 Y44.583 E396.83536
G1 X87.311 Y44.583 E397.34922
G1 X88.754 Y47.083 E397.46941
G1 X81.174 Y47.083 E397.78503
G1 X82.617 Y44.583 E397.90522
G1 X70.277 Y44.583 E398.41903
G1 X70.277 Y32.242 E398.93288
G1 X67.777 Y33.685 E399.05307
G1 X67.777 Y26.105 E399.36869
G1 X70.277 Y27.548 E399.48888
G1 X70.277 Y12.207 E400.12765
G1 X99.652 Y12.207 E401.35076
G1 X99.652 Y27.548 E401.98953
G0 F10500 X98.807 Y27.655
;TYPE:SKIN
G1 F900 X84.202 Y13.051 E402.84951
G0 F10500 X83.319 Y13.051
G1 F900 X98.807 Y28.539 E403.76152
G0 F10500 X99.105 Y28.837
G1 F900 X101.307 Y31.039 E403.89119
G0 F10500 X101.307 Y31.923
G1 F900 X82.435 Y13.051 E405.00247
G0 F10500 X81.551 Y13.051
G1 F900 X99.926 Y31.426 E406.08448
G0 F10500 X98.807 Y31.191
G1 F900 X80.667 Y13.051 E407.15265
G0 F10500 X85.086 Y13.051
G1 F900 X98.807 Y26.771 E407.96058
G0 F10500 X98.807 Y25.887
G1 F900 X85.970 Y13.051 E408.71646
G0 F10500 X86.854 Y13.051
G1 F900 X98.807 Y25.004 E409.42031
G0 F10500 X98.807 Y24.120
G1 F900 X87.738 Y13.051 E410.07211
G0 F10500 X88.622 Y13.051
G1 F900 X98.807 Y23.236 E410.67185
G0 F10500 X98.807 Y22.352
G1 F900 X89.506 Y13.051 E411.21954
G0 F10500 X90.390 Y13.051
G1 F900 X98.807 Y21.468 E411.71517
G0 F10500 X98.807 Y20.584
G1 F900 X91.274 Y13.051 E412.15875
G0 F10500 X92.157 Y13.051
G1 F900 X98.807 Y19.700 E412.55031
G0 F10500 X98.807 Y18.816
G1 F900 X93.041 Y13.051 E412.88981
G0 F10500 X93.925 Y13.051
G1 F900 X98.807 Y17.932 E413.17726
G0 F10500 X98.807 Y17.049
G1 F900 X94.809 Y13.051 E413.41268
G0 F10500 X95.693 Y13.051
G1 F900 X98.807 Y16.165 E413.59605
G0 F10500 X98.807 Y15.281
G1 F900 X96.577 Y13.051 E413.72736
G0 F10500 X97.461 Y13.051
G1 F900 X98.807 Y14.397 E413.80662
G0 F10500 X98.807 Y13.513
G1 F900 X98.345 Y13.051 E413.83383
G0 F10500 X99.239 Y28.263
G0 X100.787 Y27.867
G1 F900 X101.307 Y28.387 E413.86445
G0 F10500 X101.307 Y29.271
G1 F900 X100.226 Y28.190 E413.92810
G0 F10500 X99.665 Y28.514
G1 F900 X101.307 Y30.155 E414.02476
G0 F10500 X98.807 Y32.075
G1 F900 X79.783 Y13.051 E415.14499
G0 F10500 X78.899 Y13.051
G1 F900 X98.807 Y32.958 E416.31724
G0 F10500 X98.807 Y33.842
G1 F900 X78.015 Y13.051 E417.54155
G0 F10500 X77.131 Y13.051
G1 F900 X98.807 Y34.726 E418.81791
G0 F10500 X98.807 Y35.610
G1 F900 X76.248 Y13.051 E420.14629
G0 F10500 X75.364 Y13.051
G1 F900 X98.807 Y36.494 E421.52673
G0 F10500 X98.807 Y37.378
G1 F900 X74.480 Y13.051 E422.95923
G0 F10500 X73.596 Y13.051
G1 F900 X98.807 Y38.262 E424.44378
G0 F10500 X98.807 Y39.146
G1 F900 X72.712 Y13.051 E425.98038
G0 F10500 X71.828 Y13.051
G1 F900 X98.807 Y40.030 E427.56904
G0 F10500 X98.807 Y40.913
G1 F900 X71.120 Y13.226 E429.19938
G0 F10500 X71.120 Y14.110
G1 F900 X98.807 Y41.797 E430.82973
G0 F10500 X98.807 Y42.681
G1 F900 X71.120 Y14.994 E432.46008
G0 F10500 X71.120 Y15.878
G1 F900 X98.807 Y43.565 E434.09043
G0 F10500 X98.096 Y43.738
G1 F900 X71.120 Y16.761 E435.67894
G0 F10500 X71.120 Y17.645
G1 F900 X97.213 Y43.738 E437.21542
G0 F10500 X96.329 Y43.738
G1 F900 X71.120 Y18.529 E438.69985
G0 F10500 X71.120 Y19.413
G1 F900 X95.445 Y43.738 E440.13223
G0 F10500 X94.561 Y43.738
G1 F900 X71.120 Y20.297 E441.51255
G0 F10500 X71.120 Y21.181
G1 F900 X93.677 Y43.738 E442.84082
G0 F10500 X92.793 Y43.738
G1 F900 X71.120 Y22.065 E444.11703
G0 F10500 X71.120 Y22.949
G1 F900 X91.909 Y43.738 E445.34119
G0 F10500 X91.025 Y43.738
G1 F900 X71.120 Y23.833 E446.51330
G0 F10500 X71.120 Y24.716
G1 F900 X90.141 Y43.738 E447.63338
G0 F10500 X89.258 Y43.738
G1 F900 X71.120 Y25.600 E448.70143
G0 F10500 X71.120 Y26.484
G1 F900 X88.374 Y43.738 E449.71743
G0 F10500 X87.490 Y43.738
G1 F900 X71.120 Y27.368 E450.68138
G0 F10500 X71.120 Y28.252
G1 F900 X86.606 Y43.738 E451.59327
G0 F10500 X86.020 Y44.036
G1 F900 X70.819 Y28.835 E452.48838
G0 F10500 X71.041 Y30.825
G1 F900 X68.620 Y28.404 E452.63094
G0 F10500 X68.730 Y27.630
G1 F900 X87.225 Y46.125 E453.72002
G0 F10500 X86.455 Y46.239
G1 F900 X84.032 Y43.816 E453.86270
G0 F10500 X83.954 Y43.738
G1 F900 X71.120 Y30.904 E454.61843
G0 F10500 X70.480 Y31.148
G1 F900 X68.620 Y29.288 E454.72795
G0 F10500 X68.620 Y30.172
G1 F900 X69.920 Y31.472 E454.80450
G0 F10500 X69.360 Y31.795
G1 F900 X68.620 Y31.498 E454.84801
G1 X68.799 Y32.118 E454.87488
G0 F10500 X70.690 Y31.527
G0 X71.120 Y31.787
G1 F900 X83.070 Y43.738 E455.57859
G0 F10500 X82.187 Y43.738
G1 F900 X71.120 Y32.671 E456.23027
G0 F10500 X71.120 Y33.555
G1 F900 X81.303 Y43.738 E456.82989
G0 F10500 X80.419 Y43.738
G1 F900 X71.120 Y34.439 E457.37746
G0 F10500 X71.120 Y35.323
G1 F900 X79.535 Y43.738 E457.87298
G0 F10500 X78.651 Y43.738
G1 F900 X71.120 Y36.207 E458.31644
G0 F10500 X71.120 Y37.091
G1 F900 X77.767 Y43.738 E458.70785
G0 F10500 X76.883 Y43.738
G1 F900 X71.120 Y37.975 E459.04720
G0 F10500 X71.120 Y38.859
G1 F900 X75.999 Y43.738 E459.33450
G0 F10500 X75.115 Y43.738
G1 F900 X71.120 Y39.742 E459.56978
G0 F10500 X71.120 Y40.626
G1 F900 X74.232 Y43.738 E459.75303
G0 F10500 X73.348 Y43.738
G1 F900 X71.120 Y41.510 E459.88422
G0 F10500 X71.120 Y42.394
G1 F900 X72.464 Y43.738 E459.96337
G0 F10500 X71.580 Y43.738
G1 F900 X71.120 Y43.278 E459.99045
G0 F10500 X83.332 Y44.170
G0 X82.739 Y46.058
G1 F900 X82.990 Y45.868 E460.00109
G1 X83.803 Y46.239 E460.03830
G0 F10500 X84.687 Y46.239
G1 F900 X83.385 Y44.937 E460.11496
G0 F10500 X83.709 Y44.377
G1 F900 X85.571 Y46.239 E460.22461
;LAYER:1
M106 S191
G1 F600 E458.72461
G1 Z0.525
G0 F10500 X57.837 Y43.114 Z0.805
;TYPE:WALL-INNER
G1 Z0.805
G1 F600 E460.22461
G1 F1140 X46.041 Y43.114 E460.57593
G1 X45.608 Y43.864 E460.60173
G1 X46.619 Y45.614 E460.66192
G1 X40.556 Y45.614 E460.84250
G1 X41.567 Y43.864 E460.90269
G1 X41.134 Y43.114 E460.92848
G1 X26.337 Y43.114 E461.36919
G1 X26.337 Y14.614 E462.21801
G1 X41.134 Y14.614 E462.65872
G1 X41.567 Y13.864 E462.68451
G1 X40.556 Y12.114 E462.74470
G1 X46.619 Y12.114 E462.92528
G1 X45.608 Y13.864 E462.98547
G1 X46.041 Y14.614 E463.01127
G1 X57.837 Y14.614 E463.36259
G1 X57.837 Y27.277 E463.73974
G1 X60.337 Y25.834 E463.82571
G1 X60.337 Y31.895 E464.00623
G1 X57.837 Y30.452 E464.09220
G1 X57.837 Y43.114 E464.46932
G0 F10500 X58.337 Y43.614
;TYPE:WALL-OUTER
G1 F1080 X46.330 Y43.614 E464.82693
G1 X46.185 Y43.864 E464.83553
G1 X47.485 Y46.114 E464.91293
G1 X39.690 Y46.114 E465.14509
G1 X40.990 Y43.864 E465.22248
G1 X40.845 Y43.614 E465.23109
G1 X25.837 Y43.614 E465.67808
G1 X25.837 Y14.114 E466.55669
G1 X40.845 Y14.114 E467.00368
G1 X40.990 Y13.864 E467.01229
G1 X39.690 Y11.614 E467.08968
G1 X47.485 Y11.614 E467.32184
G1 X46.185 Y13.864 E467.39923
G1 X46.330 Y14.114 E467.40784
G1 X58.337 Y14.114 E467.76545
G1 X58.337 Y26.411 E468.13170
G1 X60.837 Y24.968 E468.21767
G1 X60.837 Y32.761 E468.44977
G1 X58.337 Y31.318 E468.53574
G1 X58.337 Y43.614 E468.90196
G0 F10500 X57.661 Y42.394
;TYPE:SKIN
G1 F1380 X57.116 Y42.939 E468.92491
G0 F10500 X56.409 Y42.939
G1 F1380 X57.661 Y41.687 E468.97765
G0 F10500 X57.661 Y40.980
G1 F1380 X55.702 Y42.939 E469.06016
G0 F10500 X54.995 Y42.939
G1 F1380 X57.661 Y40.273 E469.17245
G0 F10500 X57.661 Y39.566
G1 F1380 X54.288 Y42.939 E469.31453
G0 F10500 X53.581 Y42.939
G1 F1380 X57.661 Y38.859 E469.48637
G0 F10500 X57.661 Y38.151
G1 F1380 X52.873 Y42.939 E469.68805
G0 F10500 X52.166 Y42.939
G1 F1380 X57.661 Y37.444 E469.91950
G0 F10500 X57.661 Y36.737
G1 F1380 X51.459 Y42.939 E470.18072
G0 F10500 X50.752 Y42.939
G1 F1380 X57.661 Y36.030 E470.47173
G0 F10500 X57.661 Y35.323
G1 F1380 X50.045 Y42.939 E470.79252
G0 F10500 X49.338 Y42.939
G1 F1380 X57.661 Y34.616 E471.14308
G0 F10500 X57.661 Y33.909
G1 F1380 X48.631 Y42.939 E471.52343
G0 F10500 X47.924 Y42.939
G1 F1380 X57.661 Y33.202 E471.93355
G0 F10500 X57.661 Y32.495
G1 F1380 X47.217 Y42.939 E472.37345
G0 F10500 X46.509 Y42.939
G1 F1380 X57.661 Y31.787 E472.84318
G0 F10500 X57.661 Y31.080
G1 F1380 X43.302 Y45.439 E473.44798
G0 F10500 X44.009 Y45.439
G1 F1380 X45.471 Y43.977 E473.50956
G0 F10500 X45.730 Y44.426
G1 F1380 X44.716 Y45.439 E473.55225
G0 F10500 X45.423 Y45.439
G1 F1380 X46.117 Y45.098 E473.57601
G1 X46.130 Y45.439 E473.58618
G0 F10500 X42.595 Y45.439
G1 F1380 X57.661 Y30.373 E474.22076
G0 F10500 X57.803 Y30.231
G1 F1380 X60.161 Y27.873 E474.32008
G0 F10500 X60.161 Y28.580
G1 F1380 X58.251 Y30.490 E474.40053
G0 F10500 X58.699 Y30.749
G1 F1380 X60.161 Y29.287 E474.46210
G0 F10500 X60.161 Y29.994
G1 F1380 X59.148 Y31.007 E474.50477
G0 F10500 X59.597 Y31.266
G1 F1380 X60.161 Y31.054 E474.52853
G1 X60.045 Y31.524 E474.54295
G0 F10500 X60.161 Y27.166
G1 F1380 X41.888 Y45.439 E475.31261
G0 F10500 X41.181 Y45.439
G1 F1380 X60.161 Y26.459 E476.11205
G0 F10500 X59.251 Y26.662
G1 F1380 X41.384 Y44.529 E476.86461
G0 F10500 X41.613 Y43.593
G1 F1380 X57.661 Y27.545 E477.54055
G0 F10500 X57.661 Y26.838
G1 F1380 X41.354 Y43.144 E478.22738
G0 F10500 X40.853 Y42.938
G1 F1380 X57.661 Y26.131 E478.93531
G0 F10500 X57.661 Y25.424
G1 F1380 X40.146 Y42.938 E479.67303
G0 F10500 X39.439 Y42.938
G1 F1380 X57.661 Y24.716 E480.44054
G0 F10500 X57.661 Y24.009
G1 F1380 X38.732 Y42.938 E481.23783
G0 F10500 X38.025 Y42.938
G1 F1380 X57.661 Y23.302 E482.06490
G0 F10500 X57.661 Y22.595
G1 F1380 X37.318 Y42.938 E482.92175
G0 F10500 X36.611 Y42.938
G1 F1380 X57.661 Y21.888 E483.80837
G0 F10500 X57.661 Y21.181
G1 F1380 X35.904 Y42.938 E484.72478
G0 F10500 X35.196 Y42.938
G1 F1380 X57.661 Y20.474 E485.67099
G0 F10500 X57.661 Y19.767
G1 F1380 X34.489 Y42.938 E486.64697
G0 F10500 X33.782 Y42.938
G1 F1380 X57.661 Y19.060 E487.65274
G0 F10500 X57.661 Y18.352
G1 F1380 X33.075 Y42.938 E488.68830
G0 F10500 X32.368 Y42.938
G1 F1380 X57.661 Y17.645 E489.75364
G0 F10500 X57.661 Y16.938
G1 F1380 X31.661 Y42.938 E490.84876
G0 F10500 X30.954 Y42.938
G1 F1380 X57.661 Y16.231 E491.97366
G0 F10500 X57.661 Y15.524
G1 F1380 X30.247 Y42.938 E493.12834
G0 F10500 X29.540 Y42.938
G1 F1380 X57.661 Y14.817 E494.31280
G0 F10500 X56.982 Y14.788
G1 F1380 X28.832 Y42.938 E495.49848
G0 F10500 X28.125 Y42.938
G1 F1380 X56.275 Y14.788 E496.68416
G0 F10500 X55.568 Y14.788
G1 F1380 X27.418 Y42.938 E497.86984
G0 F10500 X26.711 Y42.938
G1 F1380 X54.861 Y14.788 E499.05552
G0 F10500 X54.154 Y14.788
G1 F1380 X26.512 Y42.430 E500.21980
G0 F10500 X26.512 Y41.723
G1 F1380 X53.447 Y14.788 E501.35431
G0 F10500 X52.740 Y14.788
G1 F1380 X26.512 Y41.016 E502.45903
G0 F10500 X26.512 Y40.309
G1 F1380 X52.033 Y14.788 E503.53398
G0 F10500 X51.326 Y14.788
G1 F1380 X26.512 Y39.602 E504.57915
G0 F10500 X26.512 Y38.895
G1 F1380 X50.618 Y14.788 E505.59451
G0 F10500 X49.911 Y14.788
G1 F1380 X26.512 Y38.188 E506.58010
G0 F10500 X26.512 Y37.480
G1 F1380 X49.204 Y14.788 E507.53589
G0 F10500 X48.497 Y14.788
G1 F1380 X26.512 Y36.773 E508.46190
G0 F10500 X26.512 Y36.066
G1 F1380 X47.790 Y14.788 E509.35813
G0 F10500 X47.083 Y14.788
G1 F1380 X26.512 Y35.359 E510.22458
G0 F10500 X26.512 Y34.652
G1 F1380 X46.376 Y14.788 E511.06125
G0 F10500 X45.839 Y14.618
G1 F1380 X26.512 Y33.945 E511.87531
G0 F10500 X26.512 Y33.238
G1 F1380 X45.580 Y14.169 E512.67848
G0 F10500 X45.714 Y13.328
G1 F1380 X26.512 Y32.531 E513.48729
G0 F10500 X26.512 Y31.824
G1 F1380 X46.047 Y12.288 E514.31012
G0 F10500 X45.340 Y12.288
G1 F1380 X26.512 Y31.116 E515.10316
G0 F10500 X26.512 Y30.409
G1 F1380 X44.633 Y12.288 E515.86642
G0 F10500 X43.926 Y12.288
G1 F1380 X26.512 Y29.702 E516.59989
G0 F10500 X26.512 Y28.995
G1 F1380 X40.718 Y14.789 E517.19825
G0 F10500 X40.011 Y14.789
G1 F1380 X26.512 Y28.288 E517.76683
G0 F10500 X26.512 Y27.581
G1 F1380 X39.304 Y14.789 E518.30563
G0 F10500 X38.597 Y14.789
G1 F1380 X26.512 Y26.874 E518.81465
G0 F10500 X26.512 Y26.167
G1 F1380 X37.890 Y14.789 E519.29389
G0 F10500 X37.183 Y14.789
G1 F1380 X26.512 Y25.460 E519.74336
G0 F10500 X26.512 Y24.752
G1 F1380 X36.476 Y14.789 E520.16302
G0 F10500 X35.768 Y14.789
G1 F1380 X26.512 Y24.045 E520.55288
G0 F10500 X26.512 Y23.338
G1 F1380 X35.061 Y14.789 E520.91297
G0 F10500 X34.354 Y14.789
G1 F1380 X26.512 Y22.631 E521.24327
G0 F10500 X26.512 Y21.924
G1 F1380 X33.647 Y14.789 E521.54380
G0 F10500 X32.940 Y14.789
G1 F1380 X26.512 Y21.217 E521.81455
G0 F10500 X26.512 Y20.510
G1 F1380 X32.233 Y14.789 E522.05552
G0 F10500 X31.526 Y14.789
G1 F1380 X26.512 Y19.803 E522.26671
G0 F10500 X26.512 Y19.096
G1 F1380 X30.819 Y14.789 E522.44812
G0 F10500 X30.112 Y14.789
G1 F1380 X26.512 Y18.389 E522.59975
G0 F10500 X26.512 Y17.681
G1 F1380 X29.405 Y14.789 E522.72158
G0 F10500 X28.697 Y14.789
G1 F1380 X26.512 Y16.974 E522.81361
G0 F10500 X26.512 Y16.267
G1 F1380 X27.990 Y14.789 E522.87587
G0 F10500 X27.283 Y14.789
G1 F1380 X26.512 Y15.560 E522.90834
G0 F10500 X41.090 Y14.537
G0 X41.478 Y13.864
G0 X40.945 Y12.440
G1 F1380 X41.151 Y12.588 E522.91472
G1 X41.804 Y12.288 E522.93612
G0 F10500 X42.511 Y12.288
G1 F1380 X41.464 Y13.336 E522.98024
G0 F10500 X41.722 Y13.785
G1 F1380 X43.219 Y12.288 E523.04330
G1 F600 E521.54330
G1 Z0.905
G0 F10500 X42.109 Y51.677
;TYPE:WALL-INNER
G1 Z0.805
G1 F600 E523.04330
G1 F1140 X48.172 Y51.677 E523.22387
G1 X47.161 Y53.427 E523.28407
G1 X47.594 Y54.177 E523.30986
G1 X59.391 Y54.177 E523.66121
G1 X59.391 Y66.839 E524.03833
G1 X61.891 Y65.396 E524.12430
G1 X61.891 Y71.458 E524.30485
G1 X59.391 Y70.015 E524.39082
G1 X59.391 Y85.676 E524.85726
G1 X30.174 Y85.676 E525.72744
G1 X29.739 Y85.637 E525.74045
G1 X29.349 Y85.530 E525.75249
G1 X28.992 Y85.357 E525.76431
G1 X28.653 Y85.111 E525.77678
G1 X28.489 Y84.950 E525.78363
G1 X28.371 Y84.810 E525.78908
G1 X28.078 Y84.320 E525.80608
G1 X27.946 Y83.914 E525.81880
G1 X27.894 Y83.527 E525.83043
G1 X27.891 Y54.177 E526.70457
G1 X42.687 Y54.177 E527.14525
G1 X43.120 Y53.427 E527.17104
G1 X42.109 Y51.677 E527.23123
G0 F10500 X42.845 Y53.253
G0 X42.543 Y53.427
;TYPE:WALL-OUTER
G1 F1080 X41.243 Y51.177 E527.30863
G1 X49.038 Y51.177 E527.54079
G1 X47.738 Y53.427 E527.61818
G1 X47.883 Y53.677 E527.62679
G1 X59.891 Y53.677 E527.98443
G1 X59.891 Y65.973 E528.35064
G1 X62.391 Y64.530 E528.43662
G1 X62.391 Y72.324 E528.66875
G1 X59.891 Y70.881 E528.75472
G1 X59.891 Y86.176 E529.21026
G1 X30.152 Y86.176 E530.09598
G1 X29.649 Y86.131 E530.11103
G1 X29.175 Y86.000 E530.12567
G1 X28.730 Y85.785 E530.14039
G1 X28.328 Y85.493 E530.15519
G1 X27.969 Y85.109 E530.17085
G1 X27.699 Y84.684 E530.18584
G1 X27.614 Y84.509 E530.19164
G1 X27.459 Y84.031 E530.20660
G1 X27.394 Y83.549 E530.22109
G1 X27.391 Y53.677 E531.11078
G1 X42.398 Y53.677 E531.55774
G1 X42.543 Y53.427 E531.56634
G0 F10500 X43.238 Y53.281
;TYPE:SKIN
G1 F1380 X44.669 Y51.850 E531.62662
G0 F10500 X45.376 Y51.850
G1 F1380 X28.067 Y69.159 E532.35567
G0 F10500 X28.067 Y69.866
G1 F1380 X46.083 Y51.850 E533.11451
G0 F10500 X46.790 Y51.850
G1 F1380 X28.067 Y70.573 E533.90312
G0 F10500 X28.067 Y71.280
G1 F1380 X47.497 Y51.850 E534.72152
G0 F10500 X47.411 Y52.644
G1 F1380 X28.068 Y71.987 E535.53624
G0 F10500 X28.068 Y72.694
G1 F1380 X47.096 Y53.666 E536.33771
G0 F10500 X47.354 Y54.114
G1 F1380 X28.068 Y73.401 E537.15005
G0 F10500 X28.068 Y74.108
G1 F1380 X47.825 Y54.351 E537.98222
G0 F10500 X48.532 Y54.351
G1 F1380 X28.068 Y74.815 E538.84416
G0 F10500 X28.068 Y75.522
G1 F1380 X49.239 Y54.351 E539.73589
G0 F10500 X49.946 Y54.351
G1 F1380 X28.068 Y76.229 E540.65739
G0 F10500 X28.068 Y76.936
G1 F1380 X50.653 Y54.351 E541.60867
G0 F10500 X51.360 Y54.351
G1 F1380 X28.068 Y77.643 E542.58973
G0 F10500 X28.069 Y78.350
G1 F1380 X52.067 Y54.351 E543.60055
G0 F10500 X52.774 Y54.351
G1 F1380 X28.069 Y79.057 E544.64115
G0 F10500 X28.069 Y79.764
G1 F1380 X53.482 Y54.351 E545.71155
G0 F10500 X54.189 Y54.351
G1 F1380 X28.069 Y80.471 E546.81172
G0 F10500 X28.069 Y81.178
G1 F1380 X54.896 Y54.351 E547.94168
G0 F10500 X55.603 Y54.351
G1 F1380 X28.069 Y81.885 E549.10141
G0 F10500 X28.069 Y82.592
G1 F1380 X56.310 Y54.351 E550.29092
G0 F10500 X57.017 Y54.351
G1 F1380 X28.069 Y83.300 E551.51024
G0 F10500 X28.138 Y83.937
G1 F1380 X57.724 Y54.351 E552.75640
G0 F10500 X58.431 Y54.351
G1 F1380 X28.350 Y84.433 E554.02343
G0 F10500 X28.638 Y84.852
G1 F1380 X59.138 Y54.351 E555.30812
G0 F10500 X59.215 Y54.982
G1 F1380 X29.029 Y85.168 E556.57955
G0 F10500 X29.512 Y85.392
G1 F1380 X59.215 Y55.689 E557.83065
G0 F10500 X59.215 Y56.396
G1 F1380 X30.117 Y85.494 E559.05626
G0 F10500 X30.818 Y85.500
G1 F1380 X59.215 Y57.103 E560.25234
G0 F10500 X59.215 Y57.810
G1 F1380 X31.525 Y85.500 E561.41864
G0 F10500 X32.232 Y85.500
G1 F1380 X59.215 Y58.518 E562.55515
G0 F10500 X59.215 Y59.225
G1 F1380 X32.939 Y85.500 E563.66187
G0 F10500 X33.646 Y85.500
G1 F1380 X59.215 Y59.932 E564.73882
G0 F10500 X47.638 Y54.100
G0 X43.962 Y51.850
G1 F1380 X42.980 Y52.832 E564.78018
G0 F10500 X42.720 Y52.385
G1 F1380 X42.901 Y51.850 E564.80272
G1 X42.461 Y51.936 E564.81608
G0 F10500 X43.031 Y53.427
G0 X42.643 Y54.100
G0 X42.169 Y54.351
G1 F1380 X28.067 Y68.452 E565.41003
G0 F10500 X28.067 Y67.745
G1 F1380 X41.461 Y54.351 E565.97419
G0 F10500 X40.754 Y54.351
G1 F1380 X28.067 Y67.037 E566.50854
G0 F10500 X28.067 Y66.330
G1 F1380 X40.047 Y54.351 E567.01312
G0 F10500 X39.340 Y54.351
G1 F1380 X28.067 Y65.624 E567.48794
G0 F10500 X28.067 Y64.917
G1 F1380 X38.633 Y54.351 E567.93298
G0 F10500 X37.926 Y54.351
G1 F1380 X28.067 Y64.210 E568.34824
G0 F10500 X28.067 Y63.503
G1 F1380 X37.219 Y54.351 E568.73373
G0 F10500 X36.512 Y54.351
G1 F1380 X28.067 Y62.796 E569.08943
G0 F10500 X28.067 Y62.088
G1 F1380 X35.805 Y54.351 E569.41533
G0 F10500 X35.097 Y54.351
G1 F1380 X28.067 Y61.381 E569.71144
G0 F10500 X28.067 Y60.674
G1 F1380 X34.390 Y54.351 E569.97776
G0 F10500 X33.683 Y54.351
G1 F1380 X28.066 Y59.968 E570.21435
G0 F10500 X28.066 Y59.261
G1 F1380 X32.976 Y54.351 E570.42116
G0 F10500 X32.269 Y54.351
G1 F1380 X28.066 Y58.554 E570.59819
G0 F10500 X28.066 Y57.846
G1 F1380 X31.562 Y54.351 E570.74542
G0 F10500 X30.855 Y54.351
G1 F1380 X28.066 Y57.139 E570.86287
G0 F10500 X28.066 Y56.432
G1 F1380 X30.148 Y54.351 E570.95055
G0 F10500 X29.441 Y54.351
G1 F1380 X28.066 Y55.725 E571.00844
G0 F10500 X28.066 Y55.018
G1 F1380 X28.733 Y54.351 E571.03653
G0 F10500 X59.215 Y60.639
G1 F1380 X34.354 Y85.500 E572.08368
G0 F10500 X35.061 Y85.500
G1 F1380 X59.215 Y61.346 E573.10105
G0 F10500 X59.215 Y62.053
G1 F1380 X35.768 Y85.500 E574.08864
G0 F10500 X36.475 Y85.500
G1 F1380 X59.215 Y62.760 E575.04645
G0 F10500 X59.215 Y63.467
G1 F1380 X37.182 Y85.500 E575.97448
G0 F10500 X37.889 Y85.500
G1 F1380 X59.215 Y64.174 E576.87273
G0 F10500 X59.215 Y64.881
G1 F1380 X38.596 Y85.500 E577.74121
G0 F10500 X39.303 Y85.500
G1 F1380 X59.215 Y65.589 E578.57988
G0 F10500 X59.215 Y66.296
G1 F1380 X40.010 Y85.500 E579.38877
G0 F10500 X40.718 Y85.500
G1 F1380 X59.215 Y67.003 E580.16787
G0 F10500 X61.715 Y67.331
G1 F1380 X59.291 Y69.755 E580.26997
G0 F10500 X59.215 Y69.831
G1 F1380 X43.546 Y85.500 E580.92995
G0 F10500 X44.253 Y85.500
G1 F1380 X59.215 Y70.538 E581.56015
G0 F10500 X59.215 Y71.245
G1 F1380 X44.960 Y85.500 E582.16057
G0 F10500 X45.667 Y85.500
G1 F1380 X59.215 Y71.952 E582.73121
G0 F10500 X59.215 Y72.659
G1 F1380 X46.374 Y85.500 E583.27208
G0 F10500 X47.081 Y85.500
G1 F1380 X59.215 Y73.366 E583.78316
G0 F10500 X59.215 Y74.073
G1 F1380 X47.789 Y85.500 E584.26445
G0 F10500 X48.496 Y85.500
G1 F1380 X59.215 Y74.780 E584.71595
G0 F10500 X59.215 Y75.487
G1 F1380 X49.203 Y85.500 E585.13768
G0 F10500 X49.910 Y85.500
G1 F1380 X59.215 Y76.194 E585.52963
G0 F10500 X59.215 Y76.902
G1 F1380 X50.617 Y85.500 E585.89177
G0 F10500 X51.324 Y85.500
G1 F1380 X59.215 Y77.609 E586.22414
G0 F10500 X59.215 Y78.316
G1 F1380 X52.031 Y85.500 E586.52673
G0 F10500 X52.738 Y85.500
G1 F1380 X59.215 Y79.023 E586.79955
G0 F10500 X59.215 Y79.730
G1 F1380 X53.445 Y85.500 E587.04258
G0 F10500 X54.153 Y85.500
G1 F1380 X59.215 Y80.437 E587.25581
G0 F10500 X59.215 Y81.144
G1 F1380 X54.860 Y85.500 E587.43927
G0 F10500 X55.567 Y85.500
G1 F1380 X59.215 Y81.851 E587.59294
G0 F10500 X59.215 Y82.558
G1 F1380 X56.274 Y85.500 E587.71684
G0 F10500 X56.981 Y85.500
G1 F1380 X59.215 Y83.266 E587.81093
G0 F10500 X59.215 Y83.973
G1 F1380 X57.688 Y85.500 E587.87525
G0 F10500 X58.395 Y85.500
G1 F1380 X59.215 Y84.680 E587.90979
G0 F10500 X59.215 Y85.387
G1 F1380 X59.102 Y85.500 E587.91455
G0 F10500 X42.839 Y85.500
G1 F1380 X61.715 Y66.624 E588.70961
G0 F10500 X61.715 Y65.917
G1 F1380 X42.132 Y85.500 E589.53444
G0 F10500 X41.425 Y85.500
G1 F1380 X60.560 Y66.365 E590.34041
G0 F10500 X61.715 Y68.038
G1 F1380 X59.739 Y70.014 E590.42364
G0 F10500 X60.188 Y70.272
G1 F1380 X61.715 Y68.745 E590.48796
G0 F10500 X61.715 Y69.452
G1 F1380 X60.636 Y70.531 E590.53341
G0 F10500 X61.084 Y70.790
G1 F1380 X61.715 Y70.512 E590.55998
G1 X61.533 Y71.049 E590.57687
G1 F600 E589.07687
G1 Z0.905
G0 F10500 X67.529 Y69.988
;TYPE:WALL-INNER
G1 Z0.805
G1 F600 E590.57687
G1 F1140 X67.529 Y63.926 E590.75741
G1 X70.029 Y65.369 E590.84339
G1 X70.029 Y52.707 E591.22050
G1 X82.691 Y52.707 E591.59762
G1 X81.248 Y50.207 E591.68359
G1 X87.309 Y50.207 E591.86411
G1 X85.866 Y52.707 E591.95008
G1 X98.528 Y52.707 E592.32720
G1 X98.528 Y65.369 E592.70431
G1 X101.028 Y63.926 E592.79029
G1 X101.028 Y69.988 E592.97083
G1 X98.528 Y68.545 E593.05680
G1 X98.528 Y81.206 E593.43389
G1 X85.866 Y81.206 E593.81101
G1 X87.309 Y83.706 E593.89698
G1 X81.248 Y83.706 E594.07750
G1 X82.691 Y81.206 E594.16347
G1 X70.029 Y81.206 E594.54059
G1 X70.029 Y68.545 E594.91767
G1 X67.529 Y69.988 E595.00365
G0 F10500 X69.879 Y68.805
G0 X69.879 Y69.411
G0 X69.529 Y69.411
;TYPE:WALL-OUTER
G1 F1080 X67.029 Y70.854 E595.08962
G1 X67.029 Y63.060 E595.32175
G1 X69.529 Y64.503 E595.40772
G1 X69.529 Y52.207 E595.77394
G1 X81.825 Y52.207 E596.14015
G1 X80.382 Y49.707 E596.22613
G1 X88.175 Y49.707 E596.45823
G1 X86.732 Y52.207 E596.54420
G1 X99.028 Y52.207 E596.91042
G1 X99.028 Y64.503 E597.27663
G1 X101.528 Y63.060 E597.36260
G1 X101.528 Y70.854 E597.59473
G1 X99.028 Y69.411 E597.68071
G1 X99.028 Y81.706 E598.04689
G1 X86.732 Y81.706 E598.41311
G1 X88.175 Y84.206 E598.49908
G1 X80.382 Y84.206 E598.73118
G1 X81.825 Y81.706 E598.81715
G1 X69.529 Y81.706 E599.18337
G1 X69.529 Y69.411 E599.54956
G0 F10500 X70.204 Y69.449
;TYPE:SKIN
G1 F1380 X86.771 Y52.882 E600.24736
G0 F10500 X87.478 Y52.882
G1 F1380 X70.204 Y70.156 E600.97494
G0 F10500 X70.204 Y70.863
G1 F1380 X88.185 Y52.882 E601.73230
G0 F10500 X88.892 Y52.882
G1 F1380 X70.204 Y71.570 E602.51944
G0 F10500 X70.204 Y72.277
G1 F1380 X89.599 Y52.882 E603.33636
G0 F10500 X90.306 Y52.882
G1 F1380 X70.204 Y72.984 E604.18306
G0 F10500 X70.204 Y73.691
G1 F1380 X91.013 Y52.882 E605.05954
G0 F10500 X91.720 Y52.882
G1 F1380 X70.204 Y74.398 E605.96579
G0 F10500 X70.204 Y75.106
G1 F1380 X92.428 Y52.882 E606.90187
G0 F10500 X93.135 Y52.882
G1 F1380 X70.204 Y75.813 E607.86772
G0 F10500 X70.204 Y76.520
G1 F1380 X93.842 Y52.882 E608.86336
G0 F10500 X94.549 Y52.882
G1 F1380 X70.204 Y77.227 E609.88877
G0 F10500 X70.204 Y77.934
G1 F1380 X95.256 Y52.882 E610.94396
G0 F10500 X95.963 Y52.882
G1 F1380 X70.204 Y78.641 E612.02893
G0 F10500 X70.204 Y79.348
G1 F1380 X96.670 Y52.882 E613.14368
G0 F10500 X97.377 Y52.882
G1 F1380 X70.204 Y80.055 E614.28821
G0 F10500 X70.204 Y80.762
G1 F1380 X98.084 Y52.882 E615.46252
G0 F10500 X98.352 Y53.322
G1 F1380 X70.643 Y81.030 E616.62960
G0 F10500 X71.350 Y81.030
G1 F1380 X98.352 Y54.029 E617.76691
G0 F10500 X98.352 Y54.736
G1 F1380 X72.057 Y81.030 E618.87443
G0 F10500 X72.764 Y81.030
G1 F1380 X98.352 Y55.443 E619.95218
G0 F10500 X98.352 Y56.150
G1 F1380 X73.471 Y81.030 E621.00015
G0 F10500 X74.179 Y81.030
G1 F1380 X98.352 Y56.857 E622.01832
G0 F10500 X98.352 Y57.564
G1 F1380 X74.886 Y81.030 E623.00670
G0 F10500 X75.593 Y81.030
G1 F1380 X98.352 Y58.271 E623.96532
G0 F10500 X98.352 Y58.979
G1 F1380 X76.300 Y81.030 E624.89413
G0 F10500 X77.007 Y81.030
G1 F1380 X98.352 Y59.686 E625.79316
G0 F10500 X86.064 Y52.882
G1 F1380 X70.204 Y68.742 E626.46118
G0 F10500 X69.715 Y68.523
G1 F1380 X85.841 Y52.398 E627.14039
G0 F10500 X86.805 Y50.726
G1 F1380 X68.044 Y69.487 E627.93060
G0 F10500 X67.704 Y69.121
G1 F1380 X86.443 Y50.381 E628.71991
G0 F10500 X85.736 Y50.381
G1 F1380 X67.704 Y68.413 E629.47942
G0 F10500 X67.704 Y67.706
G1 F1380 X69.909 Y65.501 E629.57230
G0 F10500 X70.202 Y65.207
G1 F1380 X82.529 Y52.881 E630.09149
G0 F10500 X82.823 Y52.587
G1 F1380 X85.029 Y50.381 E630.18441
G0 F10500 X84.322 Y50.381
G1 F1380 X82.564 Y52.139 E630.25845
G0 F10500 X82.305 Y51.690
G1 F1380 X83.615 Y50.381 E630.31361
G0 F10500 X82.908 Y50.381
G1 F1380 X82.047 Y51.242 E630.34987
G0 F10500 X81.788 Y50.794
G1 F1380 X82.201 Y50.381 E630.36727
G0 F10500 X82.431 Y52.557
G0 X81.822 Y52.881
G1 F1380 X70.202 Y64.500 E630.85668
G0 F10500 X70.202 Y63.793
G1 F1380 X81.115 Y52.881 E631.31632
G0 F10500 X80.407 Y52.881
G1 F1380 X70.202 Y63.086 E631.74615
G0 F10500 X70.202 Y62.379
G1 F1380 X79.700 Y52.881 E632.14621
G0 F10500 X78.993 Y52.881
G1 F1380 X70.202 Y61.672 E632.51649
G0 F10500 X70.202 Y60.965
G1 F1380 X78.286 Y52.881 E632.85699
G0 F10500 X77.579 Y52.881
G1 F1380 X70.202 Y60.258 E633.16771
G0 F10500 X69.879 Y65.109
G0 X68.116 Y64.466
G1 F1380 X67.704 Y64.878 E633.18506
G0 F10500 X67.704 Y65.585
G1 F1380 X68.564 Y64.725 E633.22128
G0 F10500 X69.012 Y64.983
G1 F1380 X67.704 Y66.292 E633.27640
G0 F10500 X67.704 Y66.999
G1 F1380 X69.461 Y65.242 E633.35040
G0 F10500 X69.879 Y65.109
G0 X70.202 Y59.551
G1 F1380 X76.872 Y52.881 E633.63134
G0 F10500 X76.165 Y52.881
G1 F1380 X70.202 Y58.844 E633.88250
G0 F10500 X70.202 Y58.136
G1 F1380 X75.458 Y52.881 E634.10387
G0 F10500 X74.751 Y52.881
G1 F1380 X70.202 Y57.429 E634.29545
G0 F10500 X70.202 Y56.722
G1 F1380 X74.043 Y52.881 E634.45723
G0 F10500 X73.336 Y52.881
G1 F1380 X70.202 Y56.015 E634.58924
G0 F10500 X70.202 Y55.308
G1 F1380 X72.629 Y52.881 E634.69146
G0 F10500 X71.922 Y52.881
G1 F1380 X70.202 Y54.601 E634.76391
G0 F10500 X70.202 Y53.894
G1 F1380 X71.215 Y52.881 E634.80658
G0 F10500 X70.508 Y52.881
G1 F1380 X70.202 Y53.187 E634.81947
G0 F10500 X77.714 Y81.030
G1 F1380 X98.352 Y60.393 E635.68872
G0 F10500 X98.352 Y61.100
G1 F1380 X78.421 Y81.030 E636.52819
G0 F10500 X79.128 Y81.030
G1 F1380 X98.352 Y61.807 E637.33789
G0 F10500 X98.352 Y62.514
G1 F1380 X79.835 Y81.030 E638.11780
G0 F10500 X80.542 Y81.030
G1 F1380 X98.352 Y63.221 E638.86794
G0 F10500 X98.352 Y63.928
G1 F1380 X81.250 Y81.030 E639.58828
G0 F10500 X81.957 Y81.030
G1 F1380 X98.352 Y64.635 E640.27884
G0 F10500 X98.352 Y65.343
G1 F1380 X82.664 Y81.030 E640.93959
G0 F10500 X82.478 Y81.923
G1 F1380 X99.245 Y65.156 E641.64582
G0 F10500 X100.852 Y66.378
G1 F1380 X98.755 Y68.475 E641.73415
G0 F10500 X99.203 Y68.734
G1 F1380 X100.852 Y67.085 E641.80360
G0 F10500 X100.852 Y67.792
G1 F1380 X99.652 Y68.992 E641.85415
G0 F10500 X98.352 Y68.878
G1 F1380 X86.199 Y81.030 E642.36601
G0 F10500 X85.795 Y81.435
G1 F1380 X83.700 Y83.530 E642.45425
G0 F10500 X84.407 Y83.530
G1 F1380 X86.054 Y81.883 E642.52362
G0 F10500 X86.312 Y82.331
G1 F1380 X85.114 Y83.530 E642.57411
G0 F10500 X85.821 Y83.530
G1 F1380 X86.571 Y82.780 E642.60570
G0 F10500 X86.830 Y83.228
G1 F1380 X86.528 Y83.530 E642.61842
G0 F10500 X86.126 Y81.356
G0 X86.906 Y81.030
G1 F1380 X98.352 Y69.585 E643.10050
G0 F10500 X98.352 Y70.292
G1 F1380 X87.614 Y81.030 E643.55279
G0 F10500 X88.321 Y81.030
G1 F1380 X98.352 Y70.999 E643.97529
G0 F10500 X98.352 Y71.706
G1 F1380 X89.028 Y81.030 E644.36802
G0 F10500 X89.735 Y81.030
G1 F1380 X98.352 Y72.414 E644.73095
G0 F10500 X98.352 Y73.121
G1 F1380 X90.442 Y81.030 E645.06410
G0 F10500 X91.149 Y81.030
G1 F1380 X98.352 Y73.828 E645.36747
G0 F10500 X98.352 Y74.535
G1 F1380 X91.856 Y81.030 E645.64106
G0 F10500 X92.563 Y81.030
G1 F1380 X98.352 Y75.242 E645.88487
G0 F10500 X98.352 Y75.949
G1 F1380 X93.270 Y81.030 E646.09890
G0 F10500 X93.978 Y81.030
G1 F1380 X98.352 Y76.656 E646.28314
G0 F10500 X98.352 Y77.363
G1 F1380 X94.685 Y81.030 E646.43759
G0 F10500 X95.392 Y81.030
G1 F1380 X98.352 Y78.070 E646.56226
G0 F10500 X98.352 Y78.778
G1 F1380 X96.099 Y81.030 E646.65714
G0 F10500 X96.806 Y81.030
G1 F1380 X98.352 Y79.485 E646.72224
G0 F10500 X98.352 Y80.192
G1 F1380 X97.513 Y81.030 E646.75755
G0 F10500 X98.220 Y81.030
G1 F1380 X98.352 Y80.899 E646.76309
G0 F10500 X98.678 Y68.805
G0 X100.852 Y65.671
G1 F1380 X82.993 Y83.530 E647.51532
G0 F10500 X82.286 Y83.530
G1 F1380 X100.852 Y64.964 E648.29732
G0 F10500 X100.852 Y64.256
G1 F1380 X81.578 Y83.530 E649.10914
G0 F10500 X98.678 Y68.805
G0 X100.100 Y69.251
G1 F1380 X100.852 Y68.499 E649.14081
G0 F10500 X100.852 Y69.206
G1 F1380 X100.549 Y69.510 E649.15360
G1 F600 E647.65360
G1 Z0.905
G0 F10500 X106.667 Y70.969
;TYPE:WALL-INNER
G1 Z0.805
G1 F600 E649.15360
G1 F1140 X106.667 Y64.907 E649.33414
G1 X108.417 Y65.918 E649.39434
G1 X109.167 Y65.485 E649.42013
G1 X109.167 Y53.688 E649.77148
G1 X121.829 Y53.688 E650.14860
G1 X120.386 Y51.188 E650.23457
G1 X126.447 Y51.188 E650.41509
G1 X125.004 Y53.688 E650.50106
G1 X140.667 Y53.688 E650.96756
G1 X140.667 Y82.902 E651.83765
G1 X140.627 Y83.338 E651.85069
G1 X140.519 Y83.731 E651.86283
G1 X140.354 Y84.078 E651.87427
G1 X140.102 Y84.425 E651.88705
G1 X139.954 Y84.575 E651.89332
G1 X139.616 Y84.835 E651.90602
G1 X139.290 Y85.009 E651.91703
G1 X139.091 Y85.080 E651.92332
G1 X138.702 Y85.167 E651.93519
G1 X109.167 Y85.187 E652.81485
G1 X109.167 Y69.526 E653.28128
G1 X106.667 Y70.969 E653.36725
G0 F10500 X109.017 Y69.786
G0 X109.017 Y70.392
G0 X108.667 Y70.392
;TYPE:WALL-OUTER
G1 F1080 X106.167 Y71.835 E653.45323
G1 X106.167 Y64.041 E653.68536
G1 X108.417 Y65.341 E653.76275
G1 X108.667 Y65.196 E653.77136
G1 X108.667 Y53.188 E654.12900
G1 X120.963 Y53.188 E654.49521
G1 X119.520 Y50.688 E654.58119
G1 X127.313 Y50.688 E654.81329
G1 X125.870 Y53.188 E654.89926
G1 X141.167 Y53.188 E655.35486
G1 X141.167 Y82.925 E656.24052
G1 X141.121 Y83.428 E656.25557
G1 X140.990 Y83.904 E656.27027
G1 X140.777 Y84.347 E656.28491
G1 X140.484 Y84.750 E656.29975
G1 X140.287 Y84.951 E656.30813
G1 X139.890 Y85.255 E656.32303
G1 X139.494 Y85.467 E656.33640
G1 X139.231 Y85.561 E656.34472
G1 X138.779 Y85.663 E656.35852
G1 X108.667 Y85.687 E657.25536
G1 X108.667 Y70.392 E657.71090
G0 F10500 X109.341 Y70.617
;TYPE:SKIN
G1 F1380 X126.096 Y53.862 E658.41662
G0 F10500 X126.803 Y53.862
G1 F1380 X109.341 Y71.324 E659.15212
G0 F10500 X109.341 Y72.031
G1 F1380 X127.510 Y53.862 E659.91740
G0 F10500 X128.217 Y53.862
G1 F1380 X109.341 Y72.738 E660.71246
G0 F10500 X109.341 Y73.445
G1 F1380 X128.924 Y53.862 E661.53729
G0 F10500 X129.631 Y53.862
G1 F1380 X109.341 Y74.152 E662.39191
G0 F10500 X109.341 Y74.859
G1 F1380 X130.338 Y53.862 E663.27631
G0 F10500 X131.045 Y53.862
G1 F1380 X109.341 Y75.567 E664.19050
G0 F10500 X109.341 Y76.274
G1 F1380 X131.753 Y53.862 E665.13450
G0 F10500 X132.460 Y53.862
G1 F1380 X109.341 Y76.981 E666.10827
G0 F10500 X109.341 Y77.688
G1 F1380 X133.167 Y53.862 E667.11182
G0 F10500 X133.874 Y53.862
G1 F1380 X109.341 Y78.395 E668.14515
G0 F10500 X109.341 Y79.102
G1 F1380 X134.581 Y53.862 E669.20826
G0 F10500 X135.288 Y53.862
G1 F1380 X109.341 Y79.809 E670.30115
G0 F10500 X109.017 Y69.786
G0 X107.620 Y70.216
G1 F1380 X125.691 Y52.146 E671.06228
G0 F10500 X125.767 Y51.362
G1 F1380 X106.841 Y70.288 E671.85945
G0 F10500 X106.841 Y69.581
G1 F1380 X125.060 Y51.362 E672.62683
G0 F10500 X124.353 Y51.362
G1 F1380 X122.029 Y53.686 E672.72472
G0 F10500 X121.852 Y53.863
G1 F1380 X106.841 Y68.874 E673.35698
G0 F10500 X106.841 Y68.167
G1 F1380 X121.145 Y53.863 E673.95947
G0 F10500 X120.438 Y53.863
G1 F1380 X109.341 Y64.960 E674.42688
G0 F10500 X109.341 Y64.253
G1 F1380 X119.731 Y53.863 E674.86450
G0 F10500 X119.024 Y53.863
G1 F1380 X109.341 Y63.546 E675.27235
G0 F10500 X109.341 Y62.839
G1 F1380 X118.317 Y53.863 E675.65042
G0 F10500 X117.610 Y53.863
G1 F1380 X109.341 Y62.132 E675.99871
G0 F10500 X109.341 Y61.424
G1 F1380 X116.903 Y53.863 E676.31720
G0 F10500 X116.196 Y53.863
G1 F1380 X109.341 Y60.717 E676.60592
G0 F10500 X109.341 Y60.010
G1 F1380 X115.488 Y53.863 E676.86483
G0 F10500 X114.781 Y53.863
G1 F1380 X109.341 Y59.303 E677.09396
G0 F10500 X109.341 Y58.596
G1 F1380 X114.074 Y53.863 E677.29331
G0 F10500 X113.367 Y53.863
G1 F1380 X109.341 Y57.889 E677.46289
G0 F10500 X109.341 Y57.182
G1 F1380 X112.660 Y53.863 E677.60269
G0 F10500 X111.953 Y53.863
G1 F1380 X109.341 Y56.475 E677.71270
G0 F10500 X109.341 Y55.768
G1 F1380 X111.246 Y53.863 E677.79294
G0 F10500 X110.539 Y53.863
G1 F1380 X109.341 Y55.060 E677.84338
G0 F10500 X109.341 Y54.353
G1 F1380 X109.832 Y53.863 E677.86404
G0 F10500 X121.569 Y53.538
G0 X120.735 Y51.444
G1 F1380 X120.905 Y51.627 E677.86746
G1 X121.524 Y51.362 E677.88752
G0 F10500 X122.231 Y51.362
G1 F1380 X121.253 Y52.341 E677.92873
G0 F10500 X121.512 Y52.789
G1 F1380 X122.938 Y51.362 E677.98882
G0 F10500 X123.646 Y51.362
G1 F1380 X121.770 Y53.238 E678.06783
G0 F10500 X124.725 Y53.819
G1 F1380 X109.293 Y69.250 E678.71781
G0 F10500 X109.341 Y69.910
G1 F1380 X125.389 Y53.862 E679.39375
G0 F10500 X135.995 Y53.862
G1 F1380 X109.341 Y80.516 E680.51642
G0 F10500 X109.341 Y81.223
G1 F1380 X136.702 Y53.862 E681.66887
G0 F10500 X137.409 Y53.862
G1 F1380 X109.341 Y81.931 E682.85111
G0 F10500 X109.341 Y82.638
G1 F1380 X138.117 Y53.862 E684.06316
G0 F10500 X138.824 Y53.862
G1 F1380 X109.341 Y83.345 E685.30499
G0 F10500 X109.341 Y84.052
G1 F1380 X139.531 Y53.862 E686.57659
G0 F10500 X140.238 Y53.862
G1 F1380 X109.341 Y84.759 E687.87798
G0 F10500 X109.795 Y85.012
G1 F1380 X140.490 Y54.317 E689.17085
G0 F10500 X140.490 Y55.024
G1 F1380 X110.503 Y85.011 E690.43390
G0 F10500 X111.210 Y85.011
G1 F1380 X140.490 Y55.731 E691.66718
G0 F10500 X140.490 Y56.438
G1 F1380 X111.918 Y85.011 E692.87066
G0 F10500 X112.625 Y85.010
G1 F1380 X140.490 Y57.145 E694.04433
G0 F10500 X140.490 Y57.852
G1 F1380 X113.332 Y85.010 E695.18823
G0 F10500 X114.040 Y85.009
G1 F1380 X140.490 Y58.559 E696.30230
G0 F10500 X140.490 Y59.266
G1 F1380 X114.748 Y85.009 E697.38658
G0 F10500 X115.456 Y85.008
G1 F1380 X140.490 Y59.973 E698.44103
G0 F10500 X140.490 Y60.681
G1 F1380 X116.163 Y85.008 E699.46569
G0 F10500 X116.871 Y85.007
G1 F1380 X140.490 Y61.388 E700.46052
G0 F10500 X140.490 Y62.095
G1 F1380 X117.579 Y85.006 E701.42553
G0 F10500 X118.286 Y85.006
G1 F1380 X140.490 Y62.802 E702.36077
G0 F10500 X140.490 Y63.509
G1 F1380 X118.994 Y85.006 E703.26620
G0 F10500 X119.701 Y85.005
G1 F1380 X140.490 Y64.216 E704.14184
G0 F10500 X140.490 Y64.923
G1 F1380 X120.408 Y85.005 E704.98769
G0 F10500 X121.116 Y85.004
G1 F1380 X140.490 Y65.630 E705.80373
G0 F10500 X140.490 Y66.337
G1 F1380 X121.824 Y85.004 E706.58996
G0 F10500 X122.532 Y85.003
G1 F1380 X140.490 Y67.045 E707.34635
G0 F10500 X140.490 Y67.752
G1 F1380 X123.239 Y85.003 E708.07297
G0 F10500 X123.947 Y85.002
G1 F1380 X140.490 Y68.459 E708.76976
G0 F10500 X140.490 Y69.166
G1 F1380 X124.655 Y85.002 E709.43675
G0 F10500 X125.362 Y85.002
G1 F1380 X140.490 Y69.873 E710.07396
G0 F10500 X140.490 Y70.580
G1 F1380 X126.070 Y85.001 E710.68136
G0 F10500 X126.777 Y85.000
G1 F1380 X140.490 Y71.287 E711.25895
G0 F10500 X140.490 Y71.994
G1 F1380 X127.484 Y85.000 E711.80676
G0 F10500 X128.192 Y84.999
G1 F1380 X140.490 Y72.701 E712.32475
G0 F10500 X140.490 Y73.408
G1 F1380 X128.900 Y84.999 E712.81295
G0 F10500 X129.608 Y84.998
G1 F1380 X140.490 Y74.116 E713.27130
G0 F10500 X140.490 Y74.823
G1 F1380 X130.315 Y84.998 E713.69987
G0 F10500 X131.023 Y84.997
G1 F1380 X140.490 Y75.530 E714.09862
G0 F10500 X140.490 Y76.237
G1 F1380 X131.731 Y84.997 E714.46757
G0 F10500 X132.438 Y84.997
G1 F1380 X140.490 Y76.944 E714.80674
G0 F10500 X140.490 Y77.651
G1 F1380 X133.146 Y84.996 E715.11609
G0 F10500 X133.853 Y84.995
G1 F1380 X140.490 Y78.358 E715.39564
G0 F10500 X140.490 Y79.065
G1 F1380 X134.561 Y84.995 E715.64539
G0 F10500 X135.268 Y84.994
G1 F1380 X140.490 Y79.772 E715.86535
G0 F10500 X140.490 Y80.480
G1 F1380 X135.976 Y84.994 E716.05548
G0 F10500 X136.684 Y84.993
G1 F1380 X140.490 Y81.187 E716.21578
G0 F10500 X140.490 Y81.894
G1 F1380 X137.391 Y84.993 E716.34631
G0 F10500 X138.099 Y84.992
G1 F1380 X140.490 Y82.601 E716.44702
G0 F10500 X140.437 Y83.361
G1 F1380 X138.843 Y84.956 E716.51418
G0 F10500 X108.267 Y66.033
G1 F1380 X106.841 Y67.460 E716.57427
G0 F10500 X106.841 Y66.753
G1 F1380 X107.819 Y65.775 E716.61546
G0 F10500 X107.371 Y65.516
G1 F1380 X106.841 Y65.691 E716.63774
G1 X106.923 Y65.256 E716.65092
G1 F600 E715.15092
G1 Z0.905
G0 F10500 X109.274 Y42.541
;TYPE:WALL-INNER
G1 Z0.805
G1 F600 E716.65092
G1 F1140 X109.274 Y29.879 E717.02804
G1 X106.774 Y31.322 E717.11401
G1 X106.774 Y25.260 E717.29456
G1 X109.274 Y26.703 E717.38053
G1 X109.274 Y14.041 E717.75765
G1 X121.070 Y14.041 E718.10897
G1 X121.503 Y13.291 E718.13476
G1 X120.492 Y11.541 E718.19496
G1 X126.555 Y11.541 E718.37553
G1 X125.544 Y13.291 E718.43573
G1 X125.977 Y14.041 E718.46152
G1 X140.774 Y14.041 E718.90222
G1 X140.774 Y42.541 E719.75105
G1 X125.977 Y42.541 E720.19176
G1 X125.544 Y43.291 E720.21755
G1 X126.555 Y45.041 E720.27774
G1 X120.492 Y45.041 E720.45832
G1 X121.503 Y43.291 E720.51851
G1 X121.070 Y42.541 E720.54430
G1 X109.274 Y42.541 E720.89563
G0 F10500 X108.774 Y43.041
;TYPE:WALL-OUTER
G1 F1080 X108.774 Y30.745 E721.26185
G1 X106.274 Y32.188 E721.34782
G1 X106.274 Y24.394 E721.57995
G1 X108.774 Y25.837 E721.66592
G1 X108.774 Y13.541 E722.03214
G1 X120.781 Y13.541 E722.38975
G1 X120.926 Y13.291 E722.39835
G1 X119.626 Y11.041 E722.47575
G1 X127.421 Y11.041 E722.70791
G1 X126.121 Y13.291 E722.78530
G1 X126.266 Y13.541 E722.79391
G1 X141.274 Y13.541 E723.24090
G1 X141.274 Y43.041 E724.11951
G1 X126.266 Y43.041 E724.56650
G1 X126.121 Y43.291 E724.57511
G1 X127.421 Y45.541 E724.65250
G1 X119.626 Y45.541 E724.88466
G1 X120.926 Y43.291 E724.96206
G1 X120.781 Y43.041 E724.97066
G1 X108.774 Y43.041 E725.32827
G0 F10500 X109.448 Y42.226
;TYPE:SKIN
G1 F1380 X137.458 Y14.215 E726.50808
G0 F10500 X138.165 Y14.215
G1 F1380 X110.015 Y42.366 E727.69378
G0 F10500 X110.722 Y42.366
G1 F1380 X138.872 Y14.215 E728.87948
G0 F10500 X139.580 Y14.215
G1 F1380 X111.429 Y42.366 E730.06520
G0 F10500 X112.136 Y42.366
G1 F1380 X140.287 Y14.215 E731.25092
G0 F10500 X140.598 Y14.611
G1 F1380 X112.843 Y42.366 E732.41996
G0 F10500 X113.550 Y42.366
G1 F1380 X140.598 Y15.318 E733.55923
G0 F10500 X140.598 Y16.025
G1 F1380 X114.257 Y42.366 E734.66871
G0 F10500 X114.964 Y42.366
G1 F1380 X140.598 Y16.732 E735.74842
G0 F10500 X140.598 Y17.440
G1 F1380 X115.672 Y42.366 E736.79830
G0 F10500 X116.379 Y42.366
G1 F1380 X140.598 Y18.147 E737.81841
G0 F10500 X140.598 Y18.854
G1 F1380 X117.086 Y42.366 E738.80873
G0 F10500 X117.793 Y42.366
G1 F1380 X140.598 Y19.561 E739.76928
G0 F10500 X140.598 Y20.268
G1 F1380 X118.500 Y42.366 E740.70005
G0 F10500 X119.207 Y42.366
G1 F1380 X140.598 Y20.975 E741.60104
G0 F10500 X140.598 Y21.682
G1 F1380 X119.914 Y42.366 E742.47225
G0 F10500 X109.448 Y41.519
G1 F1380 X136.751 Y14.215 E743.62228
G0 F10500 X136.044 Y14.215
G1 F1380 X109.448 Y40.812 E744.74252
G0 F10500 X109.448 Y40.104
G1 F1380 X135.337 Y14.215 E745.83297
G0 F10500 X134.630 Y14.215
G1 F1380 X109.448 Y39.397 E746.89364
G0 F10500 X109.448 Y38.690
G1 F1380 X133.923 Y14.215 E747.92453
G0 F10500 X133.216 Y14.215
G1 F1380 X109.448 Y37.983 E748.92564
G0 F10500 X109.448 Y37.276
G1 F1380 X132.508 Y14.215 E749.89695
G0 F10500 X131.801 Y14.215
G1 F1380 X109.448 Y36.569 E750.83848
G0 F10500 X109.448 Y35.862
G1 F1380 X131.094 Y14.215 E751.75023
G0 F10500 X130.387 Y14.215
G1 F1380 X109.448 Y35.155 E752.63220
G0 F10500 X109.448 Y34.448
G1 F1380 X129.680 Y14.215 E753.48440
G0 F10500 X128.973 Y14.215
G1 F1380 X109.448 Y33.741 E754.30681
G0 F10500 X109.448 Y33.033
G1 F1380 X128.266 Y14.215 E755.09943
G0 F10500 X127.559 Y14.215
G1 F1380 X109.448 Y32.326 E755.86226
G0 F10500 X109.448 Y31.619
G1 F1380 X126.852 Y14.215 E756.59532
G0 F10500 X126.145 Y14.215
G1 F1380 X109.448 Y30.912 E757.29860
G0 F10500 X109.448 Y30.205
G1 F1380 X125.714 Y13.939 E757.98372
G0 F10500 X125.455 Y13.490
G1 F1380 X109.263 Y29.682 E758.66573
G0 F10500 X107.590 Y30.648
G1 F1380 X125.879 Y12.359 E759.43607
G0 F10500 X125.816 Y11.715
G1 F1380 X106.948 Y30.583 E760.23079
G0 F10500 X106.948 Y29.876
G1 F1380 X125.109 Y11.715 E760.99573
G0 F10500 X124.402 Y11.715
G1 F1380 X109.448 Y26.669 E761.62559
G0 F10500 X109.235 Y26.882
G1 F1380 X106.948 Y29.169 E761.72192
G0 F10500 X106.948 Y28.462
G1 F1380 X108.786 Y26.623 E761.79936
G0 F10500 X108.338 Y26.365
G1 F1380 X106.948 Y27.755 E761.85791
G0 F10500 X106.948 Y27.048
G1 F1380 X107.890 Y26.106 E761.89758
G0 F10500 X107.442 Y25.847
G1 F1380 X106.948 Y26.341 E761.91839
G0 F10500 X109.124 Y26.443
G0 X109.448 Y25.962
G1 F1380 X123.695 Y11.715 E762.51848
G0 F10500 X122.988 Y11.715
G1 F1380 X121.598 Y13.105 E762.57702
G0 F10500 X121.338 Y12.657
G1 F1380 X122.281 Y11.715 E762.61672
G0 F10500 X121.574 Y11.715
G1 F1380 X121.080 Y12.209 E762.63753
G0 F10500 X121.414 Y13.291
G0 X121.026 Y13.964
G0 X120.487 Y14.216
G1 F1380 X109.448 Y25.255 E763.10249
G0 F10500 X109.448 Y24.547
G1 F1380 X119.780 Y14.216 E763.53765
G0 F10500 X119.073 Y14.216
G1 F1380 X109.448 Y23.840 E763.94304
G0 F10500 X109.448 Y23.133
G1 F1380 X118.366 Y14.216 E764.31864
G0 F10500 X117.659 Y14.216
G1 F1380 X109.448 Y22.426 E764.66447
G0 F10500 X109.448 Y21.719
G1 F1380 X116.951 Y14.216 E764.98050
G0 F10500 X116.244 Y14.216
G1 F1380 X109.448 Y21.012 E765.26675
G0 F10500 X109.448 Y20.305
G1 F1380 X115.537 Y14.216 E765.52322
G0 F10500 X114.830 Y14.216
G1 F1380 X109.448 Y19.598 E765.74991
G0 F10500 X109.448 Y18.891
G1 F1380 X114.123 Y14.216 E765.94682
G0 F10500 X113.416 Y14.216
G1 F1380 X109.448 Y18.183 E766.11393
G0 F10500 X109.448 Y17.476
G1 F1380 X112.709 Y14.216 E766.25126
G0 F10500 X112.002 Y14.216
G1 F1380 X109.448 Y16.769 E766.35881
G0 F10500 X109.448 Y16.062
G1 F1380 X111.295 Y14.216 E766.43659
G0 F10500 X110.587 Y14.216
G1 F1380 X109.448 Y15.355 E766.48456
G0 F10500 X109.448 Y14.648
G1 F1380 X109.880 Y14.216 E766.50276
G0 F10500 X120.621 Y42.366
G1 F1380 X140.598 Y22.389 E767.34419
G0 F10500 X140.598 Y23.096
G1 F1380 X121.227 Y42.467 E768.16010
G0 F10500 X121.487 Y42.915
G1 F1380 X140.598 Y23.804 E768.96506
G0 F10500 X140.598 Y24.511
G1 F1380 X121.548 Y43.561 E769.76744
G0 F10500 X121.657 Y44.865
G1 F1380 X140.598 Y25.925 E770.56522
G0 F10500 X140.598 Y26.632
G1 F1380 X122.364 Y44.865 E771.33321
G0 F10500 X123.071 Y44.865
G1 F1380 X140.598 Y27.339 E772.07143
G0 F10500 X140.598 Y28.046
G1 F1380 X126.279 Y42.365 E772.67455
G0 F10500 X126.986 Y42.365
G1 F1380 X140.598 Y28.753 E773.24789
G0 F10500 X140.598 Y29.460
G1 F1380 X127.693 Y42.365 E773.79145
G0 F10500 X128.400 Y42.365
G1 F1380 X140.598 Y30.168 E774.30521
G0 F10500 X140.598 Y30.875
G1 F1380 X129.107 Y42.365 E774.78919
G0 F10500 X129.814 Y42.365
G1 F1380 X140.598 Y31.582 E775.24339
G0 F10500 X140.598 Y32.289
G1 F1380 X130.522 Y42.365 E775.66779
G0 F10500 X131.229 Y42.365
G1 F1380 X140.598 Y32.996 E776.06241
G0 F10500 X140.598 Y33.703
G1 F1380 X131.936 Y42.365 E776.42726
G0 F10500 X132.643 Y42.365
G1 F1380 X140.598 Y34.410 E776.76232
G0 F10500 X140.598 Y35.117
G1 F1380 X133.350 Y42.365 E777.06761
G0 F10500 X134.057 Y42.365
G1 F1380 X140.598 Y35.824 E777.34312
G0 F10500 X140.598 Y36.531
G1 F1380 X134.764 Y42.365 E777.58884
G0 F10500 X135.471 Y42.365
G1 F1380 X140.598 Y37.239 E777.80477
G0 F10500 X140.598 Y37.946
G1 F1380 X136.178 Y42.365 E777.99092
G0 F10500 X136.885 Y42.365
G1 F1380 X140.598 Y38.653 E778.14729
G0 F10500 X140.598 Y39.360
G1 F1380 X137.593 Y42.365 E778.27386
G0 F10500 X138.300 Y42.365
G1 F1380 X140.598 Y40.067 E778.37066
G0 F10500 X140.598 Y40.774
G1 F1380 X139.007 Y42.365 E778.43767
G0 F10500 X139.714 Y42.365
G1 F1380 X140.598 Y41.481 E778.47490
G0 F10500 X140.598 Y42.188
G1 F1380 X140.421 Y42.365 E778.48236
G0 F10500 X126.021 Y42.618
G0 X125.633 Y43.291
G0 X126.123 Y44.643
G1 F1380 X125.881 Y44.530 E778.49171
G1 X125.193 Y44.865 E778.51450
G0 F10500 X124.486 Y44.865
G1 F1380 X125.604 Y43.747 E778.56159
G0 F10500 X125.345 Y43.299
G1 F1380 X123.779 Y44.865 E778.62755
G0 F10500 X120.950 Y44.865
G1 F1380 X140.598 Y25.218 E779.45511
G1 F600 E777.95511
G1 Z0.905
G0 F10500 X101.714 Y26.864
;TYPE:WALL-INNER
G1 Z0.805
G1 F600 E779.45511
G1 F1140 X101.714 Y32.926 E779.63565
G1 X99.214 Y31.483 E779.72163
G1 X99.214 Y44.145 E780.09874
G1 X86.552 Y44.145 E780.47586
G1 X87.995 Y46.645 E780.56183
G1 X81.933 Y46.645 E780.74238
G1 X83.376 Y44.145 E780.82835
G1 X70.715 Y44.145 E781.20544
G1 X70.715 Y31.483 E781.58255
G1 X68.215 Y32.926 E781.66853
G1 X68.215 Y26.864 E781.84907
G1 X70.715 Y28.307 E781.93504
G1 X70.715 Y12.645 E782.40151
G1 X99.214 Y12.645 E783.25031
G1 X99.214 Y28.307 E783.71678
G1 X101.714 Y26.864 E783.80275
G0 F10500 X99.364 Y28.047
G0 X99.364 Y27.441
G0 X99.714 Y27.441
;TYPE:WALL-OUTER
G1 F1080 X102.214 Y25.998 E783.88872
G1 X102.214 Y33.792 E784.12085
G1 X99.714 Y32.349 E784.20682
G1 X99.714 Y44.645 E784.57304
G1 X87.418 Y44.645 E784.93926
G1 X88.861 Y47.145 E785.02523
G1 X81.067 Y47.145 E785.25736
G1 X82.510 Y44.645 E785.34333
G1 X70.215 Y44.645 E785.70952
G1 X70.215 Y32.349 E786.07573
G1 X67.715 Y33.792 E786.16171
G1 X67.715 Y25.998 E786.39384
G1 X70.215 Y27.441 E786.47981
G1 X70.215 Y12.145 E786.93538
G1 X99.714 Y12.145 E787.81396
G1 X99.714 Y27.441 E788.26952
G0 F10500 X99.038 Y27.180
;TYPE:SKIN
G1 F1380 X82.248 Y43.970 E788.97672
G0 F10500 X82.955 Y43.970
G1 F1380 X99.038 Y27.887 E789.65413
G0 F10500 X99.038 Y28.594
G1 F1380 X83.662 Y43.970 E790.30177
G0 F10500 X82.733 Y45.606
G1 F1380 X100.675 Y27.664 E791.05749
G0 F10500 X101.537 Y27.509
G1 F1380 X82.577 Y46.469 E791.85609
G0 F10500 X83.284 Y46.469
G1 F1380 X101.537 Y28.216 E792.62490
G0 F10500 X101.537 Y28.923
G1 F1380 X99.192 Y31.268 E792.72368
G0 F10500 X99.038 Y31.423
G1 F1380 X86.491 Y43.970 E793.25216
G0 F10500 X86.336 Y44.124
G1 F1380 X83.991 Y46.469 E793.35093
G0 F10500 X84.698 Y46.469
G1 F1380 X86.595 Y44.573 E793.43081
G0 F10500 X86.853 Y45.021
G1 F1380 X85.405 Y46.469 E793.49180
G0 F10500 X86.112 Y46.469
G1 F1380 X87.113 Y45.469 E793.53394
G0 F10500 X87.372 Y45.917
G1 F1380 X87.173 Y46.469 E793.55722
G1 X87.631 Y46.365 E793.57121
G0 F10500 X86.812 Y44.295
G0 X87.905 Y43.970
G1 F1380 X99.038 Y32.837 E794.04013
G0 F10500 X99.038 Y33.544
G1 F1380 X88.612 Y43.970 E794.47927
G0 F10500 X89.319 Y43.970
G1 F1380 X99.038 Y34.251 E794.88864
G0 F10500 X99.038 Y34.958
G1 F1380 X90.026 Y43.970 E795.26822
G0 F10500 X90.733 Y43.970
G1 F1380 X99.038 Y35.665 E795.61803
G0 F10500 X99.038 Y36.372
G1 F1380 X91.440 Y43.970 E795.93806
G0 F10500 X92.148 Y43.970
G1 F1380 X99.038 Y37.079 E796.22829
G0 F10500 X99.038 Y37.787
G1 F1380 X92.855 Y43.970 E796.48872
G0 F10500 X93.562 Y43.970
G1 F1380 X99.038 Y38.494 E796.71936
G0 F10500 X99.038 Y39.201
G1 F1380 X94.269 Y43.970 E796.92024
G0 F10500 X94.976 Y43.970
G1 F1380 X99.038 Y39.908 E797.09133
G0 F10500 X99.038 Y32.130
G1 F1380 X87.198 Y43.970 E797.59003
G0 F10500 X81.541 Y43.970
G1 F1380 X99.038 Y26.473 E798.32700
G0 F10500 X99.038 Y25.766
G1 F1380 X80.834 Y43.970 E799.09376
G0 F10500 X80.127 Y43.970
G1 F1380 X99.038 Y25.059 E799.89029
G0 F10500 X99.038 Y24.352
G1 F1380 X79.420 Y43.970 E800.71660
G0 F10500 X78.713 Y43.970
G1 F1380 X99.038 Y23.644 E801.57271
G0 F10500 X99.038 Y22.937
G1 F1380 X78.005 Y43.970 E802.45862
G0 F10500 X77.298 Y43.970
G1 F1380 X99.038 Y22.230 E803.37431
G0 F10500 X99.038 Y21.523
G1 F1380 X76.591 Y43.970 E804.31978
G0 F10500 X75.884 Y43.970
G1 F1380 X99.038 Y20.816 E805.29503
G0 F10500 X99.038 Y20.109
G1 F1380 X75.177 Y43.970 E806.30006
G0 F10500 X74.470 Y43.970
G1 F1380 X99.038 Y19.402 E807.33486
G0 F10500 X99.038 Y18.695
G1 F1380 X73.763 Y43.970 E808.39945
G0 F10500 X73.056 Y43.970
G1 F1380 X99.038 Y17.988 E809.49381
G0 F10500 X99.038 Y17.280
G1 F1380 X72.349 Y43.970 E810.61797
G0 F10500 X71.641 Y43.970
G1 F1380 X99.038 Y16.573 E811.77194
G0 F10500 X99.038 Y15.866
G1 F1380 X70.934 Y43.970 E812.95568
G0 F10500 X70.889 Y43.308
G1 F1380 X99.038 Y15.159 E814.14132
G0 F10500 X99.038 Y14.452
G1 F1380 X70.889 Y42.601 E815.32695
G0 F10500 X70.889 Y41.893
G1 F1380 X99.038 Y13.745 E816.51257
G0 F10500 X99.038 Y13.038
G1 F1380 X70.889 Y41.186 E817.69819
G0 F10500 X70.889 Y40.479
G1 F1380 X98.549 Y12.819 E818.86323
G0 F10500 X97.842 Y12.819
G1 F1380 X70.889 Y39.772 E819.99849
G0 F10500 X70.889 Y39.065
G1 F1380 X97.135 Y12.819 E821.10397
G0 F10500 X96.428 Y12.819
G1 F1380 X70.889 Y38.358 E822.17968
G0 F10500 X70.889 Y37.651
G1 F1380 X95.721 Y12.819 E823.22560
G0 F10500 X95.013 Y12.819
G1 F1380 X70.889 Y36.944 E824.24173
G0 F10500 X70.889 Y36.237
G1 F1380 X94.306 Y12.819 E825.22808
G0 F10500 X93.599 Y12.819
G1 F1380 X70.889 Y35.529 E826.18462
G0 F10500 X70.889 Y34.822
G1 F1380 X92.892 Y12.819 E827.11139
G0 F10500 X92.185 Y12.819
G1 F1380 X70.889 Y34.115 E828.00838
G0 F10500 X70.889 Y33.408
G1 F1380 X91.478 Y12.819 E828.87559
G0 F10500 X90.771 Y12.819
G1 F1380 X70.889 Y32.701 E829.71302
G0 F10500 X70.889 Y31.994
G1 F1380 X90.064 Y12.819 E830.52067
G0 F10500 X89.357 Y12.819
G1 F1380 X70.889 Y31.287 E831.29855
G0 F10500 X69.471 Y31.997
G1 F1380 X88.649 Y12.819 E832.10632
G0 F10500 X87.942 Y12.819
G1 F1380 X68.389 Y32.372 E832.92990
G0 F10500 X68.389 Y31.665
G1 F1380 X87.235 Y12.819 E833.72369
G0 F10500 X86.528 Y12.819
G1 F1380 X70.889 Y28.458 E834.38241
G0 F10500 X70.794 Y28.554
G1 F1380 X68.389 Y30.958 E834.48369
G0 F10500 X68.389 Y30.251
G1 F1380 X70.345 Y28.295 E834.56607
G0 F10500 X69.897 Y28.036
G1 F1380 X68.389 Y29.544 E834.62959
G0 F10500 X68.389 Y28.837
G1 F1380 X69.449 Y27.777 E834.67424
G0 F10500 X69.000 Y27.519
G1 F1380 X68.389 Y27.776 E834.69998
G1 X68.552 Y27.260 E834.71610
G0 F10500 X70.565 Y28.047
G0 X70.889 Y27.044
G1 F1380 X85.114 Y12.819 E835.31525
G0 F10500 X85.821 Y12.819
G1 F1380 X70.889 Y27.751 E835.94419
G0 F10500 X70.889 Y26.337
G1 F1380 X84.407 Y12.819 E836.51357
G0 F10500 X83.700 Y12.819
G1 F1380 X70.889 Y25.630 E837.05317
G0 F10500 X70.889 Y24.923
G1 F1380 X82.993 Y12.819 E837.56299
G0 F10500 X82.286 Y12.819
G1 F1380 X70.889 Y24.216 E838.04303
G0 F10500 X70.889 Y23.509
G1 F1380 X81.578 Y12.819 E838.49328
G0 F10500 X80.871 Y12.819
G1 F1380 X70.889 Y22.802 E838.91374
G0 F10500 X70.889 Y22.094
G1 F1380 X80.164 Y12.819 E839.30440
G0 F10500 X79.457 Y12.819
G1 F1380 X70.889 Y21.387 E839.66529
G0 F10500 X70.889 Y20.680
G1 F1380 X78.750 Y12.819 E839.99639
G0 F10500 X78.043 Y12.819
G1 F1380 X70.889 Y19.973 E840.29772
G0 F10500 X70.889 Y19.266
G1 F1380 X77.336 Y12.819 E840.56927
G0 F10500 X76.629 Y12.819
G1 F1380 X70.889 Y18.559 E840.81104
G0 F10500 X70.889 Y17.852
G1 F1380 X75.922 Y12.819 E841.02303
G0 F10500 X75.214 Y12.819
G1 F1380 X70.889 Y17.145 E841.20522
G0 F10500 X70.889 Y16.438
G1 F1380 X74.507 Y12.819 E841.35763
G0 F10500 X73.800 Y12.819
G1 F1380 X70.889 Y15.731 E841.48026
G0 F10500 X70.889 Y15.023
G1 F1380 X73.093 Y12.819 E841.57310
G0 F10500 X72.386 Y12.819
G1 F1380 X70.889 Y14.316 E841.63615
G0 F10500 X70.889 Y13.609
G1 F1380 X71.679 Y12.819 E841.66942
G0 F10500 X70.972 Y12.819
G1 F1380 X70.889 Y12.902 E841.67292
G0 F10500 X99.640 Y31.527
G1 F1380 X101.537 Y29.630 E841.75282
G0 F10500 X101.537 Y30.337
G1 F1380 X100.088 Y31.786 E841.81385
G0 F10500 X100.536 Y32.046
G1 F1380 X101.537 Y31.044 E841.85604
G0 F10500 X101.537 Y31.751
G1 F1380 X101.208 Y32.433 E841.87931
G1 X101.537 Y32.459 E841.88914
G0 F10500 X99.364 Y31.743
G0 X99.038 Y40.615
G1 F1380 X95.683 Y43.970 E842.03045
G0 F10500 X96.390 Y43.970
G1 F1380 X99.038 Y41.322 E842.14199
G0 F10500 X99.038 Y42.029
G1 F1380 X97.097 Y43.970 E842.22374
G0 F10500 X97.804 Y43.970
G1 F1380 X99.038 Y42.736 E842.27572
G0 F10500 X99.038 Y43.443
G1 F1380 X98.511 Y43.970 E842.29792
;LAYER:2
G1 F600 E840.79792
G1 Z0.905
G0 F10500 X60.337 Y31.895 Z1.185
;TYPE:WALL-INNER
G1 Z1.185
G1 F600 E842.29792
G1 F1440 X57.837 Y30.452 E842.38389
G1 X57.837 Y43.114 E842.76100
G1 X46.041 Y43.114 E843.11233
G1 X45.608 Y43.864 E843.13812
G1 X46.619 Y45.614 E843.19832
G1 X40.556 Y45.614 E843.37889
G1 X41.567 Y43.864 E843.43909
G1 X41.134 Y43.114 E843.46488
G1 X26.337 Y43.114 E843.90558
G1 X26.337 Y14.614 E844.75441
G1 X41.134 Y14.614 E845.19511
G1 X41.567 Y13.864 E845.22091
G1 X40.556 Y12.114 E845.28110
G1 X46.619 Y12.114 E845.46168
G1 X45.608 Y13.864 E845.52187
G1 X46.041 Y14.614 E845.54766
G1 X57.837 Y14.614 E845.89899
G1 X57.837 Y26.411 E846.25034
G1 X58.587 Y26.844 E846.27614
G1 X60.337 Y25.833 E846.33633
G1 X60.337 Y31.895 E846.51688
G0 F10500 X57.987 Y30.712
G0 X57.987 Y31.318
G0 X58.337 Y31.318
;TYPE:WALL-OUTER
G1 F1320 X58.337 Y43.614 E846.88309
G1 X46.330 Y43.614 E847.24070
G1 X46.185 Y43.864 E847.24931
G1 X47.485 Y46.114 E847.32670
G1 X39.690 Y46.114 E847.55887
G1 X40.990 Y43.864 E847.63626
G1 X40.845 Y43.614 E847.64487
G1 X25.837 Y43.614 E848.09186
G1 X25.837 Y14.114 E848.97047
G1 X40.845 Y14.114 E849.41745
G1 X40.990 Y13.864 E849.42606
G1 X39.690 Y11.614 E849.50346
G1 X47.485 Y11.614 E849.73562
G1 X46.185 Y13.864 E849.81301
G1 X46.330 Y14.114 E849.82162
G1 X58.337 Y14.114 E850.17923
G1 X58.337 Y26.122 E850.53687
G1 X58.587 Y26.267 E850.54547
G1 X60.837 Y24.967 E850.62287
G1 X60.837 Y32.761 E850.85500
G1 X58.337 Y31.318 E850.94097
G0 F10500 X58.650 Y30.719
;TYPE:SKIN
G1 F1920 X41.731 Y13.800 E851.65360
G0 F10500 X41.518 Y14.294
G1 F1920 X57.661 Y30.437 E852.33354
G0 F10500 X57.661 Y31.144
G1 F1920 X41.259 Y14.743 E853.02438
G0 F10500 X40.598 Y14.789
G1 F1920 X57.661 Y31.851 E853.74305
G0 F10500 X57.661 Y32.558
G1 F1920 X39.891 Y14.789 E854.49150
G0 F10500 X39.184 Y14.789
G1 F1920 X57.661 Y33.265 E855.26973
G0 F10500 X57.661 Y33.972
G1 F1920 X38.477 Y14.789 E856.07774
G0 F10500 X37.770 Y14.789
G1 F1920 X57.661 Y34.680 E856.91555
G0 F10500 X57.661 Y35.387
G1 F1920 X37.063 Y14.789 E857.78314
G0 F10500 X36.355 Y14.789
G1 F1920 X57.661 Y36.094 E858.68053
G0 F10500 X57.661 Y36.801
G1 F1920 X35.648 Y14.789 E859.60770
G0 F10500 X34.941 Y14.789
G1 F1920 X57.661 Y37.508 E860.56465
G0 F10500 X57.661 Y38.215
G1 F1920 X34.234 Y14.789 E861.55137
G0 F10500 X33.527 Y14.789
G1 F1920 X57.661 Y38.922 E862.56788
G0 F10500 X57.661 Y39.629
G1 F1920 X32.820 Y14.789 E863.61416
G0 F10500 X32.113 Y14.789
G1 F1920 X57.661 Y40.336 E864.69022
G0 F10500 X57.661 Y41.044
G1 F1920 X31.406 Y14.789 E865.79609
G0 F10500 X30.699 Y14.789
G1 F1920 X57.661 Y41.751 E866.93173
G0 F10500 X57.661 Y42.458
G1 F1920 X29.991 Y14.789 E868.09717
G0 F10500 X29.284 Y14.789
G1 F1920 X57.434 Y42.939 E869.28285
G0 F10500 X56.727 Y42.939
G1 F1920 X28.577 Y14.789 E870.46853
G0 F10500 X27.870 Y14.789
G1 F1920 X56.020 Y42.939 E871.65421
G0 F10500 X55.313 Y42.939
G1 F1920 X27.163 Y14.789 E872.83989
G0 F10500 X26.511 Y14.844
G1 F1920 X54.606 Y42.939 E874.02325
G0 F10500 X53.899 Y42.939
G1 F1920 X26.511 Y15.551 E875.17683
G0 F10500 X26.511 Y16.258
G1 F1920 X53.192 Y42.939 E876.30064
G0 F10500 X52.485 Y42.939
G1 F1920 X26.511 Y16.965 E877.39467
G0 F10500 X26.511 Y17.672
G1 F1920 X51.777 Y42.939 E878.45889
G0 F10500 X51.070 Y42.939
G1 F1920 X26.511 Y18.379 E879.49334
G0 F10500 X26.511 Y19.086
G1 F1920 X50.363 Y42.939 E880.49801
G0 F10500 X49.656 Y42.939
G1 F1920 X26.511 Y19.794 E881.47288
G0 F10500 X26.511 Y20.501
G1 F1920 X48.949 Y42.939 E882.41797
G0 F10500 X48.242 Y42.939
G1 F1920 X26.511 Y21.208 E883.33328
G0 F10500 X26.511 Y21.915
G1 F1920 X47.535 Y42.939 E884.21881
G0 F10500 X46.828 Y42.939
G1 F1920 X26.511 Y22.622 E885.07456
G0 F10500 X26.511 Y23.329
G1 F1920 X46.121 Y42.939 E885.90054
G0 F10500 X45.747 Y43.272
G1 F1920 X26.511 Y24.036 E886.71076
G0 F10500 X26.511 Y24.743
G1 F1920 X45.488 Y43.721 E887.51009
G0 F10500 X46.063 Y45.003
G1 F1920 X26.511 Y25.450 E888.33365
G0 F10500 X26.511 Y26.158
G1 F1920 X45.792 Y45.438 E889.14574
G0 F10500 X45.085 Y45.438
G1 F1920 X26.511 Y26.865 E889.92806
G0 F10500 X26.511 Y27.572
G1 F1920 X44.378 Y45.438 E890.68060
G0 F10500 X43.670 Y45.438
G1 F1920 X41.321 Y43.088 E890.77956
G0 F10500 X41.170 Y42.938
G1 F1920 X26.511 Y28.279 E891.39700
G0 F10500 X26.511 Y28.986
G1 F1920 X40.463 Y42.938 E891.98465
G0 F10500 X41.090 Y43.191
G0 X41.628 Y44.103
G1 F1920 X42.963 Y45.438 E892.04088
G0 F10500 X42.256 Y45.438
G1 F1920 X41.369 Y44.551 E892.07825
G0 F10500 X41.111 Y45.000
G1 F1920 X41.549 Y45.438 E892.09669
G0 F10500 X41.478 Y43.864
G0 X41.090 Y43.191
G0 X39.756 Y42.938
G1 F1920 X26.511 Y29.693 E892.65457
G0 F10500 X26.511 Y30.400
G1 F1920 X39.049 Y42.938 E893.18268
G0 F10500 X38.342 Y42.938
G1 F1920 X26.511 Y31.107 E893.68100
G0 F10500 X26.511 Y31.814
G1 F1920 X37.635 Y42.938 E894.14954
G0 F10500 X36.927 Y42.938
G1 F1920 X26.511 Y32.521 E894.58829
G0 F10500 X26.511 Y33.229
G1 F1920 X36.220 Y42.938 E894.99723
G0 F10500 X35.513 Y42.938
G1 F1920 X26.511 Y33.936 E895.37639
G0 F10500 X26.511 Y34.643
G1 F1920 X34.806 Y42.938 E895.72578
G0 F10500 X34.099 Y42.938
G1 F1920 X26.511 Y35.350 E896.04539
G0 F10500 X26.511 Y36.057
G1 F1920 X33.392 Y42.938 E896.33521
G0 F10500 X32.685 Y42.938
G1 F1920 X26.511 Y36.764 E896.59526
G0 F10500 X26.511 Y37.471
G1 F1920 X31.978 Y42.938 E896.82553
G0 F10500 X31.271 Y42.938
G1 F1920 X26.511 Y38.178 E897.02603
G0 F10500 X26.511 Y38.885
G1 F1920 X30.563 Y42.938 E897.19672
G0 F10500 X29.856 Y42.938
G1 F1920 X26.511 Y39.593 E897.33761
G0 F10500 X26.511 Y40.300
G1 F1920 X29.149 Y42.938 E897.44872
G0 F10500 X28.442 Y42.938
G1 F1920 X26.511 Y41.007 E897.53006
G0 F10500 X26.511 Y41.714
G1 F1920 X27.735 Y42.938 E897.58161
G0 F10500 X27.028 Y42.938
G1 F1920 X26.511 Y42.421 E897.60339
G0 F10500 X41.478 Y13.864
G0 X40.937 Y12.300
G1 F1920 X60.161 Y31.523 E898.41308
G0 F10500 X60.161 Y30.816
G1 F1920 X41.633 Y12.288 E899.19348
G0 F10500 X42.340 Y12.288
G1 F1920 X60.161 Y30.109 E899.94410
G0 F10500 X60.161 Y29.402
G1 F1920 X43.047 Y12.288 E900.66495
G0 F10500 X43.755 Y12.288
G1 F1920 X45.505 Y14.039 E900.73868
G0 F10500 X45.637 Y13.464
G1 F1920 X44.462 Y12.288 E900.78819
G0 F10500 X45.169 Y12.288
G1 F1920 X45.896 Y13.015 E900.81881
G0 F10500 X46.154 Y12.567
G1 F1920 X45.876 Y12.288 E900.83054
G0 F10500 X45.697 Y13.864
G0 X46.255 Y14.789
G1 F1920 X57.661 Y26.195 E901.31096
G0 F10500 X57.661 Y25.488
G1 F1920 X46.962 Y14.789 E901.76161
G0 F10500 X47.669 Y14.789
G1 F1920 X57.661 Y24.781 E902.18247
G0 F10500 X57.661 Y24.074
G1 F1920 X48.376 Y14.789 E902.57355
G0 F10500 X49.083 Y14.789
G1 F1920 X57.661 Y23.367 E902.93486
G0 F10500 X57.661 Y22.659
G1 F1920 X49.790 Y14.789 E903.26637
G0 F10500 X50.498 Y14.789
G1 F1920 X57.661 Y21.952 E903.56807
G0 F10500 X57.661 Y21.245
G1 F1920 X51.205 Y14.789 E903.84000
G0 F10500 X51.912 Y14.789
G1 F1920 X57.661 Y20.538 E904.08215
G0 F10500 X57.914 Y26.367
G0 X58.587 Y26.755
G0 X59.884 Y26.296
G1 F1920 X60.161 Y26.573 E904.09381
G0 F10500 X60.161 Y27.280
G1 F1920 X59.435 Y26.555 E904.12437
G0 F10500 X58.987 Y26.814
G1 F1920 X60.161 Y27.987 E904.17380
G0 F10500 X60.161 Y28.695
G1 F1920 X58.411 Y26.945 E904.24751
G0 F10500 X57.914 Y26.367
G0 X57.661 Y19.831
G1 F1920 X52.619 Y14.789 E904.45988
G0 F10500 X53.326 Y14.789
G1 F1920 X57.661 Y19.124 E904.64247
G0 F10500 X57.661 Y18.417
G1 F1920 X54.033 Y14.789 E904.79528
G0 F10500 X54.740 Y14.789
G1 F1920 X57.661 Y17.710 E904.91831
G0 F10500 X57.661 Y17.003
G1 F1920 X55.447 Y14.789 E905.01157
G0 F10500 X56.154 Y14.789
G1 F1920 X57.661 Y16.295 E905.07502
G0 F10500 X57.661 Y15.588
G1 F1920 X56.861 Y14.789 E905.10870
G0 F10500 X57.569 Y14.789
G1 F1920 X57.661 Y14.881 E905.11257
G1 F600 E903.61257
G1 Z1.285
G0 F10500 X48.172 Y51.677
;TYPE:WALL-INNER
G1 Z1.185
G1 F600 E905.11257
G1 F1440 X47.161 Y53.427 E905.17277
G1 X47.594 Y54.177 E905.19856
G1 X59.391 Y54.177 E905.54991
G1 X59.391 Y66.839 E905.92703
G1 X61.891 Y65.396 E906.01300
G1 X61.891 Y71.458 E906.19355
G1 X59.391 Y70.015 E906.27952
G1 X59.391 Y85.676 E906.74596
G1 X30.174 Y85.676 E907.61614
G1 X29.739 Y85.637 E907.62915
G1 X29.349 Y85.530 E907.64119
G1 X28.977 Y85.350 E907.65350
G1 X28.834 Y85.255 E907.65861
G1 X28.501 Y84.964 E907.67178
G1 X28.394 Y84.842 E907.67662
G1 X28.151 Y84.473 E907.68978
G1 X28.079 Y84.324 E907.69471
G1 X27.950 Y83.927 E907.70714
G1 X27.894 Y83.512 E907.71961
G1 X27.891 Y54.177 E908.59331
G1 X42.687 Y54.177 E909.03398
G1 X43.120 Y53.427 E909.05977
G1 X42.109 Y51.677 E909.11997
G1 X48.172 Y51.677 E909.30054
G0 F10500 X47.436 Y53.253
G0 X47.738 Y53.427
;TYPE:WALL-OUTER
G1 F1320 X47.883 Y53.677 E909.30915
G1 X59.891 Y53.677 E909.66679
G1 X59.891 Y65.973 E910.03301
G1 X62.391 Y64.530 E910.11898
G1 X62.391 Y72.324 E910.35111
G1 X59.891 Y70.881 E910.43708
G1 X59.891 Y86.176 E910.89262
G1 X30.152 Y86.176 E911.77835
G1 X29.649 Y86.131 E911.79339
G1 X29.175 Y86.000 E911.80803
G1 X28.725 Y85.783 E911.82291
G1 X28.530 Y85.655 E911.82986
G1 X28.146 Y85.319 E911.84506
G1 X27.999 Y85.150 E911.85173
G1 X27.715 Y84.720 E911.86708
G1 X27.615 Y84.512 E911.87395
G1 X27.461 Y84.037 E911.88882
G1 X27.394 Y83.542 E911.90370
G1 X27.391 Y53.677 E912.79318
G1 X42.398 Y53.677 E913.24014
G1 X42.543 Y53.427 E913.24875
G1 X41.243 Y51.177 E913.32614
G1 X49.038 Y51.177 E913.55830
G1 X47.738 Y53.427 E913.63570
G0 F10500 X47.127 Y53.137
;TYPE:SKIN
G1 F1920 X45.841 Y51.851 E913.68986
G0 F10500 X46.548 Y51.851
G1 F1920 X47.386 Y52.689 E913.72516
G0 F10500 X47.644 Y52.241
G1 F1920 X47.255 Y51.851 E913.74156
G0 F10500 X45.133 Y51.851
G1 F1920 X47.299 Y54.017 E913.83280
G0 F10500 X47.634 Y54.351
G1 F1920 X59.215 Y65.933 E914.32061
G0 F10500 X59.215 Y66.640
G1 F1920 X44.426 Y51.851 E914.94352
G0 F10500 X43.719 Y51.851
G1 F1920 X61.716 Y69.848 E915.70156
G0 F10500 X61.716 Y70.555
G1 F1920 X43.012 Y51.851 E916.48937
G0 F10500 X42.557 Y52.103
G1 F1920 X61.461 Y71.006 E917.28559
G0 F10500 X61.716 Y69.140
G1 F1920 X59.533 Y66.958 E917.37752
G0 F10500 X59.982 Y66.699
G1 F1920 X61.716 Y68.433 E917.45055
G0 F10500 X61.716 Y67.726
G1 F1920 X60.430 Y66.441 E917.50470
G0 F10500 X60.879 Y66.182
G1 F1920 X61.716 Y67.019 E917.53995
G0 F10500 X61.716 Y66.312
G1 F1920 X61.327 Y65.923 E917.55634
G0 F10500 X59.541 Y66.579
G0 X59.215 Y65.226
G1 F1920 X48.341 Y54.351 E918.01437
G0 F10500 X49.048 Y54.351
G1 F1920 X59.215 Y64.519 E918.44263
G0 F10500 X59.215 Y63.812
G1 F1920 X49.755 Y54.351 E918.84110
G0 F10500 X50.462 Y54.351
G1 F1920 X59.215 Y63.105 E919.20980
G0 F10500 X59.215 Y62.397
G1 F1920 X51.169 Y54.351 E919.54870
G0 F10500 X51.876 Y54.351
G1 F1920 X59.215 Y61.690 E919.85782
G0 F10500 X59.215 Y60.983
G1 F1920 X52.583 Y54.351 E920.13716
G0 F10500 X53.291 Y54.351
G1 F1920 X59.215 Y60.276 E920.38670
G0 F10500 X59.787 Y70.041
G1 F1920 X43.267 Y53.520 E921.08254
G0 F10500 X43.007 Y53.967
G1 F1920 X59.215 Y70.176 E921.76525
G0 F10500 X59.215 Y70.883
G1 F1920 X42.684 Y54.351 E922.46155
G0 F10500 X41.977 Y54.351
G1 F1920 X59.215 Y71.590 E923.18764
G0 F10500 X59.215 Y72.297
G1 F1920 X41.270 Y54.351 E923.94351
G0 F10500 X40.563 Y54.351
G1 F1920 X59.215 Y73.004 E924.72915
G0 F10500 X59.215 Y73.711
G1 F1920 X39.856 Y54.351 E925.54457
G0 F10500 X39.148 Y54.351
G1 F1920 X59.215 Y74.418 E926.38980
